library/luts/airy_white.cube
# CrabbyCut preset LUT — sinh bởi scripts/generate_preset_luts.js
TITLE "Trong trẻo"
LUT_3D_SIZE 9
0.038070 0.043070 0.057880
0.243133 0.039341 0.053949
0.388255 0.037788 0.052249
0.515274 0.037229 0.051558
0.630201 0.037415 0.051621
0.735511 0.038201 0.052293
0.832458 0.039479 0.053464
0.921427 0.041160 0.055043
1.000000 0.043159 0.056951
0.025526 0.239318 0.044656
0.230589 0.235589 0.040725
0.377976 0.233134 0.041289
0.507025 0.231767 0.042629
0.623831 0.231205 0.044572
0.730900 0.231290 0.047002
0.829492 0.231910 0.049826
0.919665 0.232971 0.052962
1.000000 0.234388 0.056332
0.020300 0.380768 0.038935
0.222870 0.377712 0.035677
0.370486 0.375486 0.033303
0.501015 0.373529 0.036123
0.619190 0.372422 0.039434
0.727540 0.371997 0.043146
0.827347 0.372137 0.047175
0.918391 0.372747 0.051445
1.000000 0.373740 0.055881
0.018422 0.506466 0.036611
0.218756 0.504014 0.033957
0.364742 0.502228 0.032023
0.495626 0.500626 0.030289
0.615029 0.499029 0.034828
0.724528 0.498147 0.039689
0.825437 0.497857 0.044798
0.917256 0.498062 0.050085
1.000000 0.498675 0.055477
0.019047 0.621833 0.036825
0.217313 0.619940 0.034730
0.361792 0.618560 0.033202
0.491324 0.617323 0.031833
0.611178 0.616178 0.030566
0.721741 0.614872 0.036490
0.823680 0.614184 0.042599
0.916211 0.614015 0.048826
1.000000 0.614276 0.055103
0.021691 0.729000 0.039084
0.218020 0.727630 0.037511
0.361088 0.726631 0.036365
0.489355 0.725736 0.035337
0.608039 0.724907 0.034386
0.719132 0.724132 0.033496
0.822018 0.723071 0.040541
0.915239 0.722550 0.047648
1.000000 0.722482 0.054753
0.025991 0.828988 0.043022
0.220500 0.828156 0.041941
0.362242 0.827515 0.041153
0.489319 0.826941 0.040446
0.606903 0.826410 0.039793
0.716965 0.825912 0.039181
0.820445 0.825445 0.038606
0.914329 0.824594 0.046541
1.000000 0.824217 0.054424
0.031646 0.918188 0.048336
0.224441 0.917695 0.047717
0.364934 0.917337 0.047266
0.490893 0.917016 0.046862
0.607441 0.916720 0.046488
0.716534 0.916443 0.046138
0.819102 0.916183 0.045809
0.913478 0.915939 0.045499
1.000000 0.915261 0.054114
0.038378 1.000000 0.054752
0.229564 1.000000 0.054569
0.368883 1.000000 0.054435
0.493790 1.000000 0.054314
0.609365 1.000000 0.054203
0.717547 1.000000 0.054099
0.819258 1.000000 0.054001
0.912691 1.000000 0.053909
1.000000 1.000000 0.053823
0.036803 0.041803 0.265337
0.241867 0.038075 0.261406
0.387217 0.036750 0.256767
0.514441 0.036397 0.253443
0.629558 0.036772 0.251069
0.735045 0.037735 0.249459
0.832157 0.039181 0.248484
0.921248 0.041019 0.248045
1.000000 0.043165 0.248055
0.024260 0.238052 0.252113
0.229323 0.234323 0.248182
0.379432 0.231423 0.245135
0.510922 0.229657 0.243237
0.629986 0.228726 0.242183
0.739169 0.228466 0.241809
0.839645 0.228762 0.241997
0.931628 0.229518 0.242651
1.000000 0.230633 0.243689
0.019263 0.379730 0.243454
0.219568 0.377576 0.237931
0.369677 0.374677 0.234884
0.502646 0.372322 0.234465
0.623080 0.370845 0.234781
0.733544 0.370075 0.235689
0.835237 0.369891 0.237081
0.928086 0.370195 0.238870
1.000000 0.370888 0.240973
0.017589 0.505634 0.238496
0.213628 0.504892 0.231547
0.362108 0.502432 0.228939
0.495227 0.500227 0.226601
0.616888 0.498262 0.228145
0.728501 0.497034 0.230201
0.831308 0.496419 0.232674
0.924929 0.496319 0.235479
1.000000 0.496634 0.238538
0.018404 0.621190 0.236273
0.210495 0.621755 0.228003
0.357468 0.619702 0.225802
0.489235 0.617862 0.223829
0.611159 0.616159 0.222004
0.723835 0.614507 0.225123
0.827692 0.613495 0.228596
0.922022 0.613019 0.232342
1.000000 0.612985 0.236286
0.021225 0.728535 0.236250
0.209621 0.730323 0.226744
0.355183 0.728651 0.224924
0.485685 0.727152 0.223293
0.606438 0.725765 0.221784
0.719467 0.724467 0.220371
0.824324 0.723082 0.224779
0.919314 0.722256 0.229405
1.000000 0.721894 0.234177
0.025693 0.828705 0.238043
0.210615 0.831518 0.227375
0.354850 0.830269 0.225914
0.484163 0.829152 0.224604
0.603815 0.828093 0.223392
0.715814 0.827073 0.222257
0.821114 0.826114 0.221190
0.916779 0.824958 0.226644
1.000000 0.824289 0.232194
0.031504 0.918021 0.241338
0.213157 0.921754 0.229577
0.356144 0.920751 0.228452
0.484338 0.919854 0.227445
0.602954 0.919026 0.226512
0.713983 0.918251 0.225639
0.818372 0.917524 0.224818
0.914404 0.916840 0.224046
1.000000 0.915889 0.230328
0.038384 1.000000 0.245857
0.216947 1.000000 0.233067
0.358762 1.000000 0.232260
0.485906 1.000000 0.231536
0.603552 1.000000 0.230866
0.713672 1.000000 0.230240
0.817206 1.000000 0.229650
0.912332 1.000000 0.229096
1.000000 1.000000 0.228574
0.036276 0.041276 0.411435
0.238846 0.038220 0.408177
0.386461 0.035994 0.405803
0.513834 0.035790 0.400559
0.629089 0.036303 0.396409
0.734706 0.037396 0.393136
0.831939 0.038963 0.390599
0.921118 0.040916 0.388689
1.000000 0.043170 0.387315
0.025997 0.236622 0.400476
0.228338 0.233338 0.400156
0.378447 0.230438 0.397109
0.510086 0.228822 0.393291
0.629289 0.228029 0.390462
0.738601 0.227899 0.388425
0.839199 0.228316 0.387049
0.931270 0.229186 0.386233
1.000000 0.230409 0.385887
0.018507 0.378974 0.392489
0.218583 0.376592 0.389905
0.368692 0.373692 0.386857
0.503440 0.371046 0.384080
0.625519 0.369301 0.382212
0.737523 0.368279 0.381076
0.840592 0.367858 0.380548
0.934757 0.367940 0.380528
1.000000 0.368416 0.380932
0.016982 0.505027 0.385612
0.212792 0.504057 0.381601
0.359793 0.502186 0.377514
0.494541 0.499541 0.374736
0.617847 0.497307 0.374096
0.731001 0.495827 0.374109
0.835194 0.494976 0.374661
0.930127 0.494653 0.375658
1.000000 0.494752 0.377017
0.017935 0.620721 0.381613
0.209798 0.621058 0.376281
0.353922 0.620139 0.371231
0.487318 0.617859 0.368819
0.610749 0.615749 0.366586
0.724965 0.613846 0.367662
0.830225 0.612597 0.369214
0.925865 0.611899 0.371151
1.000000 0.611650 0.373395
0.020886 0.728196 0.379927
0.209054 0.729756 0.373359
0.350485 0.729728 0.367409
0.482616 0.727789 0.365338
0.604876 0.725995 0.363422
0.719316 0.724316 0.361628
0.825597 0.722694 0.364115
0.921894 0.721646 0.366933
1.000000 0.721071 0.370005
0.025475 0.828500 0.380157
0.210169 0.831093 0.372428
0.349068 0.831871 0.365631
0.480011 0.830334 0.363881
0.601170 0.828914 0.362262
0.714580 0.827524 0.360746
0.821206 0.826206 0.359321
0.918177 0.824828 0.362967
1.000000 0.823946 0.366817
0.031401 0.917899 0.381981
0.212825 0.921413 0.373158
0.349342 0.922862 0.365564
0.479166 0.921545 0.364117
0.599289 0.920329 0.362777
0.711730 0.919192 0.361523
0.817445 0.918125 0.360344
0.914693 0.917122 0.359235
1.000000 0.915971 0.363817
0.038389 1.000000 0.385117
0.216723 1.000000 0.375266
0.350993 1.000000 0.366923
0.479768 1.000000 0.365759
0.598922 1.000000 0.364683
0.710455 1.000000 0.363675
0.815316 1.000000 0.362727
0.911686 1.000000 0.361835
1.000000 1.000000 0.360997
0.036086 0.041086 0.538778
0.236420 0.038634 0.536123
0.382407 0.036848 0.534189
0.513290 0.035246 0.532455
0.628669 0.035883 0.526713
0.734402 0.037092 0.521950
0.831742 0.038768 0.518011
0.921002 0.040823 0.514782
1.000000 0.043174 0.512168
0.027838 0.235624 0.529849
0.227739 0.232739 0.532767
0.376218 0.230279 0.530160
0.509337 0.228073 0.527822
0.628664 0.227404 0.523400
0.738092 0.227390 0.519873
0.838799 0.227916 0.517096
0.930948 0.228888 0.514960
1.000000 0.230208 0.513375
0.021827 0.377386 0.523342
0.219463 0.375403 0.523996
0.367793 0.372793 0.523308
0.502542 0.370148 0.520530
0.624745 0.368527 0.517070
0.736865 0.367621 0.514444
0.840046 0.367309 0.512514
0.934289 0.367493 0.511175
1.000000 0.368066 0.510339
0.016438 0.504483 0.517509
0.212043 0.503308 0.516131
0.358894 0.501288 0.513964
0.493642 0.498642 0.511186
0.618424 0.496167 0.508589
0.732959 0.494463 0.506770
0.838397 0.493399 0.505599
0.934507 0.492876 0.504975
1.000000 0.492782 0.504810
0.017515 0.620301 0.511917
0.209173 0.620433 0.509219
0.353147 0.619365 0.506089
0.485316 0.617573 0.502449
0.610098 0.615098 0.499852
0.725696 0.612970 0.499096
0.832217 0.611509 0.498924
0.929031 0.610611 0.499241
1.000000 0.610170 0.499961
0.020582 0.727892 0.508740
0.208544 0.729247 0.504807
0.349826 0.729070 0.500776
0.479581 0.728077 0.496329
0.603193 0.725918 0.494048
0.718898 0.723898 0.491912
0.826459 0.722064 0.492677
0.923929 0.720816 0.493874
1.000000 0.720049 0.495421
0.025280 0.828315 0.507569
0.209769 0.830713 0.502474
0.348519 0.831348 0.497597
0.476004 0.831123 0.492390
0.598516 0.829356 0.490406
0.713190 0.827644 0.488549
0.821006 0.826006 0.486803
0.919152 0.824428 0.488828
1.000000 0.823357 0.491154
0.031309 0.917789 0.508075
0.212528 0.921108 0.501885
0.348896 0.922415 0.496211
0.474245 0.922792 0.490290
0.595721 0.921228 0.488586
0.709426 0.919767 0.486990
0.816330 0.918395 0.485490
0.914676 0.917106 0.484079
1.000000 0.915777 0.487137
0.038393 1.000000 0.509970
0.216523 1.000000 0.502753
0.350644 1.000000 0.496330
0.473982 1.000000 0.489737
0.594489 1.000000 0.488296
0.707288 1.000000 0.486946
0.813340 1.000000 0.485677
0.910832 1.000000 0.484484
1.000000 1.000000 0.483361
0.036149 0.041149 0.653541
0.234415 0.039256 0.651445
0.378894 0.037876 0.649918
0.508426 0.036639 0.648549
0.628281 0.035495 0.647282
0.734121 0.036811 0.641139
0.831561 0.038588 0.635904
0.920894 0.040738 0.631454
1.000000 0.043178 0.627694
0.029780 0.234939 0.646491
0.227422 0.232422 0.652405
0.374395 0.230369 0.650204
0.506162 0.228529 0.648232
0.628086 0.226826 0.646406
0.737621 0.226919 0.641500
0.838429 0.227545 0.637426
0.930651 0.228613 0.634070
1.000000 0.230023 0.631338
0.025138 0.376156 0.641353
0.220516 0.374541 0.645003
0.367201 0.372201 0.646498
0.500597 0.369920 0.644085
0.624028 0.367810 0.641853
0.736256 0.367012 0.637847
0.839541 0.366801 0.634620
0.933855 0.367080 0.632061
1.000000 0.367742 0.630078
0.020977 0.502764 0.636747
0.214324 0.501958 0.638366
0.359529 0.500206 0.638382
0.492802 0.497802 0.637561
0.617584 0.495327 0.634964
0.732225 0.493729 0.631766
0.837772 0.492767 0.629298
0.933953 0.492339 0.627454
1.000000 0.492335 0.626142
0.017127 0.619913 0.632486
0.208595 0.619855 0.632225
0.352431 0.618648 0.630872
0.484476 0.616733 0.628824
0.609258 0.614258 0.626227
0.726133 0.611921 0.623775
0.833825 0.610263 0.622010
0.931724 0.609181 0.620827
1.000000 0.608562 0.620137
0.020300 0.727610 0.627930
0.208073 0.728775 0.626434
0.349217 0.728461 0.624180
0.478848 0.727344 0.621325
0.601396 0.725609 0.617980
0.718272 0.723272 0.615529
0.827024 0.721242 0.614699
0.925576 0.719809 0.614396
1.000000 0.718866 0.614534
0.025100 0.828143 0.625463
0.209399 0.830362 0.622804
0.348011 0.830865 0.619703
0.475372 0.830522 0.616089
0.595820 0.829537 0.612042
0.711666 0.827517 0.609869
0.820582 0.825582 0.607826
0.919821 0.823819 0.608351
1.000000 0.822572 0.609267
0.031223 0.917688 0.624747
0.212253 0.920826 0.620996
0.348482 0.922001 0.617098
0.473708 0.922260 0.612769
0.592180 0.921833 0.608061
0.707056 0.920072 0.606149
0.815060 0.918419 0.604352
0.914427 0.916865 0.602661
1.000000 0.915372 0.604309
0.038397 1.000000 0.625496
0.216338 1.000000 0.620716
0.350321 1.000000 0.616069
0.473536 1.000000 0.611069
0.590149 1.000000 0.605739
0.704120 1.000000 0.604074
0.811273 1.000000 0.602508
0.909810 1.000000 0.601034
1.000000 1.000000 0.599649
0.036416 0.041416 0.758293
0.232746 0.040046 0.756720
0.375814 0.039047 0.755574
0.504081 0.038151 0.754546
0.622765 0.037323 0.753595
0.733857 0.036547 0.752705
0.831391 0.038419 0.746256
0.920793 0.040658 0.740664
1.000000 0.043181 0.735830
0.031805 0.234505 0.753001
0.227334 0.232334 0.761720
0.372895 0.230662 0.759900
0.503398 0.229163 0.758269
0.624151 0.227776 0.756760
0.737180 0.226478 0.755347
0.838083 0.227199 0.750060
0.930373 0.228356 0.745562
1.000000 0.229849 0.741755
0.028446 0.375212 0.749146
0.221709 0.373943 0.755599
0.366854 0.371854 0.759138
0.498985 0.369915 0.757067
0.621246 0.368121 0.755151
0.735685 0.366441 0.753357
0.839068 0.366325 0.748916
0.933450 0.366693 0.745215
1.000000 0.367439 0.742158
0.025433 0.501362 0.745689
0.216666 0.500901 0.750112
0.360331 0.499402 0.752171
0.492223 0.497223 0.753183
0.615834 0.495064 0.750901
0.731539 0.493043 0.748766
0.837187 0.492175 0.745085
0.933435 0.491836 0.742098
1.000000 0.491916 0.739712
0.022646 0.618088 0.742490
0.212000 0.618375 0.745034
0.354296 0.617421 0.745724
0.484960 0.615731 0.745508
0.608464 0.613464 0.744606
0.725340 0.611127 0.742155
0.833137 0.609564 0.739176
0.931103 0.608571 0.736850
1.000000 0.608036 0.735086
0.020037 0.727347 0.739496
0.207633 0.728335 0.740281
0.348646 0.727890 0.739690
0.478162 0.726658 0.738325
0.600603 0.724815 0.736360
0.717478 0.722478 0.733909
0.827348 0.720264 0.731587
0.926915 0.718659 0.729880
1.000000 0.717551 0.728698
0.024931 0.827975 0.735815
0.209052 0.830033 0.735438
0.347535 0.830413 0.734000
0.474780 0.829961 0.731876
0.595121 0.828874 0.729208
0.710031 0.827191 0.726099
0.819977 0.824977 0.723778
0.920244 0.823042 0.722899
1.000000 0.821631 0.722495
0.031143 0.917594 0.733957
0.211995 0.920562 0.732487
0.348095 0.921614 0.730252
0.473205 0.921764 0.727413
0.591570 0.921235 0.724085
0.704629 0.920161 0.720357
0.813664 0.918244 0.718282
0.913992 0.916442 0.716329
1.000000 0.914796 0.716657
0.038401 1.000000 0.733632
0.216165 1.000000 0.731133
0.350019 1.000000 0.728149
0.473118 1.000000 0.724639
0.589625 1.000000 0.720689
0.700947 1.000000 0.716380
0.809132 1.000000 0.714536
0.908653 1.000000 0.712800
1.000000 1.000000 0.711169
0.036850 0.041850 0.852822
0.231359 0.040971 0.851860
0.373101 0.040331 0.851160
0.500178 0.039756 0.850532
0.617762 0.039225 0.849951
0.727824 0.038728 0.849407
0.831232 0.038260 0.848896
0.920698 0.040582 0.842971
1.000000 0.043185 0.837498
0.033893 0.234281 0.849588
0.227434 0.232434 0.859681
0.371669 0.231121 0.858382
0.500983 0.229943 0.857218
0.620635 0.228853 0.856140
0.732633 0.227832 0.855132
0.837758 0.226873 0.854183
0.930112 0.228113 0.849230
1.000000 0.229685 0.844950
0.031738 0.374508 0.847232
0.223014 0.373563 0.855312
0.366711 0.371711 0.860165
0.497653 0.370093 0.858610
0.618813 0.368596 0.857170
0.732222 0.367195 0.855823
0.838624 0.365877 0.854557
0.933069 0.366329 0.850312
1.000000 0.367154 0.846697
0.029806 0.500228 0.845119
0.219052 0.500092 0.851394
0.361268 0.498829 0.854932
0.491862 0.496862 0.857363
0.614373 0.495000 0.855599
0.729048 0.493257 0.853948
0.836637 0.491619 0.852396
0.932948 0.491363 0.848787
1.000000 0.491522 0.845769
0.028018 0.616555 0.843164
0.215385 0.617167 0.847769
0.356233 0.616449 0.850090
0.485599 0.614971 0.851430
0.607901 0.612901 0.852045
0.723747 0.610843 0.850113
0.832490 0.608907 0.848297
0.930518 0.607997 0.845275
1.000000 0.607542 0.842809
0.026345 0.725442 0.841335
0.211953 0.726754 0.844376
0.351519 0.726547 0.845558
0.479736 0.725526 0.845876
0.600976 0.723879 0.845546
0.716726 0.721726 0.844693
0.826611 0.719513 0.842630
0.926240 0.717990 0.840158
1.000000 0.716962 0.837986
0.024772 0.827816 0.839566
0.208726 0.829724 0.841186
0.347087 0.829989 0.841297
0.474224 0.829433 0.840655
0.594464 0.828220 0.839366
0.709279 0.826439 0.837471
0.819225 0.824225 0.835150
0.920463 0.822127 0.832950
1.000000 0.820562 0.831305
0.031068 0.917505 0.836635
0.211753 0.920314 0.837309
0.347732 0.921250 0.836637
0.472732 0.921296 0.835201
0.590996 0.920673 0.833168
0.703961 0.919509 0.830655
0.812168 0.917906 0.827751
0.913404 0.915872 0.825552
1.000000 0.914081 0.824640
0.038404 1.000000 0.835300
0.216002 1.000000 0.834946
0.349735 1.000000 0.833525
0.472725 1.000000 0.831417
0.589131 1.000000 0.828763
0.700360 1.000000 0.825668
0.806936 1.000000 0.822218
0.907387 1.000000 0.820236
1.000000 1.000000 0.818373
0.037421 0.042421 0.931386
0.230217 0.042005 0.930836
0.370710 0.041701 0.930436
0.496668 0.041429 0.930076
0.613216 0.041177 0.929744
0.722309 0.040942 0.929432
0.824851 0.040720 0.929140
0.920609 0.040512 0.928864
1.000000 0.043188 0.922825
0.036020 0.234232 0.929536
0.227691 0.232691 0.941835
0.370677 0.231714 0.940836
0.498871 0.230839 0.939940
0.617488 0.230028 0.939111
0.728517 0.229270 0.938335
0.832784 0.228557 0.937605
0.929867 0.227886 0.936919
1.000000 0.229532 0.931793
0.034999 0.374008 0.928188
0.224405 0.373368 0.938473
0.366738 0.371738 0.944934
0.496561 0.370423 0.943647
0.616685 0.369206 0.942456
0.729126 0.368066 0.941342
0.834669 0.366995 0.940294
0.932711 0.365987 0.939308
1.000000 0.366886 0.934848
0.034084 0.499323 0.926979
0.221459 0.499492 0.935460
0.362313 0.498451 0.940605
0.491684 0.496684 0.944477
0.613160 0.495102 0.942961
0.726865 0.493621 0.941543
0.833592 0.492229 0.940210
0.932489 0.490918 0.938955
1.000000 0.491151 0.935093
0.033237 0.615276 0.925860
0.218733 0.616193 0.932671
0.358218 0.615698 0.936599
0.486362 0.614419 0.939380
0.607534 0.612534 0.941328
0.722410 0.610737 0.939629
0.830283 0.609047 0.938031
0.929968 0.607457 0.936528
1.000000 0.607076 0.933218
0.032444 0.723812 0.924813
0.216182 0.725429 0.930061
0.354385 0.725444 0.932850
0.481380 0.724623 0.934609
0.601489 0.723161 0.935612
0.716181 0.721181 0.936007
0.825185 0.719213 0.934163
0.925606 0.717362 0.932427
1.000000 0.716408 0.929634
0.031699 0.825856 0.923829
0.213783 0.828132 0.927606
0.350781 0.828626 0.929325
0.476695 0.828236 0.930123
0.595805 0.827172 0.930238
0.709562 0.825564 0.929802
0.818513 0.823513 0.928912
0.919749 0.821415 0.926957
1.000000 0.819925 0.924650
0.030997 0.917421 0.922903
0.211525 0.920080 0.925297
0.347389 0.920908 0.926007
0.472287 0.920857 0.925902
0.590456 0.920144 0.925181
0.703332 0.918897 0.923961
0.811455 0.917215 0.922335
0.912693 0.915182 0.920381
1.000000 0.913256 0.918531
0.038408 1.000000 0.920871
0.215849 1.000000 0.922352
0.349468 1.000000 0.922396
0.472356 1.000000 0.921694
0.588667 1.000000 0.920420
0.699807 1.000000 0.918684
0.806300 1.000000 0.916572
0.906038 1.000000 0.914159
1.000000 1.000000 0.912310
0.038100 0.043100 1.000000
0.229285 0.043118 1.000000
0.368604 0.043132 1.000000
0.493510 0.043144 1.000000
0.609085 0.043155 1.000000
0.717267 0.043165 1.000000
0.818978 0.043175 1.000000
0.913941 0.043184 1.000000
1.000000 0.043190 1.000000
0.038162 0.234329 1.000000
0.228069 0.233069 1.000000
0.369882 0.232409 1.000000
0.497024 0.231818 1.000000
0.614667 0.231271 1.000000
0.724785 0.230758 1.000000
0.828246 0.230277 1.000000
0.924520 0.229824 1.000000
1.000000 0.229382 1.000000
0.038207 0.373680 1.000000
0.225850 0.373322 1.000000
0.366899 0.371899 1.000000
0.495670 0.370868 1.000000
0.614820 0.369913 1.000000
0.726350 0.369020 1.000000
0.831086 0.368181 1.000000
0.928322 0.367391 1.000000
1.000000 0.366627 1.000000
0.038248 0.498614 1.000000
0.223860 0.499066 1.000000
0.363430 0.498232 1.000000
0.491651 0.496651 1.000000
0.612153 0.495332 1.000000
0.724947 0.494097 1.000000
0.830863 0.492937 1.000000
0.928956 0.491845 1.000000
1.000000 0.490795 1.000000
0.038285 0.614215 1.000000
0.222020 0.615416 1.000000
0.360221 0.615128 1.000000
0.487214 0.614035 1.000000
0.607322 0.612322 1.000000
0.721287 0.610772 1.000000
0.828341 0.609314 1.000000
0.927223 0.607942 1.000000
1.000000 0.606631 1.000000
0.038320 0.722421 1.000000
0.220297 0.724323 1.000000
0.357217 0.724546 1.000000
0.483062 0.723911 1.000000
0.602107 0.722622 1.000000
0.715804 0.720804 1.000000
0.823978 0.719068 1.000000
0.923596 0.717434 1.000000
1.000000 0.715880 1.000000
0.038353 0.824156 1.000000
0.218677 0.826717 1.000000
0.354392 0.827419 1.000000
0.479157 0.827216 1.000000
0.597203 0.826325 1.000000
0.709965 0.824879 1.000000
0.817980 0.822980 1.000000
0.918428 0.821101 1.000000
1.000000 0.819320 1.000000
0.038384 0.915511 1.000000
0.217152 0.918443 1.000000
0.351734 0.919471 1.000000
0.475483 0.919599 1.000000
0.592588 0.919051 1.000000
0.704470 0.917960 1.000000
0.811658 0.916423 1.000000
0.912019 0.914527 1.000000
1.000000 0.912603 1.000000
0.038410 1.000000 1.000000
0.215703 1.000000 1.000000
0.349214 1.000000 1.000000
0.472006 1.000000 1.000000
0.588228 1.000000 1.000000
0.699285 1.000000 1.000000
0.805700 1.000000 1.000000
0.905369 1.000000 1.000000
1.000000 1.000000 1.000000
