library/luts/airy_white.cube
# CrabbyCut preset LUT — sinh bởi scripts/generate_preset_luts.js
TITLE "Trong trẻo"
LUT_3D_SIZE 5
0.038070 0.043070 0.057880
0.388255 0.037788 0.052249
0.630201 0.037415 0.051621
0.832458 0.039479 0.053464
1.000000 0.043159 0.056951
0.020300 0.380768 0.038935
0.370486 0.375486 0.033303
0.619190 0.372422 0.039434
0.827347 0.372137 0.047175
1.000000 0.373740 0.055881
0.019047 0.621833 0.036825
0.361792 0.618560 0.033202
0.611178 0.616178 0.030566
0.823680 0.614184 0.042599
1.000000 0.614276 0.055103
0.025991 0.828988 0.043022
0.362242 0.827515 0.041153
0.606903 0.826410 0.039793
0.820445 0.825445 0.038606
1.000000 0.824217 0.054424
0.038378 1.000000 0.054752
0.368883 1.000000 0.054435
0.609365 1.000000 0.054203
0.819258 1.000000 0.054001
1.000000 1.000000 0.053823
0.036276 0.041276 0.411435
0.386461 0.035994 0.405803
0.629089 0.036303 0.396409
0.831939 0.038963 0.390599
1.000000 0.043170 0.387315
0.018507 0.378974 0.392489
0.368692 0.373692 0.386857
0.625519 0.369301 0.382212
0.840592 0.367858 0.380548
1.000000 0.368416 0.380932
0.017935 0.620721 0.381613
0.353922 0.620139 0.371231
0.610749 0.615749 0.366586
0.830225 0.612597 0.369214
1.000000 0.611650 0.373395
0.025475 0.828500 0.380157
0.349068 0.831871 0.365631
0.601170 0.828914 0.362262
0.821206 0.826206 0.359321
1.000000 0.823946 0.366817
0.038389 1.000000 0.385117
0.350993 1.000000 0.366923
0.598922 1.000000 0.364683
0.815316 1.000000 0.362727
1.000000 1.000000 0.360997
0.036149 0.041149 0.653541
0.378894 0.037876 0.649918
0.628281 0.035495 0.647282
0.831561 0.038588 0.635904
1.000000 0.043178 0.627694
0.025138 0.376156 0.641353
0.367201 0.372201 0.646498
0.624028 0.367810 0.641853
0.839541 0.366801 0.634620
1.000000 0.367742 0.630078
0.017127 0.619913 0.632486
0.352431 0.618648 0.630872
0.609258 0.614258 0.626227
0.833825 0.610263 0.622010
1.000000 0.608562 0.620137
0.025100 0.828143 0.625463
0.348011 0.830865 0.619703
0.595820 0.829537 0.612042
0.820582 0.825582 0.607826
1.000000 0.822572 0.609267
0.038397 1.000000 0.625496
0.350321 1.000000 0.616069
0.590149 1.000000 0.605739
0.811273 1.000000 0.602508
1.000000 1.000000 0.599649
0.036850 0.041850 0.852822
0.373101 0.040331 0.851160
0.617762 0.039225 0.849951
0.831232 0.038260 0.848896
1.000000 0.043185 0.837498
0.031738 0.374508 0.847232
0.366711 0.371711 0.860165
0.618813 0.368596 0.857170
0.838624 0.365877 0.854557
1.000000 0.367154 0.846697
0.028018 0.616555 0.843164
0.356233 0.616449 0.850090
0.607901 0.612901 0.852045
0.832490 0.608907 0.848297
1.000000 0.607542 0.842809
0.024772 0.827816 0.839566
0.347087 0.829989 0.841297
0.594464 0.828220 0.839366
0.819225 0.824225 0.835150
1.000000 0.820562 0.831305
0.038404 1.000000 0.835300
0.349735 1.000000 0.833525
0.589131 1.000000 0.828763
0.806936 1.000000 0.822218
1.000000 1.000000 0.818373
0.038100 0.043100 1.000000
0.368604 0.043132 1.000000
0.609085 0.043155 1.000000
0.818978 0.043175 1.000000
1.000000 0.043190 1.000000
0.038207 0.373680 1.000000
0.366899 0.371899 1.000000
0.614820 0.369913 1.000000
0.831086 0.368181 1.000000
1.000000 0.366627 1.000000
0.038285 0.614215 1.000000
0.360221 0.615128 1.000000
0.607322 0.612322 1.000000
0.828341 0.609314 1.000000
1.000000 0.606631 1.000000
0.038353 0.824156 1.000000
0.354392 0.827419 1.000000
0.597203 0.826325 1.000000
0.817980 0.822980 1.000000
1.000000 0.819320 1.000000
0.038410 1.000000 1.000000
0.349214 1.000000 1.000000
0.588228 1.000000 1.000000
0.805700 1.000000 1.000000
1.000000 1.000000 1.000000
