library/luts/airy_white.cube
# CrabbyCut preset LUT — sinh bởi scripts/generate_preset_luts.js
TITLE "Trong trẻo"
LUT_3D_SIZE 17
0.038070 0.043070 0.057880
0.157956 0.040680 0.055373
0.243133 0.039341 0.053949
0.318652 0.038415 0.052947
0.388255 0.037788 0.052249
0.453513 0.037404 0.051797
0.515274 0.037229 0.051558
0.574054 0.037239 0.051506
0.630201 0.037415 0.051621
0.683959 0.037740 0.051889
0.735511 0.038201 0.052293
0.784995 0.038784 0.052822
0.832458 0.039479 0.053464
0.877846 0.040275 0.054208
0.921427 0.041160 0.055043
0.963266 0.042126 0.055961
1.000000 0.043159 0.056951
0.030030 0.157306 0.049446
0.149916 0.154916 0.046939
0.235851 0.153276 0.046272
0.312050 0.152079 0.045950
0.382287 0.151199 0.045886
0.448148 0.150575 0.046037
0.510485 0.150171 0.046374
0.569820 0.149960 0.046877
0.626503 0.149923 0.047529
0.680780 0.150041 0.048314
0.732834 0.150302 0.049221
0.782806 0.150691 0.050237
0.830733 0.151198 0.051352
0.876475 0.151811 0.052554
0.920402 0.152519 0.053835
0.962577 0.153313 0.055183
1.000000 0.154180 0.056591
0.025526 0.239318 0.044656
0.144579 0.237153 0.042374
0.230589 0.235589 0.040725
0.307280 0.234197 0.040894
0.377976 0.233134 0.041289
0.444272 0.232337 0.041875
0.507025 0.231767 0.042629
0.566762 0.231397 0.043533
0.623831 0.231205 0.044572
0.678483 0.231174 0.045732
0.730900 0.231290 0.047002
0.781224 0.231539 0.048370
0.829492 0.231910 0.049826
0.875490 0.232391 0.051360
0.919665 0.232971 0.052962
0.962081 0.233641 0.054622
1.000000 0.234388 0.056332
0.022411 0.312648 0.041284
0.140715 0.310686 0.039204
0.226184 0.309268 0.037702
0.302993 0.307993 0.036351
0.374101 0.306767 0.037158
0.440789 0.305814 0.038135
0.503916 0.305095 0.039264
0.564013 0.304581 0.040528
0.621431 0.304250 0.041914
0.676419 0.304086 0.043411
0.729162 0.304072 0.045007
0.779802 0.304195 0.046692
0.828381 0.304444 0.048455
0.874608 0.304806 0.050286
0.919005 0.305271 0.052177
0.961637 0.305830 0.054117
1.000000 0.306469 0.056099
0.020300 0.380768 0.038935
0.137905 0.378994 0.037043
0.222870 0.377712 0.035677
0.299225 0.376560 0.034449
0.370486 0.375486 0.033303
0.437538 0.374388 0.034645
0.501015 0.373529 0.036123
0.561448 0.372881 0.037723
0.619190 0.372422 0.039434
0.674492 0.372132 0.041245
0.727540 0.371997 0.043146
0.778475 0.372003 0.045126
0.827347 0.372137 0.047175
0.873787 0.372389 0.049284
0.918391 0.372747 0.051445
0.961224 0.373201 0.053647
1.000000 0.373740 0.055881
0.019009 0.445119 0.037416
0.135951 0.443524 0.035704
0.220437 0.442372 0.034467
0.296362 0.441336 0.033355
0.367220 0.440370 0.032317
0.434453 0.439453 0.031333
0.498262 0.438463 0.033142
0.559013 0.437688 0.035062
0.617064 0.437105 0.037081
0.672664 0.436697 0.039190
0.726001 0.436447 0.041380
0.777217 0.436341 0.043640
0.826370 0.436367 0.045961
0.873011 0.436514 0.048334
0.917810 0.436770 0.050750
0.960833 0.437125 0.053200
1.000000 0.437569 0.055675
0.018422 0.506466 0.036611
0.134729 0.505043 0.035071
0.218756 0.504014 0.033957
0.294269 0.503090 0.032957
0.364742 0.502228 0.032023
0.431610 0.501409 0.031137
0.495626 0.500626 0.030289
0.556683 0.499729 0.032514
0.615029 0.499029 0.034828
0.670915 0.498507 0.037223
0.724528 0.498147 0.039689
0.776011 0.497934 0.042217
0.825437 0.497857 0.044798
0.872270 0.497903 0.047424
0.917256 0.498062 0.050085
0.960460 0.498323 0.052772
1.000000 0.498675 0.055477
0.018456 0.565271 0.036436
0.134152 0.564012 0.035060
0.217738 0.563103 0.034066
0.292854 0.562286 0.033173
0.362957 0.561523 0.032339
0.429474 0.560800 0.031548
0.493153 0.560107 0.030791
0.554440 0.559440 0.030062
0.613070 0.558628 0.032660
0.669230 0.557996 0.035329
0.723110 0.557530 0.038062
0.774852 0.557214 0.040848
0.824542 0.557037 0.043680
0.871559 0.556987 0.046548
0.916724 0.557051 0.049445
0.960102 0.557222 0.052360
1.000000 0.557485 0.055287
0.019047 0.621833 0.036825
0.134153 0.620734 0.035609
0.217313 0.619940 0.034730
0.292046 0.619226 0.033940
0.361792 0.618560 0.033202
0.427969 0.617928 0.032503
0.491324 0.617323 0.031833
0.552298 0.616740 0.031189
0.611178 0.616178 0.030566
0.667604 0.615441 0.033501
0.721741 0.614872 0.036490
0.773732 0.614458 0.039526
0.823680 0.614184 0.042599
0.870874 0.614040 0.045702
0.916211 0.614015 0.048826
0.959757 0.614097 0.051963
1.000000 0.614276 0.055103
0.020141 0.676360 0.037724
0.134676 0.675415 0.036661
0.217423 0.674732 0.035893
0.291785 0.674118 0.035204
0.361185 0.673546 0.034560
0.427035 0.673002 0.033949
0.490075 0.672482 0.033364
0.550747 0.671982 0.032801
0.609335 0.671498 0.032258
0.666030 0.671030 0.031732
0.720415 0.670363 0.034970
0.772648 0.669852 0.038246
0.822841 0.669485 0.041554
0.870214 0.669251 0.044884
0.915717 0.669137 0.048228
0.959424 0.669135 0.051578
1.000000 0.669231 0.054925
0.021691 0.729000 0.039084
0.135673 0.728205 0.038170
0.218020 0.727630 0.037511
0.292023 0.727113 0.036918
0.361088 0.726631 0.036365
0.426619 0.726174 0.035840
0.489355 0.725736 0.035337
0.549734 0.725314 0.034853
0.608039 0.724907 0.034386
0.664460 0.724513 0.033934
0.719132 0.724132 0.033496
0.771598 0.723528 0.037007
0.822018 0.723071 0.040541
0.869575 0.722749 0.044091
0.915239 0.722550 0.047648
0.959102 0.722465 0.051205
1.000000 0.722482 0.054753
0.023654 0.779864 0.040863
0.137099 0.779214 0.040095
0.219059 0.778743 0.039540
0.292714 0.778321 0.039041
0.361454 0.777926 0.038575
0.426676 0.777552 0.038134
0.489117 0.777194 0.037711
0.549212 0.776849 0.037304
0.607242 0.776516 0.036911
0.663398 0.776194 0.036530
0.717812 0.775882 0.036162
0.770579 0.775579 0.035804
0.821219 0.775035 0.039559
0.868958 0.774628 0.043322
0.914777 0.774347 0.047086
0.958791 0.774182 0.050844
1.000000 0.774121 0.054586
0.025991 0.828988 0.043022
0.138916 0.828505 0.042395
0.220500 0.828156 0.041941
0.293817 0.827825 0.041533
0.362242 0.827515 0.041153
0.427165 0.827222 0.040792
0.489319 0.826941 0.040446
0.549139 0.826671 0.040114
0.606903 0.826410 0.039793
0.662801 0.826157 0.039482
0.716965 0.825912 0.039181
0.769490 0.825675 0.038889
0.820445 0.825445 0.038606
0.868360 0.824955 0.042576
0.914329 0.824594 0.046541
0.958489 0.824352 0.050493
1.000000 0.824217 0.054424
0.028667 0.874386 0.045525
0.141087 0.874002 0.045033
0.222306 0.873726 0.044678
0.295295 0.873478 0.044359
0.363414 0.873247 0.044061
0.428047 0.873028 0.043779
0.489923 0.872818 0.043508
0.549475 0.872616 0.043248
0.606981 0.872422 0.042997
0.662629 0.872234 0.042753
0.716551 0.872052 0.042518
0.768842 0.871875 0.042289
0.819568 0.871704 0.042067
0.867782 0.871538 0.041852
0.913897 0.871112 0.046012
0.958198 0.870801 0.050153
1.000000 0.870595 0.054266
0.031646 0.918188 0.048336
0.143576 0.917902 0.047977
0.224441 0.917695 0.047717
0.297112 0.917510 0.047484
0.364934 0.917337 0.047266
0.429286 0.917173 0.047060
0.490893 0.917016 0.046862
0.550185 0.916865 0.046672
0.607441 0.916720 0.046488
0.662846 0.916579 0.046310
0.716534 0.916443 0.046138
0.768596 0.916311 0.045971
0.819102 0.916183 0.045809
0.867079 0.916059 0.045651
0.913478 0.915939 0.045499
0.957915 0.915546 0.049823
1.000000 0.915261 0.054114
0.034895 0.960443 0.051422
0.146350 0.960250 0.051191
0.226873 0.960110 0.051025
0.299235 0.959986 0.050875
0.366769 0.959869 0.050735
0.430848 0.959759 0.050602
0.492193 0.959653 0.050475
0.551234 0.959551 0.050352
0.608247 0.959453 0.050234
0.663418 0.959359 0.050120
0.716877 0.959267 0.050009
0.768719 0.959178 0.049901
0.819010 0.959092 0.049797
0.866751 0.959008 0.049696
0.912910 0.958927 0.049598
0.957642 0.958849 0.049503
1.000000 0.958487 0.053966
0.038378 1.000000 0.054752
0.149374 1.000000 0.054646
0.229564 1.000000 0.054569
0.301628 1.000000 0.054499
0.368883 1.000000 0.054435
0.432698 1.000000 0.054373
0.493790 1.000000 0.054314
0.552587 1.000000 0.054258
0.609365 1.000000 0.054203
0.664308 1.000000 0.054150
0.717547 1.000000 0.054099
0.769174 1.000000 0.054049
0.819258 1.000000 0.054001
0.866763 1.000000 0.053955
0.912691 1.000000 0.053909
0.957199 1.000000 0.053865
1.000000 1.000000 0.053823
0.037258 0.042258 0.179305
0.157144 0.039868 0.176797
0.242398 0.038606 0.174392
0.317986 0.037748 0.172507
0.387652 0.037185 0.170985
0.452972 0.036862 0.169752
0.514790 0.036746 0.168765
0.573627 0.036812 0.167993
0.629828 0.037042 0.167414
0.683638 0.037419 0.167008
0.735241 0.037931 0.166761
0.784774 0.038563 0.166657
0.832284 0.039306 0.166686
0.877707 0.040148 0.166835
0.921323 0.041078 0.167094
0.963197 0.042087 0.167451
1.000000 0.043163 0.167899
0.029219 0.156495 0.170870
0.149105 0.154105 0.168363
0.235949 0.152316 0.166489
0.312965 0.150985 0.165083
0.383966 0.149981 0.164007
0.450551 0.149239 0.163197
0.513580 0.148721 0.162615
0.573583 0.148402 0.162233
0.630909 0.148259 0.162030
0.685810 0.148276 0.161989
0.738468 0.148438 0.162095
0.789025 0.148731 0.162334
0.837464 0.149145 0.162695
0.883741 0.149668 0.163166
0.928186 0.150289 0.163737
0.970863 0.150998 0.164398
1.000000 0.151774 0.165139
0.024791 0.238583 0.165098
0.143087 0.236719 0.162059
0.229930 0.234930 0.160186
0.307439 0.233404 0.159270
0.378898 0.232217 0.158653
0.445918 0.231302 0.158279
0.509364 0.230619 0.158113
0.569767 0.230139 0.158132
0.627481 0.229842 0.158316
0.682756 0.229710 0.158650
0.735777 0.229727 0.159118
0.786686 0.229881 0.159710
0.835463 0.230159 0.160412
0.881995 0.230549 0.161215
0.926687 0.231043 0.162107
0.969605 0.231628 0.163080
1.000000 0.232284 0.164123
0.021744 0.311982 0.160845
0.138611 0.310591 0.157327
0.224914 0.308948 0.155600
0.302472 0.307472 0.154047
0.374343 0.306120 0.153842
0.441754 0.305050 0.153859
0.505575 0.304217 0.154068
0.566338 0.303594 0.154447
0.624400 0.303159 0.154979
0.680012 0.302892 0.155649
0.733359 0.302780 0.156444
0.784584 0.302807 0.157351
0.833671 0.302963 0.158361
0.880431 0.303235 0.159461
0.925345 0.303613 0.160642
0.968478 0.304087 0.161895
1.000000 0.304636 0.163210
0.019698 0.380165 0.157671
0.135231 0.379216 0.153708
0.221029 0.377710 0.152117
0.298133 0.376356 0.150687
0.370092 0.375092 0.149352
0.437868 0.373876 0.149733
0.502038 0.372905 0.150292
0.563138 0.372148 0.151007
0.621525 0.371583 0.151864
0.677450 0.371191 0.152848
0.731102 0.370958 0.153948
0.782623 0.370868 0.155151
0.832004 0.370909 0.156446
0.878976 0.371071 0.157824
0.924096 0.371342 0.159275
0.967430 0.371711 0.160789
1.000000 0.372161 0.162357
0.018468 0.444577 0.155372
0.132735 0.444047 0.150985
0.218054 0.442670 0.149523
0.294728 0.441432 0.148209
0.366285 0.440277 0.146983
0.434181 0.439181 0.145819
0.498683 0.438078 0.146709
0.560102 0.437194 0.147744
0.618796 0.436506 0.148909
0.675020 0.435996 0.150191
0.728961 0.435647 0.151579
0.780762 0.435446 0.153062
0.830427 0.435379 0.154630
0.877600 0.435436 0.156272
0.922914 0.435605 0.157978
0.966437 0.435876 0.159740
1.000000 0.436230 0.161549
0.017938 0.505983 0.153819
0.130995 0.505854 0.149027
0.215855 0.504600 0.147689
0.292117 0.503474 0.146486
0.363289 0.502423 0.145364
0.430820 0.501425 0.144299
0.495471 0.500471 0.143279
0.557195 0.499465 0.144619
0.616184 0.498660 0.146079
0.672694 0.498036 0.147647
0.726911 0.497577 0.149312
0.778980 0.497269 0.151063
0.828921 0.497099 0.152891
0.876285 0.497055 0.154785
0.921786 0.497126 0.156736
0.965490 0.497303 0.158736
1.000000 0.497566 0.160774
0.018029 0.564843 0.152924
0.129919 0.565100 0.147742
0.214338 0.563966 0.146523
0.290203 0.562947 0.145428
0.361005 0.561996 0.144405
0.428185 0.561093 0.143435
0.492499 0.560229 0.142506
0.554397 0.559397 0.141612
0.613671 0.558479 0.143356
0.670455 0.557746 0.145199
0.724938 0.557181 0.147130
0.777265 0.556770 0.149139
0.827476 0.556500 0.151217
0.875024 0.556359 0.153354
0.920703 0.556337 0.155541
0.964580 0.556422 0.157769
1.000000 0.556598 0.160029
0.018674 0.621460 0.152617
0.129438 0.622089 0.147059
0.213431 0.621070 0.145955
0.288913 0.620154 0.144963
0.359358 0.619299 0.144037
0.426198 0.618488 0.143159
0.490188 0.617712 0.142318
0.551773 0.616965 0.141508
0.611243 0.616243 0.140727
0.668292 0.615404 0.142834
0.723033 0.614737 0.145022
0.775609 0.614227 0.147281
0.826085 0.613860 0.149601
0.873809 0.613626 0.151973
0.919660 0.613513 0.154387
0.963704 0.613511 0.156836
1.000000 0.613603 0.159309
0.019820 0.676039 0.152843
0.129495 0.677029 0.146920
0.213075 0.676121 0.145928
0.288186 0.675306 0.145036
0.358285 0.674544 0.144203
0.424798 0.673822 0.143413
0.488473 0.673130 0.142657
0.549756 0.672465 0.141929
0.608934 0.671822 0.141227
0.666200 0.671200 0.140546
0.721189 0.670434 0.142983
0.774007 0.669827 0.145483
0.824742 0.669368 0.148037
0.872637 0.669043 0.150636
0.918653 0.668843 0.153270
0.962858 0.668755 0.155933
1.000000 0.668765 0.158613
0.021420 0.728730 0.153551
0.130040 0.730070 0.147276
0.213220 0.729270 0.146391
0.287972 0.728551 0.145596
0.357736 0.727880 0.144854
0.423930 0.727244 0.144150
0.487301 0.726635 0.143476
0.548291 0.726048 0.142827
0.607186 0.725482 0.142201
0.664178 0.724934 0.141595
0.719403 0.724403 0.141007
0.772454 0.723703 0.143741
0.823443 0.723154 0.146521
0.871503 0.722741 0.149340
0.917680 0.722456 0.152188
0.962040 0.722286 0.155057
1.000000 0.722217 0.157938
0.023433 0.779643 0.154699
0.131028 0.781322 0.148080
0.213821 0.780627 0.147300
0.288225 0.780002 0.146599
0.357664 0.779419 0.145945
0.423550 0.778866 0.145324
0.486625 0.778336 0.144730
0.547331 0.777826 0.144158
0.605951 0.777334 0.143606
0.662678 0.776858 0.143071
0.717645 0.776396 0.142554
0.770949 0.775949 0.142051
0.822157 0.775311 0.145052
0.870406 0.774814 0.148084
0.916738 0.774446 0.151139
0.961249 0.774196 0.154209
1.000000 0.774051 0.157284
0.025818 0.828824 0.156245
0.132421 0.830745 0.149294
0.214838 0.830181 0.148616
0.288903 0.829675 0.148006
0.358027 0.829203 0.147437
0.423613 0.828755 0.146897
0.486402 0.828319 0.146380
0.546833 0.827884 0.145883
0.605187 0.827464 0.145402
0.661656 0.827057 0.144937
0.716373 0.826663 0.144487
0.769435 0.826280 0.144050
0.820910 0.825910 0.143626
0.869345 0.825330 0.146865
0.915827 0.824882 0.150121
0.960483 0.824555 0.153385
1.000000 0.824335 0.156649
0.028540 0.874255 0.158152
0.134179 0.876448 0.150880
0.216231 0.875956 0.150300
0.289969 0.875515 0.149778
0.358786 0.875103 0.149292
0.424083 0.874713 0.148830
0.486594 0.874339 0.148388
0.546757 0.873980 0.147963
0.604853 0.873634 0.147552
0.661072 0.873299 0.147155
0.715547 0.872974 0.146770
0.768374 0.872660 0.146396
0.819621 0.872355 0.146034
0.868318 0.872060 0.145683
0.914944 0.871551 0.149133
0.959742 0.871159 0.152586
1.000000 0.870874 0.156033
0.031564 0.918091 0.160386
0.136268 0.920547 0.152801
0.217967 0.920125 0.152317
0.291386 0.919746 0.151881
0.359907 0.919392 0.151475
0.424922 0.919057 0.151089
0.487163 0.918737 0.150720
0.547067 0.918429 0.150365
0.604912 0.918131 0.150022
0.660889 0.917844 0.149690
0.715129 0.917565 0.149368
0.767728 0.917296 0.149056
0.818754 0.917034 0.148754
0.867224 0.916780 0.148460
0.914090 0.916535 0.148175
0.959024 0.916062 0.151811
1.000000 0.915698 0.155436
0.034856 0.960377 0.162913
0.138655 0.963087 0.155025
0.220010 0.962733 0.154633
0.293122 0.962414 0.154281
0.361354 0.962117 0.153952
0.426096 0.961836 0.153640
0.488076 0.961567 0.153342
0.547728 0.961308 0.153055
0.605331 0.961058 0.152777
0.661073 0.960816 0.152509
0.715085 0.960582 0.152248
0.767463 0.960356 0.151996
0.818275 0.960136 0.151751
0.866517 0.959923 0.151514
0.913144 0.959716 0.151283
0.958329 0.959516 0.151060
1.000000 0.959077 0.154857
0.038382 1.000000 0.165701
0.141291 1.000000 0.157519
0.222315 1.000000 0.157217
0.295129 1.000000 0.156945
0.363083 1.000000 0.156692
0.427562 1.000000 0.156452
0.489289 1.000000 0.156221
0.548698 1.000000 0.156000
0.606066 1.000000 0.155786
0.661581 1.000000 0.155579
0.715373 1.000000 0.155378
0.767538 1.000000 0.155184
0.818143 1.000000 0.154995
0.866160 1.000000 0.154812
0.912557 1.000000 0.154635
0.957518 1.000000 0.154462
1.000000 1.000000 0.154295
0.036803 0.041803 0.265337
0.155856 0.039639 0.263055
0.241867 0.038075 0.261406
0.317504 0.037267 0.258884
0.387217 0.036750 0.256767
0.452581 0.036471 0.254970
0.514441 0.036397 0.253443
0.573318 0.036503 0.252151
0.629558 0.036772 0.251069
0.683406 0.037187 0.250177
0.735045 0.037735 0.249459
0.784614 0.038404 0.248899
0.832157 0.039181 0.248484
0.877607 0.040056 0.248204
0.921248 0.041019 0.248045
0.963146 0.042059 0.247999
1.000000 0.043165 0.248055
0.029521 0.155738 0.257660
0.148497 0.153497 0.256359
0.235341 0.151708 0.254486
0.312408 0.150428 0.252442
0.383454 0.149469 0.250771
0.450083 0.148771 0.249397
0.513155 0.148296 0.248274
0.573198 0.148016 0.247372
0.630563 0.147913 0.246667
0.685501 0.147967 0.246140
0.738196 0.148166 0.245775
0.788789 0.148495 0.245557
0.837261 0.148944 0.245475
0.883564 0.149500 0.245516
0.928034 0.150153 0.245671
0.970736 0.150894 0.245927
1.000000 0.151700 0.246277
0.024260 0.238052 0.252113
0.142479 0.236112 0.250056
0.229323 0.234323 0.248182
0.307422 0.232700 0.246483
0.379432 0.231423 0.245135
0.446975 0.230422 0.244067
0.510922 0.229657 0.243237
0.571807 0.229099 0.242617
0.629986 0.228726 0.242183
0.685711 0.228520 0.241919
0.739169 0.228466 0.241809
0.790501 0.228551 0.241839
0.839645 0.228762 0.241997
0.886562 0.229088 0.242271
0.931628 0.229518 0.242651
0.974908 0.230042 0.243127
1.000000 0.230633 0.243689
0.021263 0.311500 0.247222
0.138053 0.310033 0.244687
0.223865 0.308586 0.242467
0.301964 0.306964 0.240769
0.374386 0.305522 0.239832
0.442320 0.304366 0.239155
0.506641 0.303452 0.238700
0.567887 0.302750 0.238440
0.626414 0.302238 0.238355
0.682475 0.301899 0.238427
0.736259 0.301715 0.238643
0.787908 0.301673 0.238990
0.837361 0.301762 0.239454
0.884506 0.301969 0.240026
0.929794 0.302284 0.240695
0.973289 0.302697 0.241451
1.000000 0.303181 0.242284
0.019263 0.379730 0.243454
0.134720 0.378705 0.240472
0.219568 0.377576 0.237931
0.297213 0.376076 0.236355
0.369677 0.374677 0.234884
0.437975 0.373375 0.234571
0.502646 0.372322 0.234465
0.564228 0.371486 0.234542
0.623080 0.370845 0.234781
0.679456 0.370380 0.235168
0.733544 0.370075 0.235689
0.785488 0.369916 0.236330
0.835237 0.369891 0.237081
0.882594 0.369987 0.237931
0.928086 0.370195 0.238870
0.971781 0.370503 0.239887
1.000000 0.370888 0.240973
0.018076 0.444186 0.240589
0.132268 0.443579 0.237185
0.216202 0.442754 0.234338
0.293416 0.441370 0.232878
0.365478 0.440079 0.231515
0.433853 0.438853 0.230222
0.498856 0.437668 0.230448
0.560756 0.436706 0.230843
0.619916 0.435942 0.231391
0.676590 0.435358 0.232076
0.730967 0.434938 0.232885
0.783192 0.434668 0.233807
0.833227 0.434534 0.234830
0.880784 0.434525 0.235943
0.926471 0.434631 0.237137
0.970355 0.434841 0.238403
1.000000 0.435132 0.239729
0.017589 0.505634 0.238496
0.130569 0.505428 0.234686
0.213628 0.504892 0.231547
0.290430 0.503620 0.230198
0.362108 0.502432 0.228939
0.430118 0.501305 0.227745
0.495227 0.500227 0.226601
0.557433 0.499143 0.227302
0.616888 0.498262 0.228145
0.673847 0.497564 0.229115
0.728501 0.497034 0.230201
0.780993 0.496657 0.231391
0.831308 0.496419 0.232674
0.879056 0.496310 0.234040
0.924929 0.496319 0.235479
0.968993 0.496434 0.236982
1.000000 0.496634 0.238538
0.017720 0.564535 0.237081
0.129534 0.564715 0.232881
0.211750 0.564458 0.229460
0.288156 0.563293 0.228218
0.359463 0.562205 0.227059
0.427122 0.561173 0.225960
0.491895 0.560185 0.224907
0.554234 0.559234 0.223894
0.613973 0.558240 0.225021
0.671207 0.557433 0.226266
0.726127 0.556797 0.227618
0.778878 0.556317 0.229066
0.829466 0.555980 0.230599
0.877397 0.555774 0.232208
0.923448 0.555689 0.233883
0.967685 0.555713 0.235614
1.000000 0.555826 0.237392
0.018404 0.621190 0.236273
0.129092 0.621743 0.231696
0.210495 0.621755 0.228003
0.286518 0.620693 0.226864
0.357468 0.619702 0.225802
0.424788 0.618762 0.224794
0.489235 0.617862 0.223829
0.551262 0.616995 0.222901
0.611159 0.616159 0.222004
0.668658 0.615246 0.223514
0.723835 0.614507 0.225123
0.776834 0.613928 0.226821
0.827692 0.613495 0.228596
0.875799 0.613196 0.230440
0.922022 0.613019 0.232342
0.966425 0.612956 0.234293
1.000000 0.612985 0.236286
0.019588 0.675807 0.236012
0.129187 0.676721 0.231071
0.209803 0.676994 0.227114
0.285455 0.676032 0.226076
0.356059 0.675134 0.225107
0.423050 0.674282 0.224188
0.487184 0.673467 0.223308
0.548908 0.672682 0.222461
0.608512 0.671924 0.221643
0.666191 0.671191 0.220852
0.721616 0.670353 0.222710
0.774857 0.669678 0.224648
0.825980 0.669151 0.226657
0.874257 0.668762 0.228728
0.920645 0.668498 0.230850
0.965209 0.668349 0.233016
1.000000 0.668298 0.235215
0.021225 0.728535 0.236250
0.129768 0.729798 0.230956
0.209621 0.730323 0.226744
0.284914 0.729459 0.225802
0.355183 0.728651 0.224924
0.421856 0.727886 0.224091
0.485685 0.727152 0.223293
0.547117 0.726447 0.222525
0.606438 0.725765 0.221784
0.663843 0.725106 0.221066
0.719467 0.724467 0.220371
0.772942 0.723698 0.222543
0.824324 0.723082 0.224779
0.872766 0.722605 0.227069
0.919314 0.722256 0.229405
0.964033 0.722025 0.231777
1.000000 0.721894 0.234177
0.023273 0.779484 0.236940
0.130792 0.781086 0.231304
0.209906 0.781856 0.226844
0.284850 0.781085 0.225997
0.354794 0.780366 0.225207
0.421159 0.779683 0.224457
0.484693 0.779030 0.223738
0.545840 0.778401 0.223047
0.604887 0.777793 0.222380
0.662026 0.777206 0.221734
0.717393 0.776636 0.221108
0.771084 0.776084 0.220501
0.822703 0.775380 0.222957
0.871324 0.774818 0.225461
0.918026 0.774386 0.228004
0.962896 0.774075 0.230576
1.000000 0.773868 0.233170
0.025693 0.828705 0.238043
0.132219 0.830554 0.232075
0.210615 0.831518 0.227375
0.285222 0.830872 0.226619
0.354850 0.830269 0.225914
0.420916 0.829698 0.225245
0.484163 0.829152 0.224604
0.545035 0.828626 0.223987
0.603815 0.828093 0.223392
0.660697 0.827575 0.222815
0.715814 0.827073 0.222257
0.769263 0.826586 0.221715
0.821114 0.826114 0.221190
0.869928 0.825469 0.223901
0.916779 0.824958 0.226644
0.961794 0.824570 0.229412
1.000000 0.824289 0.232194
0.028448 0.874161 0.239521
0.134011 0.876281 0.233230
0.211711 0.877442 0.228298
0.285990 0.876860 0.227631
0.355312 0.876318 0.227008
0.421087 0.875804 0.226417
0.484057 0.875313 0.225851
0.544661 0.874840 0.225307
0.603183 0.874384 0.224781
0.659815 0.873943 0.224272
0.714690 0.873516 0.223779
0.767904 0.873102 0.223301
0.819527 0.872701 0.222837
0.868576 0.872312 0.222387
0.915572 0.871743 0.225325
0.960728 0.871293 0.228281
1.000000 0.870950 0.231247
0.031504 0.918021 0.241338
0.136132 0.920403 0.234735
0.213157 0.921754 0.229577
0.287118 0.921235 0.228995
0.356144 0.920751 0.228452
0.421638 0.920293 0.227937
0.484338 0.919854 0.227445
0.544682 0.919433 0.226970
0.602954 0.919026 0.226512
0.659343 0.918632 0.226069
0.713983 0.918251 0.225639
0.766970 0.917882 0.225222
0.818372 0.917524 0.224818
0.867200 0.917177 0.224426
0.914404 0.916840 0.224046
0.959696 0.916309 0.227185
1.000000 0.915889 0.230328
0.034828 0.960330 0.243461
0.138550 0.962967 0.236554
0.214920 0.964501 0.231177
0.288573 0.964043 0.230679
0.357311 0.963616 0.230214
0.422532 0.963211 0.229773
0.484970 0.962824 0.229350
0.545064 0.962451 0.228944
0.603092 0.962092 0.228551
0.659247 0.961744 0.228171
0.713659 0.961408 0.227803
0.766424 0.961082 0.227446
0.817612 0.960765 0.227100
0.866221 0.960459 0.226764
0.913185 0.960162 0.226438
0.958697 0.959874 0.226122
1.000000 0.959378 0.229437
0.038384 1.000000 0.245857
0.141217 1.000000 0.238657
0.216947 1.000000 0.233067
0.290302 1.000000 0.232650
0.358762 1.000000 0.232260
0.423720 1.000000 0.231890
0.485906 1.000000 0.231536
0.545757 1.000000 0.231195
0.603552 1.000000 0.230866
0.659479 1.000000 0.230548
0.713672 1.000000 0.230240
0.766224 1.000000 0.229940
0.817206 1.000000 0.229650
0.865597 1.000000 0.229369
0.912332 1.000000 0.229096
0.957621 1.000000 0.228831
1.000000 1.000000 0.228574
0.036489 0.041489 0.341442
0.154793 0.039526 0.339362
0.240263 0.038108 0.337859
0.317071 0.036834 0.336509
0.386826 0.036359 0.333857
0.452229 0.036119 0.331553
0.514127 0.036083 0.329540
0.573040 0.036226 0.327780
0.629316 0.036530 0.326247
0.683198 0.036979 0.324919
0.734870 0.037560 0.323777
0.784471 0.038260 0.322807
0.832044 0.039068 0.321994
0.877517 0.039973 0.321327
0.921181 0.040965 0.320794
0.963101 0.042034 0.320385
1.000000 0.043168 0.320088
0.029887 0.155153 0.334445
