library/luts/blush.cube
# CrabbyCut preset LUT — sinh bởi scripts/generate_preset_luts.js
TITLE "Ửng hồng"
LUT_3D_SIZE 17
0.176137 0.110451 0.167803
0.238390 0.120329 0.177567
0.296541 0.126310 0.183346
0.353421 0.131161 0.187891
0.409528 0.135247 0.191684
0.465084 0.138787 0.194943
0.520216 0.141907 0.197789
0.575004 0.144687 0.200302
0.629505 0.147182 0.202536
0.683759 0.149433 0.204531
0.737798 0.151471 0.206316
0.791646 0.153320 0.207916
0.845324 0.154999 0.209350
0.896572 0.156526 0.210634
0.928273 0.157913 0.211781
0.930426 0.156703 0.210575
0.930269 0.155186 0.209082
0.199412 0.184598 0.189344
0.255299 0.188466 0.192925
0.311524 0.191705 0.194915
0.368887 0.194144 0.196112
0.427458 0.195853 0.196584
0.484785 0.197484 0.197762
0.541405 0.198994 0.199016
0.597819 0.200300 0.200071
0.654051 0.201424 0.200948
0.710117 0.202386 0.201665
0.766035 0.203200 0.202237
0.821815 0.203878 0.202677
0.877470 0.204432 0.202994
0.917182 0.204870 0.203198
0.949449 0.205201 0.203297
0.954430 0.203746 0.201828
0.954299 0.201881 0.199993
0.211117 0.247711 0.199649
0.265692 0.250279 0.201954
0.320009 0.252593 0.204010
0.375914 0.254554 0.201833
0.434681 0.255494 0.198638
0.496331 0.255433 0.194446
0.555763 0.255487 0.193480
0.614076 0.255590 0.193342
0.672257 0.255561 0.193075
0.730315 0.255411 0.192689
0.788260 0.255148 0.192193
0.846100 0.254782 0.191595
0.900637 0.254317 0.190900
0.933888 0.253760 0.190116
0.966764 0.253117 0.189246
0.975314 0.251394 0.187487
0.975229 0.249236 0.185364
0.219238 0.307274 0.206471
0.273070 0.309106 0.208055
0.326732 0.310771 0.209475
0.380242 0.312285 0.210746
0.436211 0.313670 0.204122
0.496131 0.313826 0.196271
0.560010 0.312764 0.187204
0.620883 0.311804 0.184458
0.680318 0.310960 0.183383
0.739655 0.310021 0.182215
0.798902 0.308992 0.180959
0.858064 0.307878 0.179619
0.908845 0.306684 0.178201
0.942285 0.305414 0.176708
0.975359 0.304071 0.175144
0.987950 0.302089 0.173100
0.987902 0.299687 0.170734
0.225176 0.364676 0.211174
0.278498 0.366003 0.212262
0.331695 0.367206 0.213230
0.384776 0.368295 0.214084
0.437749 0.369277 0.214835
0.493409 0.370358 0.205325
0.553053 0.370243 0.194623
0.616687 0.368939 0.182733
0.677191 0.367615 0.179112
0.736243 0.366392 0.177666
0.795220 0.365095 0.176147
0.854125 0.363727 0.174558
0.907076 0.362292 0.172903
0.939859 0.360792 0.171184
0.972290 0.359229 0.169405
0.988945 0.357163 0.167246
0.988893 0.354562 0.164685
0.229562 0.420540 0.214369
0.282498 0.421485 0.215083
0.335336 0.422333 0.215702
0.388082 0.423090 0.216230
0.440740 0.423760 0.216675
0.493317 0.424349 0.217040
0.548789 0.425246 0.204764
0.608267 0.424967 0.191315
0.671752 0.423518 0.176696
0.731975 0.421915 0.172284
0.790723 0.420392 0.170544
0.849410 0.418808 0.168743
0.904996 0.417166 0.166885
0.937155 0.415468 0.164972
0.968975 0.413715 0.163007
0.989899 0.411601 0.160766
0.989846 0.408827 0.158035
0.232752 0.475218 0.216402
0.285380 0.475859 0.216817
0.337927 0.476419 0.217153
0.390399 0.476904 0.217416
0.442797 0.477317 0.217608
0.495126 0.477662 0.217732
0.547389 0.477941 0.217793
0.602751 0.478728 0.202824
0.662130 0.478355 0.186695
0.725529 0.476822 0.169409
0.785528 0.474998 0.164263
0.844026 0.473227 0.162278
0.902471 0.471404 0.160244
0.934240 0.469532 0.158161
0.965472 0.467612 0.156031
0.990817 0.465480 0.153736
0.990762 0.462552 0.150852
0.234972 0.528938 0.217494
0.287345 0.529325 0.217661
0.339650 0.529646 0.217761
0.391890 0.529901 0.217799
0.444068 0.530096 0.217777
0.496186 0.530231 0.217696
0.548246 0.530309 0.217560
0.600252 0.530333 0.217370
0.655553 0.531063 0.199759
0.714882 0.530641 0.180996
0.778239 0.529069 0.161085
0.838055 0.527064 0.155244
0.896340 0.525081 0.153053
0.931162 0.523055 0.150818
0.961827 0.520986 0.148542
0.991699 0.518861 0.146214
0.991643 0.515794 0.143195
0.236382 0.581854 0.217798
0.288538 0.582027 0.217754
0.340635 0.582141 0.217653
0.392675 0.582199 0.217497
0.444662 0.582204 0.217288
0.496596 0.582157 0.217029
0.548479 0.582060 0.216721
0.600314 0.581915 0.216365
0.652102 0.581723 0.215964
0.707380 0.582432 0.195746
0.766692 0.581995 0.174383
0.830040 0.580416 0.151878
0.889703 0.578259 0.145371
0.927963 0.576094 0.143001
0.958080 0.573890 0.140593
0.987883 0.571649 0.138147
0.992491 0.568601 0.135109
0.237097 0.634082 0.217427
0.289064 0.634068 0.217200
0.340980 0.634002 0.216922
0.392845 0.633887 0.216597
0.444663 0.633725 0.216225
0.496434 0.633517 0.215807
0.548161 0.633264 0.215346
0.599844 0.632968 0.214843
0.651484 0.632631 0.214299
0.703084 0.632253 0.213715
0.758366 0.632968 0.190916
0.817689 0.632543 0.166979
0.881052 0.630980 0.141904
0.924678 0.628696 0.134755
0.954261 0.626370 0.132226
0.983537 0.624009 0.129664
0.993308 0.621011 0.126632
0.237205 0.685709 0.216467
0.289006 0.685530 0.216078
0.340760 0.685305 0.215644
0.392471 0.685036 0.215168
0.444138 0.684725 0.214650
0.495764 0.684373 0.214091
0.547349 0.683980 0.213493
0.598895 0.683549 0.212857
0.650403 0.683080 0.212183
0.701873 0.682574 0.211474
0.753308 0.682032 0.210729
0.808616 0.682774 0.185372
0.867969 0.682382 0.158879
0.920532 0.680855 0.131253
0.950397 0.678460 0.123479
0.979157 0.675991 0.120810
0.994094 0.673057 0.117798
0.236775 0.736803 0.214984
0.288427 0.736477 0.214451
0.340038 0.736110 0.213878
0.391609 0.735703 0.213266
0.443141 0.735257 0.212616
0.494635 0.734775 0.211929
0.546092 0.734255 0.211207
0.597514 0.733701 0.210450
0.648900 0.733112 0.209659
0.700253 0.732489 0.208835
0.751573 0.731833 0.207979
0.802860 0.731145 0.207091
0.858212 0.731933 0.179191
0.914321 0.731588 0.150160
0.945707 0.730113 0.119998
0.974766 0.727624 0.111614
0.994850 0.724768 0.108632
0.235863 0.787420 0.213033
0.287381 0.786961 0.212370
0.338862 0.786465 0.211670
0.390306 0.785932 0.210935
0.441715 0.785365 0.210166
0.493089 0.784764 0.209363
0.544430 0.784129 0.208527
0.595737 0.783461 0.207659
0.647013 0.782762 0.206761
0.698257 0.782032 0.205832
0.749471 0.781272 0.204873
0.800655 0.780482 0.203885
0.851810 0.779663 0.202869
0.907219 0.780509 0.172440
0.938955 0.780226 0.140883
0.969578 0.778815 0.108198
0.995578 0.776168 0.099161
0.234515 0.837548 0.210659
0.285911 0.837025 0.209877
0.337273 0.836411 0.209062
0.388602 0.835765 0.208215
0.439898 0.835085 0.207336
0.491162 0.834375 0.206426
0.542395 0.833634 0.205486
0.593598 0.832863 0.204517
0.644771 0.832062 0.203518
0.695916 0.831233 0.202492
0.747032 0.830375 0.201438
0.798120 0.829491 0.200357
0.849181 0.828579 0.199250
0.900215 0.827641 0.198117
0.934074 0.828557 0.165171
0.962345 0.828378 0.134363
0.992218 0.827053 0.102765
0.232770 0.882425 0.207898
0.284054 0.881746 0.207008
0.335307 0.881043 0.206087
0.386529 0.880317 0.205136
0.437721 0.879569 0.204156
0.488884 0.878800 0.203148
0.540018 0.878010 0.202111
0.591123 0.877200 0.201048
0.642202 0.876371 0.199957
0.693253 0.875523 0.198841
0.744278 0.874657 0.197698
0.795296 0.873789 0.197596
0.846326 0.872935 0.199437
0.897331 0.872064 0.201274
0.931088 0.871177 0.203107
0.957033 0.872033 0.171352
0.984567 0.871892 0.138776
0.230659 0.926344 0.204783
0.281840 0.925489 0.203792
0.332992 0.924613 0.202774
0.384116 0.923716 0.201727
0.435211 0.922800 0.200654
0.486280 0.921865 0.199554
0.537321 0.920912 0.198428
0.588337 0.919941 0.197276
0.639366 0.918985 0.198267
0.690387 0.918024 0.200106
0.741383 0.917047 0.201942
0.792356 0.916055 0.203773
0.843304 0.915048 0.205601
0.894230 0.914027 0.207424
0.930173 0.912992 0.209244
0.953536 0.911944 0.211060
0.978794 0.912743 0.177511
0.226085 0.957603 0.199511
0.277707 0.959568 0.198889
0.329306 0.961522 0.198245
0.380883 0.963465 0.197578
0.432397 0.965156 0.197095
0.483433 0.964105 0.198937
0.534445 0.963038 0.200775
0.585432 0.961955 0.202609
0.636396 0.960858 0.204439
0.687337 0.959747 0.206265
0.738254 0.958621 0.208087
0.789149 0.957482 0.209906
0.840023 0.956331 0.211721
0.890874 0.955166 0.213532
0.929218 0.953990 0.215339
0.952145 0.952801 0.217144
0.974817 0.951601 0.218944
0.180897 0.115000 0.224193
0.240722 0.122533 0.231599
0.298349 0.128064 0.236869
0.354931 0.132620 0.241124
0.410832 0.136503 0.244718
0.466233 0.139889 0.247826
0.521240 0.142886 0.250552
0.575925 0.145564 0.252965
0.630338 0.147972 0.255114
0.684517 0.150147 0.257034
0.738488 0.152119 0.258754
0.792277 0.153908 0.260296
0.845900 0.155534 0.261678
0.896953 0.157012 0.262914
0.928572 0.158354 0.264017
0.930959 0.157125 0.262790
0.930799 0.155572 0.261261
0.200839 0.185975 0.242498
0.256542 0.189661 0.245900
0.311789 0.192896 0.248859
0.366673 0.195770 0.251464
0.421254 0.198344 0.253776
0.475578 0.200664 0.255838
0.529678 0.202762 0.257682
0.583580 0.204665 0.259335
0.637307 0.206393 0.260817
0.690874 0.207964 0.262144
0.744296 0.209391 0.263330
0.797586 0.210687 0.264388
0.850753 0.211861 0.265326
0.900222 0.212923 0.266154
0.931082 0.213880 0.266880
0.936098 0.212540 0.265524
0.935910 0.210665 0.263680
0.212065 0.248614 0.252337
0.266548 0.251092 0.254553
0.320787 0.253327 0.256533
0.375647 0.255215 0.257197
0.431848 0.256503 0.257265
0.489408 0.257210 0.256755
0.545841 0.257956 0.257065
0.601661 0.258673 0.257542
0.657352 0.259263 0.257895
0.712924 0.259734 0.258132
0.768386 0.260097 0.258261
0.823744 0.260357 0.258290
0.879005 0.260521 0.258225
0.918265 0.260595 0.258072
0.949755 0.260584 0.257835
0.958258 0.259048 0.256261
0.958111 0.256889 0.254136
0.219922 0.307916 0.258903
0.273695 0.309690 0.260430
0.327304 0.311302 0.261797
0.380764 0.312766 0.263021
0.435899 0.313964 0.260095
0.493967 0.314212 0.256222
0.554979 0.313520 0.251410
0.613823 0.312991 0.249873
0.671592 0.312555 0.249206
0.729267 0.312025 0.248448
0.786853 0.311407 0.247603
0.844355 0.310706 0.246677
0.900207 0.309926 0.245673
0.932701 0.309071 0.244596
0.964841 0.308145 0.243450
0.977463 0.306338 0.241578
0.977370 0.303931 0.239208
0.225682 0.365141 0.263433
0.278960 0.366425 0.264479
0.332117 0.367588 0.265407
0.385160 0.368640 0.266225
0.438099 0.369588 0.266942
0.493539 0.370449 0.259803
0.552965 0.370117 0.251474
0.616383 0.368597 0.241959
0.676823 0.367208 0.238791
0.735849 0.365960 0.237320
0.794801 0.364639 0.235777
0.853682 0.363247 0.234166
0.906879 0.361789 0.232489
0.939597 0.360268 0.230749
0.971965 0.358685 0.228950
0.989043 0.356613 0.226782
0.988991 0.353993 0.224203
0.229934 0.420872 0.266498
0.282836 0.421784 0.267179
0.335642 0.422600 0.267766
0.388357 0.423327 0.268266
0.440987 0.423969 0.268682
0.493537 0.424532 0.269021
0.548797 0.425216 0.259123
0.608063 0.424726 0.248053
0.671338 0.423067 0.235815
0.731502 0.421405 0.231863
0.790229 0.419861 0.230101
0.848895 0.418257 0.228281
0.904772 0.416595 0.226404
0.936870 0.414878 0.224473
0.968629 0.413108 0.222490
0.989993 0.410991 0.220243
0.989940 0.408201 0.217495
0.233017 0.475445 0.268427
0.285617 0.476058 0.268815
0.338138 0.476592 0.269126
0.390584 0.477052 0.269364
0.442959 0.477442 0.269532
0.495265 0.477764 0.269635
0.547507 0.478021 0.269674
0.602660 0.478601 0.257088
0.661832 0.478021 0.243343
0.725026 0.476282 0.228441
0.784969 0.474402 0.223757
0.843448 0.472613 0.221755
0.901877 0.470774 0.219704
0.933935 0.468885 0.217605
0.965109 0.466949 0.215459
0.990907 0.464817 0.213160
0.990852 0.461874 0.210263
0.235149 0.529077 0.269433
0.287499 0.529442 0.269577
0.339781 0.529740 0.269656
0.392000 0.529974 0.269673
0.444157 0.530148 0.269631
0.496255 0.530264 0.269531
0.548297 0.530323 0.269376
0.600285 0.530329 0.269169
0.655381 0.530855 0.253943
0.714505 0.530229 0.237567
0.777660 0.528454 0.220043
0.837422 0.526396 0.214667
0.895692 0.524398 0.212461
0.930844 0.522357 0.210212
0.961453 0.520274 0.207922
0.991743 0.518149 0.205591
0.991730 0.515071 0.202560
0.236484 0.581919 0.269664
0.288620 0.582072 0.269601
0.340697 0.582167 0.269481
0.392719 0.582207 0.269307
0.444687 0.582194 0.269081
0.496604 0.582129 0.268805
0.548471 0.582016 0.268480
0.600290 0.581855 0.268109
0.652062 0.581648 0.267693
0.707138 0.582154 0.249863
0.766249 0.581517 0.230889
0.829395 0.579736 0.210772
0.889007 0.577528 0.204733
0.927635 0.575350 0.202350
0.957697 0.573133 0.199929
0.987447 0.570880 0.197471
0.992575 0.567836 0.194433
0.237134 0.634083 0.269231
0.289083 0.634051 0.268986
0.340982 0.633969 0.268692
0.392831 0.633838 0.268351
0.444633 0.633660 0.267963
0.496389 0.633436 0.267531
0.548100 0.633169 0.267055
0.599769 0.632858 0.266538
0.651395 0.632507 0.265980
0.702982 0.632115 0.265383
0.758064 0.632630 0.244974
0.817186 0.632006 0.223427
0.880350 0.630244 0.200743
0.924343 0.627910 0.194062
0.953873 0.625572 0.191522
0.983095 0.623200 0.188949
0.993388 0.620208 0.185919
0.237185 0.685653 0.268215
0.288970 0.685458 0.267811
0.340709 0.685219 0.267362
0.392405 0.684935 0.266872
0.444058 0.684610 0.266339
0.495670 0.684244 0.265767
0.547242 0.683838 0.265156
0.598774 0.683394 0.264507
0.650270 0.682912 0.263821
0.701728 0.682393 0.263100
0.753150 0.681840 0.262344
0.808260 0.682384 0.239377
0.867414 0.681793 0.215277
0.920212 0.680068 0.190043
0.950005 0.677625 0.182739
0.978714 0.675145 0.180059
0.994171 0.672219 0.177049
0.236704 0.736697 0.266683
0.288342 0.736357 0.266136
0.339939 0.735976 0.265549
0.391497 0.735556 0.264924
0.443015 0.735098 0.264262
0.494497 0.734602 0.263563
0.545942 0.734071 0.262829
0.597352 0.733504 0.262060
0.648727 0.732904 0.261258
0.700068 0.732270 0.260423
0.751377 0.731603 0.259556
0.802653 0.730905 0.258658
0.857807 0.731495 0.233151
0.914095 0.730953 0.206512
0.945333 0.729281 0.178743
0.974323 0.726744 0.170830
0.994925 0.723897 0.167852
0.235746 0.787268 0.264687
0.287251 0.786796 0.264011
0.338720 0.786288 0.263300
0.390152 0.785744 0.262553
0.441549 0.785165 0.261772
0.492911 0.784552 0.260958
0.544241 0.783906 0.260111
0.595537 0.783227 0.259233
0.646802 0.782518 0.258324
0.698036 0.781777 0.257384
0.749240 0.781007 0.256416
0.800414 0.780207 0.255418
0.851559 0.779378 0.254392
0.906772 0.780028 0.226357
0.938677 0.779549 0.197194
0.969156 0.777942 0.166903
0.995649 0.775267 0.158351
0.234357 0.837384 0.262272
0.285741 0.836820 0.261479
0.337091 0.836195 0.260653
0.388409 0.835537 0.259795
0.439694 0.834848 0.258905
0.490947 0.834127 0.257985
0.542170 0.833375 0.257035
0.593363 0.832594 0.256056
0.644526 0.831784 0.255048
0.695661 0.830945 0.254012
0.746767 0.830078 0.252949
0.797846 0.829184 0.251859
0.848898 0.828263 0.250743
0.899924 0.827316 0.249602
0.933887 0.828037 0.219050
0.962004 0.827632 0.187372
0.991737 0.826100 0.154569
0.232573 0.882197 0.259475
0.283846 0.881510 0.258574
0.335089 0.880799 0.257643
0.386300 0.880066 0.256682
0.437482 0.879310 0.255692
0.488635 0.878534 0.254674
0.539759 0.877737 0.253628
0.590856 0.876921 0.252555
0.641925 0.876085 0.251456
0.692967 0.875231 0.250330
0.743983 0.874359 0.249180
0.794974 0.873469 0.248004
0.845939 0.872563 0.246803
0.896879 0.871640 0.245579
0.930886 0.870702 0.244331
0.956703 0.871384 0.211273
0.984127 0.871088 0.177090
0.230426 0.926056 0.256325
0.281598 0.925194 0.255325
0.332740 0.924310 0.254296
0.383854 0.923407 0.253241
0.434940 0.922485 0.252158
0.486000 0.921544 0.251049
0.537032 0.920584 0.249914
0.588039 0.919608 0.248754
0.639020 0.918614 0.247570
0.689976 0.917604 0.246360
0.740908 0.916579 0.245128
0.791815 0.915538 0.243871
0.842699 0.914482 0.242592
0.893560 0.913411 0.241290
0.929862 0.912327 0.239966
0.953177 0.911230 0.238621
0.978352 0.911900 0.203063
0.226002 0.958272 0.251177
0.277616 0.960233 0.250548
0.329207 0.962183 0.249896
0.380776 0.964122 0.249221
0.432092 0.964783 0.248326
0.483064 0.963686 0.247132
0.534011 0.962573 0.245914
0.584933 0.961444 0.244673
0.635832 0.960301 0.243408
0.686708 0.959143 0.242121
0.737560 0.957971 0.240811
0.788390 0.956785 0.239479
0.839197 0.955587 0.238125
0.889983 0.954376 0.236751
0.928797 0.953152 0.235355
0.951688 0.951917 0.233939
0.974332 0.950670 0.232503
0.184027 0.117972 0.279001
0.242831 0.124526 0.285415
0.300040 0.129703 0.290279
0.356363 0.134003 0.294283
0.412079 0.137702 0.297697
0.467337 0.140946 0.300666
0.522228 0.143828 0.303279
0.576816 0.146410 0.305597
0.631145 0.148735 0.307665
0.685251 0.150839 0.309514
0.739158 0.152746 0.311172
0.792888 0.154478 0.312657
0.846459 0.156052 0.313988
0.897324 0.157483 0.315178
0.928863 0.158781 0.316238
0.931489 0.157535 0.314992
0.931326 0.155945 0.313428
0.202197 0.187285 0.295585
0.257733 0.190805 0.298824
0.312848 0.193909 0.301655
0.367623 0.196675 0.304154
0.422112 0.199159 0.306377
0.476357 0.201400 0.308362
0.530387 0.203429 0.310139
0.584228 0.205271 0.311731
0.637898 0.206944 0.313159
0.691415 0.208464 0.314437
0.744791 0.209845 0.315578
0.798038 0.211099 0.316594
0.851166 0.212234 0.317494
0.900506 0.213259 0.318287
0.931294 0.214182 0.318979
0.936603 0.212838 0.317617
0.936413 0.210934 0.315744
0.212980 0.249485 0.304993
0.267377 0.251876 0.307126
0.321540 0.254037 0.309032
0.375499 0.255995 0.310739
0.429275 0.257773 0.312269
0.482888 0.259389 0.313641
0.536352 0.260857 0.314868
0.589680 0.262191 0.315962
0.642883 0.263400 0.316935
0.695969 0.264494 0.317795
0.748948 0.265482 0.318550
0.801825 0.266369 0.319207
0.854608 0.267163 0.319773
0.902946 0.267868 0.320251
0.933052 0.268491 0.320648
0.941484 0.267158 0.319275
0.941274 0.264997 0.317149
0.220586 0.308538 0.311316
0.274301 0.310255 0.312786
0.327858 0.311815 0.314103
0.381271 0.313233 0.315281
0.435387 0.314384 0.315222
0.490911 0.315001 0.314633
0.547851 0.315093 0.313520
0.603712 0.315273 0.313274
0.659001 0.315464 0.313236
0.714198 0.315565 0.313109
0.769308 0.315579 0.312897
0.824335 0.315511 0.312604
0.879285 0.315366 0.312236
0.918687 0.315147 0.311796
0.949461 0.314859 0.311287
0.961906 0.313333 0.309693
0.961747 0.310930 0.307328
0.226173 0.365591 0.315677
0.279409 0.366833 0.316682
0.332526 0.367958 0.317572
0.385533 0.368973 0.318355
0.438437 0.369887 0.319038
0.493055 0.370574 0.315610
0.550642 0.370344 0.311269
0.611201 0.369204 0.306019
0.669621 0.368256 0.304069
0.726990 0.367423 0.303014
0.784286 0.366518 0.301887
0.841512 0.365544 0.300694
0.898673 0.364504 0.299436
0.931050 0.363402 0.298116
0.962499 0.362240 0.296738
0.979515 0.360411 0.294809
0.979417 0.357791 0.292230
0.230294 0.421193 0.318615
0.283163 0.422071 0.319263
0.335937 0.422857 0.319820
0.388623 0.423554 0.320291
0.441225 0.424169 0.320681
0.493748 0.424705 0.320994
0.548796 0.425177 0.313474
0.607851 0.424478 0.304784
0.670917 0.422609 0.294927
0.731021 0.420888 0.291434
0.789727 0.419323 0.289652
0.848374 0.417699 0.287812
0.904545 0.416018 0.285917
0.936582 0.414283 0.283968
0.968281 0.412495 0.281967
0.990087 0.410376 0.279714
0.990034 0.407569 0.276950
0.233272 0.475662 0.320442
0.285845 0.476248 0.320804
0.338340 0.476757 0.321089
0.390762 0.477192 0.321303
0.443113 0.477558 0.321449
0.495397 0.477858 0.321530
0.547617 0.478094 0.321548
0.602563 0.478467 0.311345
0.661528 0.477680 0.299984
0.724516 0.475736 0.287466
0.784403 0.473801 0.283246
0.842865 0.471994 0.281227
0.901277 0.470138 0.279159
0.933630 0.468233 0.277044
0.964746 0.466281 0.274883
0.990997 0.464149 0.272580
0.990942 0.461192 0.269668
0.235318 0.529209 0.321364
0.287644 0.529550 0.321486
0.339905 0.529826 0.321544
0.392102 0.530040 0.321540
0.444239 0.530194 0.321478
0.496318 0.530290 0.321359
0.548341 0.530331 0.321187
0.600311 0.530320 0.320962
0.655203 0.530641 0.308122
0.714124 0.529812 0.294133
0.777075 0.527834 0.278996
0.836784 0.525722 0.274085
0.895039 0.523710 0.271865
0.930525 0.521654 0.269601
0.961078 0.519557 0.267297
0.991313 0.517419 0.264953
0.991817 0.514343 0.261921
0.236579 0.581978 0.321524
0.288695 0.582110 0.321441
0.340753 0.582186 0.321303
0.392757 0.582208 0.321111
0.444707 0.582177 0.320868
0.496607 0.582096 0.320575
0.548457 0.581966 0.320234
0.600260 0.581789 0.319848
0.652017 0.581567 0.319417
0.706891 0.581872 0.303974
0.765800 0.581033 0.287389
0.828746 0.579051 0.269662
0.888307 0.576793 0.264090
0.927306 0.574601 0.261694
0.957314 0.572372 0.259261
0.987010 0.570106 0.256791
0.992659 0.567067 0.253753
0.237165 0.634078 0.321028
0.289097 0.634029 0.320767
0.340979 0.633929 0.320456
0.392811 0.633782 0.320099
0.444597 0.633589 0.319696
0.496338 0.633350 0.319249
0.548035 0.633068 0.318759
0.599689 0.632744 0.318228
0.651302 0.632378 0.317657
0.702875 0.631973 0.317046
0.757756 0.632288 0.299028
0.816679 0.631464 0.279871
0.879643 0.629503 0.259578
0.924007 0.627119 0.253366
0.953484 0.624770 0.250815
0.982654 0.622387 0.248231
0.993469 0.619401 0.245202
0.237159 0.685592 0.319957
0.288929 0.685382 0.319538
0.340653 0.685127 0.319075
0.392334 0.684830 0.318570
0.443973 0.684490 0.318025
0.495571 0.684111 0.317439
0.547130 0.683691 0.316815
0.598650 0.683234 0.316153
0.650132 0.682740 0.315455
0.701578 0.682209 0.314722
0.752988 0.681644 0.313954
0.807899 0.681989 0.293379
0.866855 0.681200 0.271671
0.919892 0.679277 0.248829
0.949613 0.676786 0.241995
0.978271 0.674296 0.239305
0.994249 0.671377 0.236298
0.236628 0.736586 0.318376
0.288252 0.736232 0.317816
0.339836 0.735837 0.317216
0.391380 0.735404 0.316578
0.442886 0.734933 0.315903
0.494355 0.734426 0.315192
0.545788 0.733882 0.314446
0.597186 0.733304 0.313666
0.648549 0.732692 0.312853
0.699879 0.732047 0.312007
0.751177 0.731369 0.311130
0.802443 0.730660 0.310221
0.857399 0.731053 0.287106
0.913870 0.730314 0.262861
0.944960 0.728445 0.237485
0.973880 0.725861 0.230043
0.994999 0.723023 0.227069
0.235625 0.787112 0.316337
0.287117 0.786628 0.315649
0.338573 0.786107 0.314925
0.389993 0.785551 0.314166
0.441378 0.784960 0.313374
0.492730 0.784336 0.312549
0.544048 0.783679 0.311691
0.595334 0.782990 0.310802
0.646588 0.782270 0.309883
0.697812 0.781519 0.308934
0.749005 0.780738 0.307955
0.800169 0.779929 0.306948
0.851304 0.779091 0.305913
0.906321 0.779544 0.280271
0.938399 0.778868 0.253502
0.968734 0.777065 0.225605
0.995721 0.774363 0.217538
0.234194 0.837215 0.313882
0.285567 0.836612 0.313077
0.336906 0.835976 0.312240
0.388212 0.835307 0.311371
0.439486 0.834606 0.310471
0.490729 0.833875 0.309541
0.541942 0.833113 0.308581
0.593125 0.832322 0.307592
0.644278 0.831502 0.306574
0.695403 0.830653 0.305529
0.746500 0.829777 0.304457
0.797570 0.828874 0.303358
0.848613 0.827945 0.302233
0.899629 0.826989 0.301083
0.933700 0.827514 0.272926
0.961677 0.826913 0.243643
0.991270 0.825187 0.213235
0.232372 0.881966 0.311047
0.283635 0.881271 0.310136
0.334867 0.880552 0.309195
0.386068 0.879812 0.308224
0.437240 0.879049 0.307224
0.488383 0.878266 0.306197
0.539498 0.877462 0.305142
0.590585 0.876639 0.304060
0.641645 0.875797 0.302952
0.692678 0.874937 0.301817
0.743686 0.874058 0.300658
0.794667 0.873163 0.299474
0.845624 0.872251 0.298265
0.896556 0.871323 0.297033
0.930784 0.870380 0.295777
0.956468 0.870893 0.265114
0.983756 0.870430 0.233326
0.230191 0.925766 0.307863
0.281352 0.924896 0.306854
0.332485 0.924006 0.305816
0.383589 0.923096 0.304751
0.434666 0.922167 0.303659
0.485717 0.921220 0.302542
0.536740 0.920255 0.301398
0.587738 0.919272 0.300230
0.638711 0.918273 0.299037
0.689659 0.917258 0.297819
0.740582 0.916227 0.296579
0.791482 0.915181 0.295314
0.842357 0.914120 0.294027
0.893210 0.913045 0.292718
0.929756 0.911956 0.291387
0.953028 0.910854 0.290034
0.978072 0.911358 0.256872
0.225916 0.958939 0.302841
0.277522 0.960896 0.302204
0.329106 0.962843 0.301544
0.380667 0.964778 0.300862
0.431788 0.964413 0.299798
0.482751 0.963310 0.298596
0.533690 0.962191 0.297370
0.584605 0.961058 0.296121
0.635496 0.959909 0.294848
0.686363 0.958746 0.293553
0.737208 0.957570 0.292236
0.788030 0.956380 0.290897
0.838830 0.955177 0.289536
0.889608 0.953961 0.288154
0.928688 0.952734 0.286751
0.951537 0.951494 0.285329
0.974138 0.950244 0.283885
0.186651 0.120458 0.333318
0.244770 0.126410 0.339066
0.301632 0.131244 0.343593
0.357727 0.135318 0.347375
0.413274 0.138849 0.350625
0.468398 0.141962 0.353465
0.523181 0.144736 0.355972
0.577676 0.147226 0.358201
0.631926 0.149473 0.360191
0.685962 0.151507 0.361973
0.739807 0.153353 0.363570
0.793481 0.155030 0.365001
0.847002 0.156554 0.366282
0.897685 0.157938 0.367427
0.929144 0.159194 0.368446
0.932017 0.157932 0.367182
0.931851 0.156307 0.365584
0.203494 0.188533 0.348612
