library/luts/blush.cube
# CrabbyCut preset LUT — sinh bởi scripts/generate_preset_luts.js
TITLE "Ửng hồng"
LUT_3D_SIZE 9
0.176137 0.110451 0.167803
0.296541 0.126310 0.183346
0.409528 0.135247 0.191684
0.520216 0.141907 0.197789
0.629505 0.147182 0.202536
0.737798 0.151471 0.206316
0.845324 0.154999 0.209350
0.928273 0.157913 0.211781
0.930269 0.155186 0.209082
0.211117 0.247711 0.199649
0.320009 0.252593 0.204010
0.434681 0.255494 0.198638
0.555763 0.255487 0.193480
0.672257 0.255561 0.193075
0.788260 0.255148 0.192193
0.900637 0.254317 0.190900
0.966764 0.253117 0.189246
0.975229 0.249236 0.185364
0.225176 0.364676 0.211174
0.331695 0.367206 0.213230
0.437749 0.369277 0.214835
0.553053 0.370243 0.194623
0.677191 0.367615 0.179112
0.795220 0.365095 0.176147
0.907076 0.362292 0.172903
0.972290 0.359229 0.169405
0.988893 0.354562 0.164685
0.232752 0.475218 0.216402
0.337927 0.476419 0.217153
0.442797 0.477317 0.217608
0.547389 0.477941 0.217793
0.662130 0.478355 0.186695
0.785528 0.474998 0.164263
0.902471 0.471404 0.160244
0.965472 0.467612 0.156031
0.990762 0.462552 0.150852
0.236382 0.581854 0.217798
0.340635 0.582141 0.217653
0.444662 0.582204 0.217288
0.548479 0.582060 0.216721
0.652102 0.581723 0.215964
0.766692 0.581995 0.174383
0.889703 0.578259 0.145371
0.958080 0.573890 0.140593
0.992491 0.568601 0.135109
0.237205 0.685709 0.216467
0.340760 0.685305 0.215644
0.444138 0.684725 0.214650
0.547349 0.683980 0.213493
0.650403 0.683080 0.212183
0.753308 0.682032 0.210729
0.867969 0.682382 0.158879
0.950397 0.678460 0.123479
0.994094 0.673057 0.117798
0.235863 0.787420 0.213033
0.338862 0.786465 0.211670
0.441715 0.785365 0.210166
0.544430 0.784129 0.208527
0.647013 0.782762 0.206761
0.749471 0.781272 0.204873
0.851810 0.779663 0.202869
0.938955 0.780226 0.140883
0.995578 0.776168 0.099161
0.232770 0.882425 0.207898
0.335307 0.881043 0.206087
0.437721 0.879569 0.204156
0.540018 0.878010 0.202111
0.642202 0.876371 0.199957
0.744278 0.874657 0.197698
0.846326 0.872935 0.199437
0.931088 0.871177 0.203107
0.984567 0.871892 0.138776
0.226085 0.957603 0.199511
0.329306 0.961522 0.198245
0.432397 0.965156 0.197095
0.534445 0.963038 0.200775
0.636396 0.960858 0.204439
0.738254 0.958621 0.208087
0.840023 0.956331 0.211721
0.929218 0.953990 0.215339
0.974817 0.951601 0.218944
0.184027 0.117972 0.279001
0.300040 0.129703 0.290279
0.412079 0.137702 0.297697
0.522228 0.143828 0.303279
0.631145 0.148735 0.307665
0.739158 0.152746 0.311172
0.846459 0.156052 0.313988
0.928863 0.158781 0.316238
0.931326 0.155945 0.313428
0.212980 0.249485 0.304993
0.321540 0.254037 0.309032
0.429275 0.257773 0.312269
0.536352 0.260857 0.314868
0.642883 0.263400 0.316935
0.748948 0.265482 0.318550
0.854608 0.267163 0.319773
0.933052 0.268491 0.320648
0.941274 0.264997 0.317149
0.226173 0.365591 0.315677
0.332526 0.367958 0.317572
0.438437 0.369887 0.319038
0.550642 0.370344 0.311269
0.669621 0.368256 0.304069
0.784286 0.366518 0.301887
0.898673 0.364504 0.299436
0.962499 0.362240 0.296738
0.979417 0.357791 0.292230
0.233272 0.475662 0.320442
0.338340 0.476757 0.321089
0.443113 0.477558 0.321449
0.547617 0.478094 0.321548
0.661528 0.477680 0.299984
0.784403 0.473801 0.283246
0.901277 0.470138 0.279159
0.964746 0.466281 0.274883
0.990942 0.461192 0.269668
0.236579 0.581978 0.321524
0.340753 0.582186 0.321303
0.444707 0.582177 0.320868
0.548457 0.581966 0.320234
0.652017 0.581567 0.319417
0.765800 0.581033 0.287389
0.888307 0.576793 0.264090
0.957314 0.572372 0.259261
0.992659 0.567067 0.253753
0.237159 0.685592 0.319957
0.340653 0.685127 0.319075
0.443973 0.684490 0.318025
0.547130 0.683691 0.316815
0.650132 0.682740 0.315455
0.752988 0.681644 0.313954
0.866855 0.681200 0.271671
0.949613 0.676786 0.241995
0.994249 0.671377 0.236298
0.235625 0.787112 0.316337
0.338573 0.786107 0.314925
0.441378 0.784960 0.313374
0.544048 0.783679 0.311691
0.646588 0.782270 0.309883
0.749005 0.780738 0.307955
0.851304 0.779091 0.305913
0.938399 0.778868 0.253502
0.995721 0.774363 0.217538
0.232372 0.881966 0.311047
0.334867 0.880552 0.309195
0.437240 0.879049 0.307224
0.539498 0.877462 0.305142
0.641645 0.875797 0.302952
0.743686 0.874058 0.300658
0.845624 0.872251 0.298265
0.930784 0.870380 0.295777
0.983756 0.870430 0.233326
0.225916 0.958939 0.302841
0.329106 0.962843 0.301544
0.431788 0.964413 0.299798
0.533690 0.962191 0.297370
0.635496 0.959909 0.294848
0.737208 0.957570 0.292236
0.838830 0.955177 0.289536
0.928688 0.952734 0.286751
0.974138 0.950244 0.283885
0.188969 0.122648 0.387336
0.303137 0.132699 0.396822
0.414420 0.139949 0.403506
0.524101 0.145611 0.408633
0.632683 0.150186 0.412693
0.740436 0.153940 0.415948
0.847528 0.157039 0.418561
0.929417 0.159594 0.420640
0.932373 0.156658 0.417728
0.214720 0.251136 0.410218
0.322976 0.255388 0.413961
0.430473 0.258887 0.416967
0.537353 0.261777 0.419375
0.643718 0.264155 0.421281
0.749639 0.266095 0.422757
0.855174 0.267651 0.423857
0.933339 0.268868 0.424624
0.942231 0.265341 0.421086
0.227110 0.366448 0.420122
0.333306 0.368659 0.421865
0.439081 0.370453 0.423198
0.544486 0.371882 0.424173
0.649562 0.372984 0.424827
0.754341 0.373792 0.425194
0.858852 0.374334 0.425299
0.935196 0.374632 0.425165
0.951283 0.370989 0.421457
0.233755 0.476069 0.424446
0.338719 0.477060 0.424992
0.443398 0.477769 0.425261
0.547816 0.478220 0.425277
0.658674 0.477343 0.416200
0.776429 0.474042 0.407811
0.889972 0.471193 0.404540
0.956932 0.468155 0.401084
0.983252 0.463450 0.396246
0.236749 0.582074 0.425224
0.340846 0.582207 0.424928
0.444729 0.582128 0.424424
0.548413 0.581851 0.423727
0.651912 0.581391 0.422849
0.764889 0.580051 0.400377
0.886892 0.575309 0.382792
0.956545 0.570837 0.377912
0.992825 0.565516 0.372381
0.237093 0.685454 0.423428
0.340526 0.684930 0.422487
0.443790 0.684237 0.421381
0.546893 0.683385 0.420120
0.649845 0.682383 0.418711
0.752653 0.681240 0.417164
0.865727 0.680003 0.384447
0.948829 0.675098 0.360496
0.994402 0.669684 0.354785
0.235369 0.786787 0.419623
0.338268 0.785733 0.418163
0.441026 0.784540 0.416567
0.543651 0.783214 0.414841
0.646149 0.781763 0.412991
0.748525 0.780192 0.411024
0.850786 0.778505 0.408944
0.937843 0.777499 0.366108
0.995863 0.772546 0.335904
0.231960 0.881496 0.414182
0.334413 0.880052 0.412288
0.436746 0.878519 0.410280
0.538966 0.876905 0.408160
0.641076 0.875215 0.405934
0.743082 0.873452 0.403606
0.844986 0.871623 0.401181
0.930581 0.869730 0.398661
0.983014 0.869110 0.345791
0.225736 0.960270 0.406161
0.328895 0.964158 0.404834
0.431171 0.963665 0.402734
0.533040 0.961423 0.400274
0.634814 0.959121 0.397721
0.736495 0.956763 0.395079
0.838087 0.954353 0.392350
0.928469 0.951893 0.389537
0.973750 0.949388 0.386644
0.192998 0.126510 0.494785
0.305925 0.135389 0.503065
0.416581 0.142017 0.509140
0.525848 0.147271 0.513865
0.634126 0.151543 0.517629
0.741639 0.155060 0.520651
0.848533 0.157963 0.523072
0.929937 0.160353 0.524990
0.933409 0.157326 0.521985
0.216347 0.252676 0.515333
0.324325 0.256652 0.518807
0.431599 0.259932 0.521596
0.538295 0.262638 0.523824
0.644502 0.264860 0.525577
0.750286 0.266664 0.526920
0.855700 0.268101 0.527903
0.933605 0.269210 0.528565
0.943179 0.265654 0.524993
0.227992 0.367249 0.524514
0.334038 0.369312 0.526111
0.439682 0.370977 0.527317
0.544971 0.372291 0.528179
0.649943 0.373290 0.528732
0.754628 0.374005 0.529008
0.859053 0.374462 0.529029
0.935298 0.374681 0.528819
0.952157 0.371045 0.525111
0.234201 0.476439 0.528415
0.339065 0.477331 0.528863
0.443653 0.477950 0.529044
0.547988 0.478318 0.528979
0.652090 0.478456 0.528688
0.755979 0.478382 0.528189
0.859667 0.478110 0.527496
0.935674 0.477654 0.526623
0.960453 0.474218 0.523047
0.236892 0.582144 0.528898
0.340915 0.582203 0.528530
0.444729 0.582055 0.527958
0.548348 0.581715 0.527198
0.651786 0.581195 0.526262
0.761732 0.579415 0.516300
0.878635 0.575269 0.507083
0.950614 0.571629 0.503035
0.986776 0.566868 0.498056
0.237005 0.685296 0.526877
0.340379 0.684713 0.525879
0.443587 0.683965 0.524720
0.546638 0.683061 0.523407
0.649541 0.682011 0.521951
0.752302 0.680821 0.520358
0.864583 0.678792 0.497209
0.948044 0.673396 0.478984
0.994555 0.667977 0.473259
0.235096 0.786445 0.522893
0.337947 0.785343 0.521386
0.440659 0.784104 0.519745
0.543240 0.782735 0.517976
0.645696 0.781243 0.516086
0.748032 0.779632 0.514080
0.850255 0.777907 0.511963
0.937286 0.776116 0.478703
0.994913 0.770681 0.454232
0.231533 0.881016 0.517302
0.333945 0.879541 0.515369
0.436239 0.877980 0.513322
0.538421 0.876339 0.511166
0.640495 0.874624 0.508905
0.742466 0.872838 0.506543
0.844338 0.870987 0.504086
0.930375 0.869074 0.501535
0.982274 0.867786 0.458246
0.225546 0.961595 0.509470
0.328609 0.965112 0.508057
0.430543 0.962911 0.505660
0.532380 0.960648 0.503167
0.634121 0.958326 0.500584
0.735772 0.955950 0.497911
0.837335 0.953523 0.495154
0.928248 0.951047 0.492314
0.973361 0.948527 0.489394
0.196471 0.129879 0.601693
0.308464 0.137831 0.609066
0.418585 0.143931 0.614621
0.527483 0.148818 0.618988
0.635481 0.152814 0.622481
0.742770 0.156109 0.625285
0.849479 0.158828 0.627526
0.930426 0.161061 0.629290
0.934436 0.157952 0.626200
0.217872 0.254114 0.620349
0.325594 0.257837 0.623574
0.432659 0.260910 0.626161
0.539180 0.263443 0.628219
0.645237 0.265517 0.629827
0.750890 0.267191 0.631042
0.856188 0.268512 0.631912
0.933852 0.269519 0.632472
0.944119 0.265938 0.628871
0.228820 0.367998 0.628853
0.334724 0.369920 0.630312
0.440243 0.371461 0.631397
0.545420 0.372664 0.632150
0.650292 0.373563 0.632606
0.754885 0.374188 0.632792
0.859226 0.374562 0.632733
0.935388 0.374706 0.632448
0.953024 0.371078 0.628742
0.234612 0.476774 0.632349
0.339380 0.477571 0.632704
0.443879 0.478102 0.632798
0.548133 0.478390 0.632654
0.652161 0.478454 0.632291
0.755979 0.478311 0.631725
0.859604 0.477975 0.630969
0.935656 0.477459 0.630037
0.961255 0.474056 0.626485
0.237009 0.582188 0.632546
0.340959 0.582175 0.632108
0.444705 0.581961 0.631471
0.548262 0.581558 0.630650
0.651641 0.580979 0.629656
0.754853 0.580235 0.628500
0.857907 0.579335 0.627191
0.935040 0.578288 0.625738
0.968877 0.575299 0.622521
0.236897 0.685117 0.630307
0.340214 0.684477 0.629253
0.443367 0.683675 0.628041
0.546367 0.682721 0.626678
0.649220 0.681622 0.625175
0.751936 0.680386 0.623537
0.861199 0.677929 0.612911
0.943894 0.673142 0.603064
0.990015 0.668467 0.598074
0.234807 0.786087 0.626147
0.337609 0.784937 0.624594
0.440276 0.783654 0.622908
0.542814 0.782242 0.621098
0.645229 0.780708 0.619168
0.747526 0.779058 0.617123
0.849711 0.777297 0.614970
0.936728 0.774722 0.591286
0.993937 0.768804 0.572548
0.231092 0.880525 0.620409
0.333463 0.879020 0.618436
0.435719 0.877432 0.616352
0.537864 0.875765 0.614159
0.639902 0.874025 0.611864
0.741839 0.872217 0.609469
0.843678 0.870344 0.606980
0.930167 0.868411 0.604398
0.981534 0.866457 0.570691
0.225345 0.962916 0.612769
0.328004 0.964371 0.611003
0.429904 0.962149 0.608574
0.531708 0.959866 0.606050
0.633418 0.957525 0.603436
0.735039 0.955131 0.600734
0.836573 0.952687 0.597948
0.928027 0.950196 0.595081
0.972972 0.947662 0.592134
0.199549 0.132855 0.708218
0.310794 0.140068 0.714864
0.420451 0.145706 0.719968
0.529015 0.150264 0.724011
0.636755 0.154004 0.727253
0.743835 0.157091 0.729854
0.850368 0.159637 0.731925
0.930884 0.161721 0.733542
0.935453 0.158538 0.730375
0.219303 0.255460 0.725274
0.326787 0.258947 0.728268
0.433657 0.261826 0.730665
0.540012 0.264196 0.732562
0.645926 0.266128 0.734031
0.751454 0.267677 0.735124
0.856639 0.268888 0.735885
0.934080 0.269794 0.736348
0.945051 0.266193 0.732721
0.229598 0.368696 0.733144
0.335365 0.370484 0.734470
0.440764 0.371905 0.735438
0.545834 0.373001 0.736087
0.650608 0.373805 0.736448
0.755113 0.374342 0.736549
0.859373 0.374636 0.736410
0.935465 0.374705 0.736052
0.953885 0.371090 0.732353
0.234989 0.477076 0.736250
0.339663 0.477780 0.736514
0.444076 0.478226 0.736525
0.548251 0.478436 0.736305
0.652207 0.478428 0.735871
0.755958 0.478218 0.735239
0.859519 0.477820 0.734422
0.935629 0.477245 0.733432
0.962051 0.473876 0.729907
0.237101 0.582207 0.736171
0.340980 0.582124 0.735663
0.444660 0.581844 0.734962
0.548155 0.581380 0.734081
0.651476 0.580744 0.733031
0.754634 0.579946 0.731822
0.857637 0.578996 0.730463
0.934940 0.577900 0.728963
0.969615 0.574961 0.725788
0.236769 0.684918 0.733718
0.340029 0.684222 0.732609
0.443129 0.683367 0.731344
0.546078 0.682363 0.729933
0.648884 0.681217 0.728383
0.751554 0.679937 0.726701
0.854095 0.678528 0.724893
0.933649 0.676997 0.722966
0.976622 0.674629 0.720274
0.234501 0.785712 0.729385
0.337256 0.784516 0.727786
0.439879 0.783188 0.726057
0.542374 0.781735 0.724205
0.644748 0.780161 0.722236
0.747007 0.778473 0.720154
0.849154 0.776674 0.717964
0.935113 0.773680 0.706811
0.989755 0.768378 0.696460
0.230637 0.880024 0.723502
0.332968 0.878490 0.721491
0.435186 0.876874 0.719369
0.537294 0.875182 0.717141
0.639298 0.873418 0.714812
0.741201 0.871588 0.712384
0.843007 0.869694 0.709863
0.929957 0.867741 0.707251
0.980796 0.865124 0.683126
0.225133 0.964231 0.716058
0.327387 0.963624 0.713939
0.429254 0.961380 0.711477
0.531026 0.959077 0.708922
0.632705 0.956718 0.706278
0.734296 0.954307 0.703547
0.835801 0.951847 0.700733
0.927805 0.949340 0.697839
0.972582 0.946791 0.694866
0.202322 0.135530 0.814446
0.312946 0.142127 0.820489
0.422192 0.147359 0.825194
0.530453 0.151616 0.828943
0.637953 0.155120 0.831952
0.744837 0.158012 0.834363
0.851204 0.160393 0.836271
0.931314 0.162335 0.837750
0.936460 0.159084 0.834512
0.220647 0.256720 0.830115
0.327910 0.259987 0.832893
0.434595 0.262684 0.835111
0.540794 0.264898 0.836856
0.646571 0.266694 0.838192
0.751978 0.268125 0.839168
0.857055 0.269228 0.839824
0.934289 0.270038 0.840192
0.945975 0.266420 0.836544
0.230327 0.369347 0.837387
0.335964 0.371005 0.838587
0.441247 0.372312 0.839442
0.546213 0.373306 0.839990
0.650893 0.374016 0.840260
0.755313 0.374468 0.840277
0.859494 0.374683 0.840063
0.935530 0.374681 0.839634
0.954738 0.371080 0.835942
0.235334 0.477345 0.840119
0.339916 0.477959 0.840295
0.444246 0.478323 0.840225
0.548345 0.478457 0.839930
0.652229 0.478379 0.839428
0.755914 0.478103 0.838731
0.859414 0.477644 0.837854
0.935593 0.477012 0.836809
0.962841 0.473678 0.833312
0.237168 0.582202 0.839771
0.340978 0.582051 0.839196
0.444594 0.581707 0.838432
0.548028 0.581183 0.837493
0.651293 0.580491 0.836388
0.754397 0.579640 0.835127
0.857349 0.578639 0.833719
0.934833 0.577497 0.832173
0.970347 0.574610 0.829041
0.236621 0.684700 0.837109
0.339826 0.683949 0.835946
0.442874 0.683043 0.834631
0.545773 0.681989 0.833172
0.648532 0.680797 0.831576
0.751158 0.679472 0.829851
0.853656 0.678022 0.828002
0.933493 0.676451 0.826035
0.977300 0.674146 0.823398
0.234178 0.785321 0.832607
0.336888 0.784080 0.830963
0.439467 0.782708 0.829192
0.541920 0.781213 0.827299
0.644255 0.779600 0.825291
0.746475 0.777874 0.823172
0.848586 0.776039 0.820947
0.931752 0.774101 0.818620
0.979766 0.772063 0.816195
0.230168 0.879512 0.826581
0.332461 0.877950 0.824532
0.434640 0.876308 0.822374
0.536713 0.874591 0.820111
0.638682 0.872804 0.817748
0.740551 0.870951 0.815288
0.842325 0.869037 0.812736
0.929746 0.867065 0.810094
0.979052 0.864100 0.798505
0.225316 0.965089 0.819284
0.326758 0.962869 0.816864
0.428593 0.960604 0.814370
0.530333 0.958282 0.811784
0.631982 0.955905 0.809110
0.733543 0.953477 0.806351
0.835019 0.951000 0.803509
0.927582 0.948479 0.800588
0.972192 0.945916 0.797589
0.204839 0.137951 0.906396
0.314923 0.144014 0.909828
0.423810 0.148891 0.913104
0.531803 0.152882 0.915831
0.639081 0.156165 0.917712
0.745780 0.158874 0.919207
0.851989 0.161099 0.920379
0.931716 0.162905 0.921272
0.937459 0.159593 0.919078
0.221912 0.257900 0.916565
0.328966 0.260962 0.918297
0.435478 0.263486 0.919669
0.541526 0.265552 0.920734
0.647173 0.267219 0.921536
0.752464 0.268534 0.922105
0.857437 0.269535 0.922470
0.934482 0.270251 0.922650
0.946892 0.266621 0.920238
0.231011 0.369952 0.921055
0.336523 0.371486 0.921768
0.441694 0.372683 0.922261
0.546560 0.373577 0.922556
0.651149 0.374197 0.922674
0.755485 0.374567 0.922631
0.859589 0.374706 0.922442
0.935582 0.374633 0.922120
0.955585 0.371049 0.919722
0.235646 0.477583 0.922618
0.340140 0.478109 0.922676
0.444390 0.478393 0.922579
0.548414 0.478453 0.922340
0.652229 0.478307 0.921972
0.755849 0.477967 0.921484
0.859288 0.477448 0.920885
0.935549 0.476760 0.920184
0.963625 0.473464 0.917951
0.237211 0.582173 0.922220
0.340954 0.581955 0.921807
0.444507 0.581548 0.921278
0.547882 0.580967 0.920641
0.651091 0.580219 0.919904
0.754143 0.579317 0.919074
0.857046 0.578267 0.918156
0.934721 0.577078 0.917157
0.971073 0.574244 0.915198
0.236454 0.684463 0.920384
0.339604 0.683658 0.919612
0.442601 0.682701 0.918749
0.545452 0.681600 0.917801
0.648165 0.680362 0.916773
0.750747 0.678993 0.915671
0.853203 0.677501 0.914497
0.933333 0.675891 0.913257
0.977973 0.673652 0.911654
0.233840 0.784914 0.917436
0.336505 0.783628 0.916380
0.439040 0.782214 0.915251
0.541453 0.780678 0.914053
0.643748 0.779026 0.912789
0.745930 0.777263 0.911464
0.848005 0.775393 0.910081
0.931560 0.773420 0.908642
0.979396 0.771349 0.907151
0.229686 0.878991 0.913600
0.331940 0.877401 0.912314
0.434083 0.875733 0.910967
0.536119 0.873992 0.909563
0.638054 0.872182 0.908105
0.739891 0.870308 0.906596
0.841633 0.868374 0.905038
0.929533 0.866383 0.903434
0.975648 0.864340 0.901785
0.226843 0.964430 0.909115
0.326119 0.962107 0.907562
0.427920 0.959822 0.906034
0.529629 0.957481 0.904459
0.631248 0.955086 0.902838
0.732780 0.952641 0.901175
0.834228 0.950149 0.899469
0.927358 0.947614 0.897725
0.971802 0.945037 0.895944
0.205212 0.138322 0.906439
0.314842 0.143934 0.909819
0.423403 0.148487 0.913058
0.531155 0.152239 0.916188
0.638259 0.155349 0.919227
0.744827 0.157926 0.922190
0.850936 0.160051 0.925086
0.931066 0.161781 0.927923
0.937479 0.158473 0.927923
0.221194 0.257189 0.917304
0.328092 0.260094 0.920314
0.434485 0.262499 0.923252
0.540444 0.264474 0.926126
0.646024 0.266072 0.928942
0.751266 0.267338 0.931707
0.856208 0.268304 0.934424
0.933788 0.268999 0.937098
0.947016 0.265432 0.937390
0.229902 0.368847 0.927157
0.335354 0.370320 0.929954
0.440483 0.371472 0.932701
0.545322 0.372337 0.935402
0.649896 0.372939 0.938061
0.754229 0.373303 0.940679
0.858339 0.373445 0.943260
0.934924 0.373383 0.945806
0.955827 0.369902 0.946469
0.234401 0.476335 0.936375
0.338885 0.476848 0.939018
0.443135 0.477129 0.941623
0.547168 0.477195 0.944191
0.651000 0.477063 0.946724
0.754646 0.476745 0.949224
0.858116 0.476253 0.951694
0.934977 0.475598 0.954133
0.963992 0.472433 0.955218
0.235970 0.580919 0.945117
0.339733 0.580718 0.947638
0.443313 0.580335 0.950127
0.546722 0.579783 0.952585
0.649971 0.579071 0.955014
0.753067 0.578209 0.957415
0.856020 0.577205 0.959788
0.934270 0.576066 0.962136
0.971562 0.573384 0.963676
0.235308 0.683292 0.953473
0.338500 0.682525 0.955891
0.441543 0.681610 0.958282
0.544445 0.680556 0.960646
0.647214 0.679369 0.962984
0.749855 0.678056 0.965297
0.852375 0.676623 0.967586
0.933031 0.675075 0.969852
0.978577 0.673005 0.971871
0.232853 0.783888 0.961500
0.335575 0.782655 0.963829
0.438171 0.781298 0.966133
0.540649 0.779822 0.968414
0.643012 0.778234 0.970671
0.745266 0.776537 0.972906
0.847412 0.774734 0.975008
0.931365 0.772727 0.973384
0.979025 0.770624 0.971709
0.228907 0.878225 0.969238
0.331230 0.876697 0.971488
0.433445 0.875094 0.973714
0.535514 0.873384 0.974423
0.637415 0.871553 0.972780
0.739219 0.869658 0.971088
0.840930 0.867704 0.969348
0.929319 0.865695 0.967563
0.975262 0.863635 0.965736
0.228369 0.963764 0.973959
0.325468 0.961337 0.972170
0.427238 0.959033 0.970460
0.528915 0.956673 0.968703
0.630504 0.954261 0.966903
0.732008 0.951800 0.965061
0.833428 0.949293 0.963179
0.927134 0.946743 0.961260
0.971411 0.944153 0.959304
