library/luts/blush.cube
# CrabbyCut preset LUT — sinh bởi scripts/generate_preset_luts.js
TITLE "Ửng hồng"
LUT_3D_SIZE 5
0.176137 0.110451 0.167803
0.409528 0.135247 0.191684
0.629505 0.147182 0.202536
0.845324 0.154999 0.209350
0.930269 0.155186 0.209082
0.225176 0.364676 0.211174
0.437749 0.369277 0.214835
0.677191 0.367615 0.179112
0.907076 0.362292 0.172903
0.988893 0.354562 0.164685
0.236382 0.581854 0.217798
0.444662 0.582204 0.217288
0.652102 0.581723 0.215964
0.889703 0.578259 0.145371
0.992491 0.568601 0.135109
0.235863 0.787420 0.213033
0.441715 0.785365 0.210166
0.647013 0.782762 0.206761
0.851810 0.779663 0.202869
0.995578 0.776168 0.099161
0.226085 0.957603 0.199511
0.432397 0.965156 0.197095
0.636396 0.960858 0.204439
0.840023 0.956331 0.211721
0.974817 0.951601 0.218944
0.188969 0.122648 0.387336
0.414420 0.139949 0.403506
0.632683 0.150186 0.412693
0.847528 0.157039 0.418561
0.932373 0.156658 0.417728
0.227110 0.366448 0.420122
0.439081 0.370453 0.423198
0.649562 0.372984 0.424827
0.858852 0.374334 0.425299
0.951283 0.370989 0.421457
0.236749 0.582074 0.425224
0.444729 0.582128 0.424424
0.651912 0.581391 0.422849
0.886892 0.575309 0.382792
0.992825 0.565516 0.372381
0.235369 0.786787 0.419623
0.441026 0.784540 0.416567
0.646149 0.781763 0.412991
0.850786 0.778505 0.408944
0.995863 0.772546 0.335904
0.225736 0.960270 0.406161
0.431171 0.963665 0.402734
0.634814 0.959121 0.397721
0.838087 0.954353 0.392350
0.973750 0.949388 0.386644
0.196471 0.129879 0.601693
0.418585 0.143931 0.614621
0.635481 0.152814 0.622481
0.849479 0.158828 0.627526
0.934436 0.157952 0.626200
0.228820 0.367998 0.628853
0.440243 0.371461 0.631397
0.650292 0.373563 0.632606
0.859226 0.374562 0.632733
0.953024 0.371078 0.628742
0.237009 0.582188 0.632546
0.444705 0.581961 0.631471
0.651641 0.580979 0.629656
0.857907 0.579335 0.627191
0.968877 0.575299 0.622521
0.234807 0.786087 0.626147
0.440276 0.783654 0.622908
0.645229 0.780708 0.619168
0.849711 0.777297 0.614970
0.993937 0.768804 0.572548
0.225345 0.962916 0.612769
0.429904 0.962149 0.608574
0.633418 0.957525 0.603436
0.836573 0.952687 0.597948
0.972972 0.947662 0.592134
0.202322 0.135530 0.814446
0.422192 0.147359 0.825194
0.637953 0.155120 0.831952
0.851204 0.160393 0.836271
0.936460 0.159084 0.834512
0.230327 0.369347 0.837387
0.441247 0.372312 0.839442
0.650893 0.374016 0.840260
0.859494 0.374683 0.840063
0.954738 0.371080 0.835942
0.237168 0.582202 0.839771
0.444594 0.581707 0.838432
0.651293 0.580491 0.836388
0.857349 0.578639 0.833719
0.970347 0.574610 0.829041
0.234178 0.785321 0.832607
0.439467 0.782708 0.829192
0.644255 0.779600 0.825291
0.848586 0.776039 0.820947
0.979766 0.772063 0.816195
0.225316 0.965089 0.819284
0.428593 0.960604 0.814370
0.631982 0.955905 0.809110
0.835019 0.951000 0.803509
0.972192 0.945916 0.797589
0.205212 0.138322 0.906439
0.423403 0.148487 0.913058
0.638259 0.155349 0.919227
0.850936 0.160051 0.925086
0.937479 0.158473 0.927923
0.229902 0.368847 0.927157
0.440483 0.371472 0.932701
0.649896 0.372939 0.938061
0.858339 0.373445 0.943260
0.955827 0.369902 0.946469
0.235970 0.580919 0.945117
0.443313 0.580335 0.950127
0.649971 0.579071 0.955014
0.856020 0.577205 0.959788
0.971562 0.573384 0.963676
0.232853 0.783888 0.961500
0.438171 0.781298 0.966133
0.643012 0.778234 0.970671
0.847412 0.774734 0.975008
0.979025 0.770624 0.971709
0.228369 0.963764 0.973959
0.427238 0.959033 0.970460
0.630504 0.954261 0.966903
0.833428 0.949293 0.963179
0.971411 0.944153 0.959304
