library/luts/bright_clean.cube
# CrabbyCut preset LUT — sinh bởi scripts/generate_preset_luts.js
TITLE "Tươi sáng"
LUT_3D_SIZE 5
0.000000 0.005000 0.015000
0.340246 0.005720 0.013920
0.606124 0.006283 0.013075
0.827162 0.006751 0.012373
1.000000 0.007126 0.011811
0.004541 0.324753 0.011594
0.314186 0.316324 0.010707
0.591361 0.310924 0.009890
0.822710 0.310955 0.009161
1.000000 0.314709 0.008535
0.008280 0.587990 0.008790
0.300606 0.582918 0.007922
0.578946 0.578673 0.007090
0.818950 0.575246 0.006369
1.000000 0.576016 0.005751
0.011551 0.818327 0.006337
0.304827 0.816311 0.005433
0.573621 0.814640 0.004603
0.815565 0.813136 0.003857
1.000000 0.811219 0.003246
0.014304 1.000000 0.004272
0.321002 1.000000 0.003298
0.581556 1.000000 0.002471
0.816081 1.000000 0.001726
1.000000 1.000000 0.001083
0.000498 0.005249 0.359389
0.337655 0.005956 0.349308
0.604658 0.006510 0.332343
0.826727 0.006973 0.322021
1.000000 0.007346 0.316879
0.004951 0.321895 0.325705
0.311507 0.313453 0.315818
0.602319 0.305835 0.306821
0.845140 0.303873 0.303618
1.000000 0.305839 0.304690
0.008678 0.586270 0.303392
0.287735 0.585703 0.285552
0.578547 0.578085 0.276555
0.830844 0.572672 0.282018
1.000000 0.571683 0.290536
0.011963 0.817644 0.299828
0.282806 0.824200 0.274776
0.564075 0.819158 0.268356
0.817248 0.814620 0.262576
1.000000 0.810970 0.277797
0.014745 1.000000 0.309340
0.290927 1.000000 0.278153
0.564007 1.000000 0.273920
0.809808 1.000000 0.270110
1.000000 1.000000 0.266831
0.000882 0.005441 0.624798
0.325024 0.006123 0.618124
0.603426 0.006709 0.612445
0.826369 0.007166 0.590889
1.000000 0.007534 0.576049
0.005280 0.317060 0.602490
0.309107 0.310866 0.610641
0.599919 0.303248 0.601644
0.843669 0.302161 0.587197
1.000000 0.304885 0.578559
0.009060 0.584831 0.583506
0.285335 0.583116 0.580374
0.576147 0.575498 0.571377
0.838412 0.568384 0.563021
1.000000 0.565890 0.559662
0.012341 0.817077 0.568702
0.281281 0.822487 0.558356
0.553884 0.820897 0.543268
0.816598 0.813783 0.534913
1.000000 0.808647 0.538228
0.015120 1.000000 0.568510
0.290174 1.000000 0.552013
0.547012 1.000000 0.531701
0.802392 1.000000 0.525287
1.000000 1.000000 0.519761
0.001196 0.005598 0.841708
0.315294 0.006261 0.838332
0.584117 0.006829 0.835434
0.826050 0.007339 0.832809
1.000000 0.007702 0.809329
0.005569 0.314366 0.830268
0.308610 0.310200 0.853289
0.589879 0.305158 0.847263
0.842351 0.300620 0.841796
1.000000 0.304026 0.825070
0.009312 0.578668 0.819978
0.293505 0.578999 0.832814
0.573899 0.573082 0.837467
0.836334 0.565968 0.829393
1.000000 0.564158 0.817413
0.012681 0.816567 0.810716
0.279908 0.820946 0.813607
0.551636 0.818481 0.809762
0.814350 0.811366 0.801407
1.000000 0.804897 0.794000
0.015457 1.000000 0.801790
0.289496 1.000000 0.798516
0.545472 1.000000 0.789437
0.794078 1.000000 0.776317
1.000000 1.000000 0.768764
0.001444 0.005722 1.000000
0.308142 0.006371 1.000000
0.568696 0.006923 1.000000
0.803221 0.007419 1.000000
1.000000 0.007848 1.000000
0.005812 0.313305 1.000000
0.309390 0.310863 1.000000
0.582427 0.308048 1.000000
0.828189 0.305514 1.000000
1.000000 0.303262 1.000000
0.009524 0.574612 1.000000
0.301784 0.576691 1.000000
0.573160 0.572230 1.000000
0.828467 0.567122 1.000000
1.000000 0.562637 1.000000
0.012864 0.809815 1.000000
0.294937 0.815964 1.000000
0.557659 0.814961 1.000000
0.812274 0.809166 1.000000
1.000000 0.802706 1.000000
0.015748 1.000000 1.000000
0.288897 1.000000 1.000000
0.544127 1.000000 1.000000
0.792068 1.000000 1.000000
1.000000 1.000000 1.000000
