library/luts/bright_clean.cube
# CrabbyCut preset LUT — sinh bởi scripts/generate_preset_luts.js
TITLE "Tươi sáng"
LUT_3D_SIZE 9
0.000000 0.005000 0.015000
0.188032 0.005398 0.014403
0.340246 0.005720 0.013920
0.478936 0.006014 0.013479
0.606124 0.006283 0.013075
0.722204 0.006529 0.012707
0.827162 0.006751 0.012373
0.919123 0.006950 0.012075
1.000000 0.007126 0.011811
0.002480 0.179594 0.013140
0.170590 0.174036 0.012669
0.326066 0.169867 0.012223
0.467872 0.167449 0.011802
0.598056 0.166538 0.011401
0.716998 0.166936 0.011022
0.824738 0.168433 0.010666
0.917985 0.170802 0.010337
1.000000 0.173797 0.010036
0.004541 0.324753 0.011594
0.158369 0.320156 0.011158
0.314186 0.316324 0.010707
0.458645 0.312847 0.010289
0.591361 0.310924 0.009890
0.712708 0.310361 0.009514
0.822710 0.310955 0.009161
0.917090 0.312484 0.008833
1.000000 0.314709 0.008535
0.006468 0.460396 0.010149
0.151945 0.456723 0.009729
0.304836 0.453680 0.009280
0.449891 0.450793 0.008853
0.585009 0.447911 0.008457
0.708638 0.446437 0.008083
0.820786 0.446173 0.007732
0.916281 0.446904 0.007407
1.000000 0.448400 0.007111
0.008280 0.587990 0.008790
0.150508 0.585208 0.008371
0.300606 0.582918 0.007922
0.443012 0.580746 0.007496
0.578946 0.578673 0.007090
0.704753 0.576328 0.006718
0.818950 0.575246 0.006369
0.915544 0.575217 0.006046
1.000000 0.576016 0.005751
0.009977 0.707451 0.007518
0.153389 0.705524 0.007086
0.300835 0.703950 0.006638
0.440725 0.702456 0.006212
0.574257 0.701031 0.005807
0.701063 0.699677 0.005421
0.817206 0.697817 0.005075
0.914877 0.697066 0.004754
1.000000 0.697203 0.004460
0.011551 0.818327 0.006337
0.159876 0.817212 0.005881
0.304827 0.816311 0.005433
0.442349 0.815456 0.005009
0.573621 0.814640 0.004603
0.698281 0.813865 0.004219
0.815565 0.813136 0.003857
0.914279 0.811704 0.003537
1.000000 0.811219 0.003246
0.012996 0.914417 0.005253
0.169190 0.913949 0.004764
0.311820 0.913567 0.004317
0.447142 0.913206 0.003893
0.576314 0.912863 0.003489
0.698979 0.912539 0.003104
0.814386 0.912235 0.002743
0.913748 0.911953 0.002407
1.000000 0.910893 0.002117
0.014304 1.000000 0.004272
0.180495 1.000000 0.003744
0.321002 1.000000 0.003298
0.454308 1.000000 0.002875
0.581556 1.000000 0.002471
0.702394 1.000000 0.002087
0.816081 1.000000 0.001726
0.913333 1.000000 0.001390
1.000000 1.000000 0.001083
0.000276 0.005138 0.205907
0.186297 0.005528 0.199450
0.338836 0.005845 0.191530
0.477836 0.006135 0.185571
0.605323 0.006403 0.181295
0.721688 0.006647 0.178513
0.826921 0.006869 0.177031
0.919007 0.007069 0.176641
1.000000 0.007245 0.177119
0.002699 0.177709 0.184336
0.168797 0.172143 0.178005
0.328254 0.167323 0.172442
0.473840 0.164290 0.168704
0.607633 0.162792 0.166532
0.730005 0.162634 0.165735
0.840473 0.163609 0.166108
0.936419 0.165493 0.167433
1.000000 0.167998 0.169541
0.004743 0.323194 0.167917
0.153586 0.319909 0.159291
0.313043 0.315090 0.153729
0.461285 0.310999 0.152646
0.597613 0.308491 0.153011
0.722393 0.307374 0.154621
0.835288 0.307447 0.157260
0.932157 0.308492 0.160691
1.000000 0.310236 0.164718
0.006662 0.459151 0.157532
0.144331 0.458041 0.146714
0.300863 0.454012 0.141940
0.449373 0.450189 0.137412
0.588108 0.446723 0.140182
0.715172 0.444696 0.144077
0.830519 0.443913 0.148866
0.928222 0.444163 0.154295
1.000000 0.445185 0.160142
0.008472 0.587047 0.152337
0.140199 0.588024 0.139410
0.293939 0.584748 0.135390
0.439801 0.581640 0.131577
0.579034 0.578674 0.127937
0.708279 0.575778 0.134013
0.825714 0.574178 0.140853
0.924563 0.573668 0.148189
1.000000 0.574001 0.155773
0.010174 0.706798 0.151670
0.140526 0.709766 0.136726
0.291616 0.707206 0.133422
0.434962 0.704777 0.130288
0.571794 0.702459 0.127296
0.701734 0.700257 0.124455
0.821117 0.697881 0.133244
0.921177 0.696650 0.142391
1.000000 0.696329 0.151625
0.011759 0.817949 0.154835
0.144617 0.822798 0.137982
0.293212 0.820911 0.135352
0.434191 0.819122 0.132856
0.568765 0.817413 0.130475
0.696559 0.815791 0.128213
0.816791 0.814264 0.126085
0.918070 0.812355 0.136936
1.000000 0.811417 0.147722
0.013218 0.914258 0.161076
0.151707 0.920287 0.142438
0.297983 0.918976 0.140434
0.436763 0.917737 0.138532
0.569236 0.916559 0.136717
0.695037 0.915443 0.134994
0.813393 0.914398 0.133372
0.915250 0.913429 0.131865
1.000000 0.911955 0.144094
0.014543 1.000000 0.169580
0.160868 1.000000 0.149383
0.305034 1.000000 0.147942
0.441813 1.000000 0.146574
0.572376 1.000000 0.145269
0.696362 1.000000 0.144030
0.813011 1.000000 0.142864
0.912976 1.000000 0.141780
1.000000 1.000000 0.140793
0.000498 0.005249 0.359389
0.181785 0.005629 0.353931
0.337655 0.005956 0.349308
0.476919 0.006245 0.339906
0.604658 0.006510 0.332343
0.721263 0.006753 0.326439
0.826727 0.006973 0.322021
0.918912 0.007171 0.318901
1.000000 0.007346 0.316879
0.002891 0.175417 0.341152
0.167262 0.170506 0.340095
0.326719 0.165687 0.334532
0.472573 0.162921 0.327347
0.606621 0.161680 0.321886
0.729236 0.161765 0.317964
0.839942 0.162968 0.315399
0.935983 0.165065 0.313991
1.000000 0.167766 0.313597
0.004951 0.321895 0.325705
0.152050 0.318272 0.321381
0.311507 0.313453 0.315818
0.462942 0.308840 0.310500
0.602319 0.305835 0.306821
0.729993 0.304245 0.304592
0.845140 0.303873 0.303618
0.944281 0.304505 0.303691
1.000000 0.305839 0.304690
0.006868 0.458119 0.311876
0.143063 0.456673 0.305357
0.296939 0.453701 0.297927
0.448374 0.449088 0.292609
0.590156 0.445125 0.291336
0.720115 0.442625 0.291391
0.837765 0.441398 0.292567
0.937717 0.441234 0.294638
1.000000 0.441851 0.297449
0.008678 0.586270 0.303392
0.139187 0.586912 0.294763
0.287735 0.585703 0.285552
0.436522 0.581806 0.280949
0.578547 0.578085 0.276555
0.710686 0.574717 0.278791
0.830844 0.572672 0.282018
0.931601 0.571749 0.285996
1.000000 0.571683 0.290536
0.010379 0.706264 0.299601
0.139758 0.708896 0.288955
0.283247 0.709363 0.278051
0.429518 0.706145 0.274127
0.569142 0.703072 0.270382
0.701733 0.700155 0.266825
0.823839 0.697334 0.272001
0.925929 0.695690 0.277790
1.000000 0.694974 0.283972
0.011963 0.817644 0.299828
0.144077 0.822157 0.287273
0.282806 0.824200 0.274776
0.426710 0.821620 0.271491
0.564075 0.819158 0.268356
0.694521 0.816820 0.265378
0.817248 0.814620 0.262576
0.920713 0.812297 0.270070
1.000000 0.810970 0.277797
0.013421 0.914128 0.303337
0.151380 0.919841 0.288996
0.285684 0.922973 0.275020
0.427389 0.920994 0.272329
0.562654 0.919111 0.269761
0.691105 0.917329 0.267321
0.811956 0.915658 0.265026
0.915970 0.914110 0.262893
1.000000 0.912283 0.272056
0.014745 1.000000 0.309340
0.160740 1.000000 0.293436
0.290927 1.000000 0.278153
0.430641 1.000000 0.275987
0.564007 1.000000 0.273920
0.690654 1.000000 0.271957
0.809808 1.000000 0.270110
0.912126 1.000000 0.268394
1.000000 1.000000 0.266831
0.000699 0.005349 0.498297
0.178019 0.005722 0.493784
0.330953 0.006043 0.489960
0.476049 0.006348 0.486331
0.604028 0.006612 0.475650
0.720860 0.006853 0.466785
0.826543 0.007072 0.459580
0.918821 0.007268 0.453871
1.000000 0.007442 0.449477
0.003071 0.173765 0.483217
0.166327 0.169476 0.487162
0.322860 0.165446 0.482389
0.471370 0.161623 0.477860
0.605662 0.160624 0.469278
0.728507 0.160940 0.462393
0.839440 0.162361 0.457039
0.935571 0.164659 0.453039
1.000000 0.167545 0.450270
0.005121 0.319179 0.470436
0.153772 0.316184 0.471105
0.310036 0.311887 0.469778
0.461472 0.307274 0.464459
0.601091 0.304511 0.457660
0.728996 0.303152 0.452466
0.844386 0.302997 0.448704
0.943611 0.303831 0.446185
1.000000 0.305351 0.444808
0.007065 0.457140 0.458309
0.141861 0.455375 0.455870
0.295468 0.452135 0.451887
0.446903 0.447522 0.446568
0.591577 0.443086 0.441459
0.724282 0.440138 0.437872
0.844132 0.438488 0.435620
0.946213 0.437932 0.434505
1.000000 0.438167 0.434433
0.008873 0.585534 0.446705
0.138228 0.585856 0.442156
0.286507 0.584380 0.436390
0.432888 0.581440 0.429381
0.577562 0.577005 0.424272
0.712447 0.573188 0.422865
0.834981 0.570721 0.422666
0.937776 0.569406 0.423457
1.000000 0.568961 0.425107
0.010573 0.705758 0.439951
0.139029 0.708072 0.433384
0.282250 0.708270 0.425926
0.423830 0.706919 0.417312
0.566103 0.703132 0.412851
0.701209 0.699536 0.408615
0.825898 0.696293 0.410363
0.929945 0.694256 0.412967
1.000000 0.693167 0.416251
0.012156 0.817354 0.437390
0.143565 0.821549 0.428913
0.282026 0.823324 0.419863
0.419090 0.823468 0.409738
0.559104 0.820290 0.405887
0.692065 0.817273 0.402230
0.817158 0.814434 0.398789
0.922739 0.811719 0.403097
1.000000 0.810024 0.407919
0.013614 0.914004 0.438309
0.151069 0.919419 0.428044
0.285105 0.922300 0.417515
0.417972 0.923594 0.405985
0.555886 0.921045 0.402701
0.686853 0.918632 0.399583
0.810070 0.916369 0.396649
0.916179 0.914272 0.393922
1.000000 0.912112 0.400174
0.014937 1.000000 0.441938
0.160619 1.000000 0.430106
0.290541 1.000000 0.418267
0.419527 1.000000 0.405479
0.555551 1.000000 0.402689
0.684724 1.000000 0.400039
0.806253 1.000000 0.397547
0.910857 1.000000 0.395229
1.000000 1.000000 0.393119
0.000882 0.005441 0.624798
0.174893 0.005807 0.621187
0.325024 0.006123 0.618124
0.467461 0.006423 0.615219
0.603426 0.006709 0.612445
0.720475 0.006948 0.600753
0.826369 0.007166 0.590889
0.918735 0.007361 0.582707
1.000000 0.007534 0.576049
0.003242 0.172661 0.612728
0.165910 0.168967 0.621446
0.319651 0.165691 0.617426
0.465512 0.162583 0.613613
0.604746 0.159617 0.609973
0.727811 0.160152 0.600258
0.838962 0.161780 0.592242
0.935179 0.164271 0.585768
1.000000 0.167334 0.580732
0.005280 0.317060 0.602490
0.155891 0.314666 0.607924
0.309107 0.310866 0.610641
0.457894 0.306968 0.606037
0.599919 0.303248 0.601644
0.728044 0.302109 0.593621
0.843669 0.302161 0.587197
0.942973 0.303187 0.582204
1.000000 0.304885 0.578559
0.007214 0.454058 0.592777
0.146385 0.452898 0.595096
0.296945 0.450156 0.595155
0.445489 0.446016 0.593673
0.590162 0.441580 0.588564
0.723087 0.438852 0.582147
0.843197 0.437409 0.577234
0.945352 0.437046 0.573645
1.000000 0.437458 0.571304
0.009060 0.584831 0.583506
0.137312 0.584849 0.582850
0.285335 0.583116 0.580374
0.431473 0.579934 0.576486
0.576147 0.575498 0.571377
0.713654 0.571253 0.566493
0.838412 0.568384 0.563021
0.943217 0.566694 0.560772
1.000000 0.565890 0.559662
0.010759 0.705274 0.573924
0.138333 0.707284 0.571249
0.281298 0.707227 0.567081
0.422636 0.705633 0.561587
0.562727 0.702714 0.554946
0.700234 0.698470 0.550061
0.827390 0.694824 0.548539
0.933335 0.692413 0.548100
1.000000 0.690969 0.548618
0.012341 0.817077 0.568702
0.143076 0.820969 0.564116
0.281281 0.822487 0.558356
0.418103 0.822389 0.551352
0.553884 0.820897 0.543268
0.689246 0.817231 0.538963
0.816598 0.813783 0.534913
0.924236 0.810693 0.536179
1.000000 0.808647 0.538228
0.013797 0.913887 0.567146
0.150773 0.919016 0.560774
0.284553 0.921658 0.553533
0.417177 0.922727 0.545125
0.548951 0.922449 0.535701
0.682319 0.919435 0.531934
0.807795 0.916608 0.528391
0.915950 0.913988 0.525096
1.000000 0.911512 0.528569
0.015120 1.000000 0.568510
0.160504 1.000000 0.560566
0.290174 1.000000 0.552013
0.418920 1.000000 0.542344
0.547012 1.000000 0.531701
0.678595 1.000000 0.528396
0.802392 1.000000 0.525287
0.909228 1.000000 0.522397
1.000000 1.000000 0.519761
0.001047 0.005524 0.739418
0.172347 0.005885 0.736661
0.319817 0.006195 0.734322
0.459729 0.006490 0.732103
0.593283 0.006772 0.729984
0.720110 0.007039 0.727972
0.826204 0.007255 0.715583
0.918654 0.007449 0.705054
1.000000 0.007621 0.696245
0.003401 0.172041 0.730200
0.165943 0.168913 0.743449
0.317033 0.166353 0.740146
0.460379 0.163925 0.737011
0.597211 0.161606 0.734019
0.727151 0.159405 0.731178
0.838510 0.161229 0.720635
0.934807 0.163903 0.711811
1.000000 0.167134 0.704622
0.005430 0.315476 0.722378
0.158332 0.313653 0.732336
0.308654 0.310326 0.738892
0.454925 0.307108 0.734968
0.594549 0.304035 0.731222
0.727140 0.301118 0.727665
0.842989 0.301367 0.718714
0.942368 0.302576 0.711371
1.000000 0.304442 0.705572
0.007354 0.451559 0.714957
0.151111 0.450976 0.721792
0.298777 0.448706 0.725691
0.444574 0.445014 0.727852
0.586847 0.441227 0.723392
0.721953 0.437630 0.719155
0.842312 0.436385 0.711715
0.944537 0.436204 0.705775
1.000000 0.436786 0.701280
0.009190 0.581459 0.707874
0.144218 0.582058 0.711727
0.289348 0.580798 0.713091
0.432739 0.578064 0.712846
0.574792 0.574057 0.711214
0.712299 0.569812 0.706330
0.837340 0.567139 0.700331
0.942209 0.565632 0.695732
1.000000 0.564997 0.692466
0.010935 0.704815 0.701147
0.137673 0.706537 0.702169
0.280394 0.706236 0.701125
0.421501 0.704412 0.698595
0.561373 0.701273 0.694783
0.698880 0.697028 0.689899
0.828377 0.693000 0.685269
0.936152 0.690233 0.681943
1.000000 0.688453 0.679831
0.012516 0.816814 0.693398
0.142612 0.820418 0.692509
0.280574 0.821693 0.689872
0.417165 0.821364 0.685832
0.552726 0.819652 0.680578
0.686139 0.816762 0.674324
0.815636 0.812734 0.669695
0.925264 0.809289 0.668072
1.000000 0.806911 0.667486
0.013972 0.913775 0.689494
0.150492 0.918634 0.686817
0.284029 0.921050 0.682700
0.416422 0.921905 0.677256
0.547976 0.921424 0.670661
0.677584 0.919799 0.663135
0.805205 0.916438 0.659012
0.915347 0.913323 0.655179
1.000000 0.910547 0.656010
0.015293 1.000000 0.688706
0.160394 1.000000 0.684454
0.289824 1.000000 0.679023
0.418343 1.000000 0.672314
0.546219 1.000000 0.664498
0.672352 1.000000 0.655798
0.798302 1.000000 0.652103
0.907304 1.000000 0.648669
1.000000 1.000000 0.645533
0.001196 0.005598 0.841708
0.170328 0.005955 0.839886
0.315294 0.006261 0.838332
0.452830 0.006551 0.836852
0.584117 0.006829 0.835434
0.708790 0.007092 0.834084
0.826050 0.007339 0.832809
0.918578 0.007532 0.820160
1.000000 0.007702 0.809329
0.003550 0.171839 0.835578
0.166356 0.169245 0.851915
0.314951 0.167358 0.849476
0.455931 0.165568 0.847152
0.590504 0.163860 0.844925
0.718299 0.162237 0.842802
0.838085 0.160711 0.840797
0.934458 0.163557 0.830348
1.000000 0.166946 0.821181
0.005569 0.314366 0.830268
0.161011 0.313082 0.843668
0.308610 0.310200 0.853289
0.452514 0.307620 0.850212
0.589879 0.305158 0.847263
0.720325 0.302820 0.844451
0.842351 0.300620 0.841796
0.941801 0.302001 0.832677
1.000000 0.304026 0.825070
0.007484 0.449590 0.825003
0.155939 0.449549 0.835730
0.300882 0.447724 0.842886
0.444096 0.444454 0.848242
0.584109 0.441277 0.844584
0.717070 0.438259 0.841097
0.841482 0.435421 0.837803
0.943771 0.435412 0.829959
1.000000 0.436153 0.823566
0.009312 0.578668 0.819978
0.151098 0.579814 0.828051
0.293505 0.578999 0.832814
0.434313 0.576687 0.835877
0.573899 0.573082 0.837467
0.709261 0.569417 0.833315
0.836334 0.565968 0.829393
0.941264 0.564633 0.822706
1.000000 0.564158 0.817413
0.011048 0.701244 0.815206
0.146501 0.703517 0.820463
0.286499 0.703661 0.823032
0.425023 0.702259 0.823929
0.562428 0.699522 0.823388
0.697594 0.695660 0.821611
0.827091 0.691632 0.816981
0.935042 0.689037 0.811444
1.000000 0.687417 0.807304
0.012681 0.816567 0.810716
0.142176 0.819900 0.813304
0.279908 0.820946 0.813607
0.416282 0.820400 0.812355
0.551636 0.818481 0.809762
0.684853 0.815394 0.806036
0.814350 0.811366 0.801407
0.925882 0.807586 0.797068
1.000000 0.804897 0.794000
0.014136 0.913670 0.804602
0.150227 0.918275 0.805401
0.283536 0.920478 0.804224
0.415712 0.921133 0.801568
0.547058 0.920461 0.797635
0.676470 0.918657 0.792636
0.802387 0.915926 0.786809
0.914437 0.912346 0.782470
1.000000 0.909289 0.780815
0.015457 1.000000 0.801790
0.160291 1.000000 0.801011
0.289496 1.000000 0.798516
0.417801 1.000000 0.794594
0.545472 1.000000 0.789437
0.671411 1.000000 0.783263
0.794078 1.000000 0.776317
0.905160 1.000000 0.772371
1.000000 1.000000 0.768764
0.001328 0.005664 0.926019
0.168778 0.006018 0.925155
0.311416 0.006320 0.924420
0.446745 0.006606 0.923719
0.575923 0.006879 0.923049
0.698595 0.007138 0.922409
0.814008 0.007382 0.921806
0.918507 0.007609 0.921244
1.000000 0.007778 0.909417
0.003687 0.171982 0.923104
0.167072 0.169884 0.943424
0.313348 0.168624 0.941814
0.452128 0.167428 0.940279
0.584602 0.166287 0.938807
0.710402 0.165203 0.937404
0.828692 0.164183 0.936078
0.934135 0.163235 0.934841
1.000000 0.166771 0.924444
0.005697 0.313666 0.920599
0.163833 0.312883 0.937976
0.308900 0.310414 0.951028
0.450605 0.308429 0.948756
0.585870 0.306534 0.946577
0.714322 0.304734 0.944500
0.834865 0.303040 0.942537
0.941274 0.301466 0.940705
1.000000 0.303638 0.931538
0.007603 0.448090 0.918193
0.160759 0.448554 0.932726
0.303170 0.447143 0.943343
0.443983 0.444265 0.951996
0.581897 0.441655 0.949124
0.712863 0.439176 0.946384
0.835769 0.436844 0.943796
0.943061 0.434676 0.941381
1.000000 0.435564 0.933388
0.009423 0.576405 0.915869
0.157825 0.578060 0.927642
0.297701 0.577658 0.935895
0.436107 0.575739 0.942282
0.573401 0.572508 0.947059
0.706769 0.569381 0.943667
0.832245 0.566439 0.940464
0.940386 0.563704 0.937474
1.000000 0.563377 0.930609
0.011151 0.698256 0.913637
0.155039 0.701041 0.922747
0.292506 0.701599 0.928720
0.428628 0.700589 0.932922
0.563742 0.698227 0.935593
0.696730 0.694720 0.936909
0.824351 0.691199 0.933103
0.934013 0.687926 0.929552
1.000000 0.686454 0.923766
0.012777 0.812897 0.911516
0.152418 0.816746 0.918083
0.287620 0.818206 0.921879
0.421592 0.818052 0.923995
0.554654 0.816507 0.924656
0.685693 0.813776 0.924046
0.813143 0.810083 0.922365
0.924717 0.806303 0.918271
1.000000 0.803762 0.913504
0.014288 0.913573 0.909525
0.149981 0.917942 0.913697
0.283077 0.919947 0.915442
0.415051 0.920415 0.915593
0.546206 0.919567 0.914360
0.675434 0.917596 0.911937
0.801179 0.914709 0.908534
0.913294 0.911132 0.904391
1.000000 0.907816 0.900571
0.015609 1.000000 0.905380
0.160195 1.000000 0.907999
0.289190 1.000000 0.908423
0.417296 1.000000 0.907297
0.544778 1.000000 0.904826
0.670537 1.000000 0.901207
0.793034 1.000000 0.896662
0.902877 1.000000 0.891440
1.000000 1.000000 0.887532
0.001444 0.005722 1.000000
0.167635 0.006074 1.000000
0.308142 0.006371 1.000000
0.441448 0.006653 1.000000
0.568696 0.006923 1.000000
0.689534 0.007179 1.000000
0.803221 0.007419 1.000000
0.906447 0.007643 1.000000
1.000000 0.007848 1.000000
0.003811 0.172393 1.000000
0.167971 0.170732 1.000000
0.312125 0.170046 1.000000
0.448892 0.169395 1.000000
0.579443 0.168773 1.000000
0.703418 0.168183 1.000000
0.820058 0.167628 1.000000
0.924211 0.167112 1.000000
1.000000 0.166597 1.000000
0.005812 0.313305 1.000000
0.166665 0.312966 1.000000
0.309390 0.310863 1.000000
0.449083 0.309423 1.000000
0.582427 0.308048 1.000000
0.709054 0.306742 1.000000
0.828189 0.305514 1.000000
0.933097 0.304372 1.000000
1.000000 0.303262 1.000000
0.007711 0.446996 1.000000
0.165427 0.447910 1.000000
0.305499 0.446867 1.000000
0.444094 0.444340 1.000000
0.580088 0.442250 1.000000
0.709232 0.440266 1.000000
0.830734 0.438399 1.000000
0.936512 0.436664 1.000000
1.000000 0.435000 1.000000
0.009524 0.574612 1.000000
0.164244 0.576722 1.000000
0.301784 0.576691 1.000000
0.437977 0.575123 1.000000
0.573160 0.572230 1.000000
0.704706 0.569598 1.000000
0.828467 0.567122 1.000000
0.935363 0.564820 1.000000
1.000000 0.562637 1.000000
0.011245 0.695799 1.000000
0.163121 0.699045 1.000000
0.298256 0.699975 1.000000
0.432168 0.699319 1.000000
0.565173 0.697296 1.000000
0.696162 0.694111 1.000000
0.822069 0.691056 1.000000
0.930415 0.688217 1.000000
1.000000 0.685550 1.000000
0.012864 0.809815 1.000000
0.162064 0.814130 1.000000
0.294937 0.815964 1.000000
0.426703 0.816165 1.000000
0.557659 0.814961 1.000000
0.686702 0.812554 1.000000
0.812274 0.809166 1.000000
0.922438 0.805820 1.000000
1.000000 0.802706 1.000000
0.014369 0.910141 1.000000
0.161082 0.914944 1.000000
0.291852 0.917304 1.000000
0.421622 0.918108 1.000000
0.550674 0.917581 1.000000
0.677908 0.915915 1.000000
0.801779 0.913315 1.000000
0.912225 0.910004 1.000000
1.000000 0.906693 1.000000
0.015748 1.000000 1.000000
0.160099 1.000000 1.000000
0.288897 1.000000 1.000000
0.416819 1.000000 1.000000
0.544127 1.000000 1.000000
0.669723 1.000000 1.000000
0.792068 1.000000 1.000000
0.901848 1.000000 1.000000
1.000000 1.000000 1.000000
