library/luts/bright_clean.cube
# CrabbyCut preset LUT — sinh bởi scripts/generate_preset_luts.js
TITLE "Tươi sáng"
LUT_3D_SIZE 17
0.000000 0.005000 0.015000
0.104034 0.005220 0.014670
0.188032 0.005398 0.014403
0.266124 0.005563 0.014155
0.340246 0.005720 0.013920
0.411086 0.005870 0.013695
0.478936 0.006014 0.013479
0.543929 0.006151 0.013273
0.606124 0.006283 0.013075
0.665546 0.006409 0.012887
0.722204 0.006529 0.012707
0.776100 0.006643 0.012535
0.827162 0.006751 0.012373
0.874541 0.006854 0.012220
0.919123 0.006950 0.012075
0.960934 0.007041 0.011938
1.000000 0.007126 0.011811
0.001363 0.100992 0.013978
0.093510 0.097658 0.013722
0.178443 0.095063 0.013482
0.257429 0.093041 0.013254
0.332423 0.091492 0.013034
0.404119 0.090369 0.012820
0.472810 0.089641 0.012611
0.538630 0.089284 0.012408
0.601638 0.089272 0.012209
0.661857 0.089580 0.012016
0.719294 0.090184 0.011828
0.773950 0.091055 0.011647
0.825794 0.092165 0.011472
0.873546 0.093485 0.011303
0.918482 0.094983 0.011141
0.960624 0.096629 0.010986
1.000000 0.098390 0.010839
0.002480 0.179594 0.013140
0.085556 0.176531 0.012911
0.170590 0.174036 0.012669
0.250335 0.171710 0.012442
0.326066 0.169867 0.012223
0.398479 0.168457 0.012010
0.467872 0.167449 0.011802
0.534378 0.166817 0.011599
0.598056 0.166538 0.011401
0.658927 0.166586 0.011208
0.716998 0.166936 0.011022
0.772269 0.167561 0.010841
0.824738 0.168433 0.010666
0.872789 0.169524 0.010498
0.917985 0.170802 0.010337
0.960380 0.172237 0.010182
1.000000 0.173797 0.010036
0.003531 0.253609 0.012352
0.079489 0.250807 0.012142
0.163684 0.248537 0.011901
0.243602 0.246383 0.011672
0.320031 0.244260 0.011453
0.393126 0.242578 0.011240
0.463186 0.241304 0.011033
0.530342 0.240413 0.010831
0.594655 0.239879 0.010634
0.656146 0.239680 0.010442
0.714819 0.239789 0.010256
0.770674 0.240181 0.010075
0.823708 0.240828 0.009901
0.872089 0.241701 0.009734
0.917525 0.242770 0.009573
0.960154 0.244005 0.009419
1.000000 0.245374 0.009273
0.004541 0.324753 0.011594
0.074987 0.322207 0.011399
0.158369 0.320156 0.011158
0.237517 0.318210 0.010929
0.314186 0.316324 0.010707
0.387941 0.314378 0.010495
0.458645 0.312847 0.010289
0.526433 0.311703 0.010087
0.591361 0.310924 0.009890
0.653451 0.310485 0.009699
0.712708 0.310361 0.009514
0.769129 0.310527 0.009334
0.822710 0.310955 0.009161
0.871427 0.311617 0.008994
0.917090 0.312484 0.008833
0.959940 0.313525 0.008680
1.000000 0.314709 0.008535
0.005519 0.393608 0.010861
0.071900 0.391314 0.010676
0.154491 0.389477 0.010435
0.232887 0.387733 0.010206
0.308828 0.386044 0.009985
0.382885 0.384397 0.009768
0.454218 0.382614 0.009562
0.522620 0.381225 0.009362
0.588149 0.380206 0.009166
0.650824 0.379533 0.008975
0.710650 0.379182 0.008790
0.767622 0.379127 0.008611
0.821737 0.379342 0.008438
0.870796 0.379799 0.008272
0.916676 0.380468 0.008112
0.959737 0.381320 0.007960
1.000000 0.382324 0.007814
0.006468 0.460396 0.010149
0.070128 0.458351 0.009970
0.151945 0.456723 0.009729
0.229607 0.455177 0.009501
0.304836 0.453680 0.009280
0.378199 0.452220 0.009064
0.449891 0.450793 0.008853
0.518894 0.449164 0.008653
0.585009 0.447911 0.008457
0.648256 0.447010 0.008268
0.708638 0.446437 0.008083
0.766150 0.446166 0.007905
0.820786 0.446173 0.007732
0.870195 0.446428 0.007567
0.916281 0.446904 0.007407
0.959542 0.447572 0.007255
1.000000 0.448400 0.007111
0.007388 0.525190 0.009459
0.069584 0.523390 0.009282
0.150645 0.521966 0.009042
0.227588 0.520614 0.008813
0.302122 0.519305 0.008592
0.374807 0.518027 0.008377
0.445837 0.516779 0.008166
0.515253 0.515560 0.007960
0.581941 0.514077 0.007765
0.645747 0.512953 0.007576
0.706672 0.512163 0.007392
0.764711 0.511682 0.007214
0.819857 0.511485 0.007043
0.869621 0.511544 0.006877
0.915904 0.511831 0.006719
0.959357 0.512318 0.006567
1.000000 0.512975 0.006423
0.008280 0.587990 0.008790
0.070186 0.586433 0.008611
0.150508 0.585208 0.008371
0.226751 0.584045 0.008143
0.300606 0.582918 0.007922
0.372629 0.581820 0.007707
0.443012 0.580746 0.007496
0.511796 0.579697 0.007290
0.578946 0.578673 0.007090
0.643297 0.577330 0.006901
0.704753 0.576328 0.006718
0.763306 0.575642 0.006540
0.818950 0.575246 0.006369
0.869074 0.575114 0.006204
0.915544 0.575217 0.006046
0.959180 0.575527 0.005895
1.000000 0.576016 0.005751
0.009143 0.648762 0.008143
0.071849 0.647443 0.007959
0.151452 0.646412 0.007719
0.227012 0.645433 0.007491
0.300205 0.644485 0.007270
0.371583 0.643560 0.007055
0.441335 0.642657 0.006845
0.509503 0.641774 0.006639
0.576052 0.640912 0.006439
0.640910 0.640072 0.006243
0.702882 0.638863 0.006060
0.761937 0.637977 0.005884
0.818065 0.637387 0.005713
0.868554 0.637068 0.005549
0.915202 0.636991 0.005391
0.959011 0.637130 0.005240
1.000000 0.637455 0.005097
0.009977 0.707451 0.007518
0.074486 0.706366 0.007326
0.153389 0.705524 0.007086
0.228285 0.704724 0.006858
0.300835 0.703950 0.006638
0.371585 0.703194 0.006423
0.440725 0.702456 0.006212
0.508293 0.701735 0.006007
0.574257 0.701031 0.005807
0.638545 0.700344 0.005611
0.701063 0.699677 0.005421
0.760605 0.698596 0.005245
0.817206 0.697817 0.005075
0.868060 0.697316 0.004911
0.914877 0.697066 0.004754
0.958851 0.697037 0.004603
1.000000 0.697203 0.004460
0.010780 0.763995 0.006915
0.078005 0.763139 0.006712
0.156229 0.762480 0.006473
0.230481 0.761854 0.006245
0.302407 0.761248 0.006025
0.372548 0.760657 0.005810
0.441093 0.760079 0.005600
0.508080 0.759515 0.005395
0.573476 0.758964 0.005194
0.637211 0.758426 0.004999
0.699191 0.757904 0.004809
0.759314 0.757397 0.004625
0.816372 0.756436 0.004455
0.867592 0.755759 0.004292
0.914570 0.755339 0.004135
0.958700 0.755148 0.003986
1.000000 0.755159 0.003843
0.011551 0.818327 0.006337
0.082308 0.817694 0.006120
0.159876 0.817212 0.005881
0.233504 0.816754 0.005653
0.304827 0.816311 0.005433
0.374379 0.815879 0.005219
0.442349 0.815456 0.005009
0.508774 0.815043 0.004804
0.573621 0.814640 0.004603
0.636821 0.814247 0.004408
0.698281 0.813865 0.004219
0.757899 0.813494 0.004035
0.815565 0.813136 0.003857
0.867150 0.812288 0.003694
0.914279 0.811704 0.003537
0.958557 0.811357 0.003388
1.000000 0.811219 0.003246
0.012290 0.867947 0.005782
0.087296 0.867534 0.005550
0.164231 0.867218 0.005311
0.237258 0.866919 0.005084
0.307998 0.866631 0.004864
0.376983 0.866350 0.004649
0.444398 0.866076 0.004439
0.510281 0.865808 0.004235
0.574599 0.865548 0.004035
0.637283 0.865295 0.003840
0.698242 0.865050 0.003650
0.757373 0.864812 0.003466
0.814568 0.864583 0.003288
0.866734 0.864362 0.003117
0.914005 0.863662 0.002961
0.958422 0.863189 0.002812
1.000000 0.862917 0.002670
0.012996 0.914417 0.005253
0.092863 0.914155 0.005003
0.169190 0.913949 0.004764
0.241640 0.913755 0.004537
0.311820 0.913567 0.004317
0.380260 0.913384 0.004103
0.447142 0.913206 0.003893
0.512504 0.913032 0.003689
0.576314 0.912863 0.003489
0.638502 0.912698 0.003294
0.698979 0.912539 0.003104
0.757643 0.912384 0.002921
0.814386 0.912235 0.002743
0.866103 0.912091 0.002572
0.913748 0.911953 0.002407
0.958295 0.911319 0.002258
1.000000 0.910893 0.002117
0.013668 0.958446 0.004749
0.098903 0.958322 0.004480
0.174647 0.958221 0.004242
0.246545 0.958127 0.004015
0.316190 0.958035 0.003795
0.384108 0.957946 0.003581
0.450480 0.957859 0.003371
0.515343 0.957775 0.003167
0.578666 0.957692 0.002967
0.640380 0.957612 0.002772
0.700396 0.957534 0.002583
0.758612 0.957459 0.002399
0.814922 0.957386 0.002222
0.866152 0.957316 0.002051
0.913234 0.957249 0.001886
0.958176 0.957185 0.001729
1.000000 0.956612 0.001588
0.014304 1.000000 0.004272
0.105306 1.000000 0.003983
0.180495 1.000000 0.003744
0.251866 1.000000 0.003518
0.321002 1.000000 0.003298
0.388422 1.000000 0.003084
0.454308 1.000000 0.002875
0.518696 1.000000 0.002670
0.581556 1.000000 0.002471
0.642818 1.000000 0.002276
0.702394 1.000000 0.002087
0.760183 1.000000 0.001903
0.816081 1.000000 0.001726
0.866786 1.000000 0.001555
0.913333 1.000000 0.001390
0.957765 1.000000 0.001233
1.000000 1.000000 0.001083
0.000153 0.005076 0.120793
0.102987 0.005292 0.116966
0.187078 0.005467 0.113076
0.265259 0.005630 0.109829
0.339468 0.005786 0.107097
0.410393 0.005934 0.104826
0.478327 0.006077 0.102981
0.543402 0.006214 0.101535
0.605678 0.006345 0.100464
0.665180 0.006471 0.099745
0.721916 0.006591 0.099352
0.775887 0.006705 0.099260
0.827025 0.006814 0.099442
0.874441 0.006917 0.099869
0.919059 0.007014 0.100513
0.960902 0.007106 0.101343
1.000000 0.007191 0.102329
0.001482 0.099861 0.108008
0.092429 0.096522 0.104257
0.178526 0.093736 0.101073
0.258618 0.091533 0.098492
0.334684 0.089808 0.096401
0.407425 0.088514 0.094750
0.477139 0.087620 0.093507
0.543960 0.087099 0.092646
0.607944 0.086929 0.092143
0.669115 0.087083 0.091973
0.727478 0.087537 0.092111
0.783033 0.088262 0.092531
0.835483 0.089233 0.093205
0.884006 0.090417 0.094105
0.929679 0.091786 0.095200
0.972525 0.093309 0.096460
1.000000 0.094924 0.097894
0.002587 0.178555 0.097954
0.083592 0.175875 0.093546
0.169690 0.173089 0.090362
0.250542 0.170582 0.088542
0.327346 0.168564 0.087188
0.400806 0.166983 0.086257
0.471223 0.165809 0.085716
0.538729 0.165016 0.085542
0.603384 0.164578 0.085709
0.665209 0.164472 0.086192
0.724207 0.164673 0.086966
0.780378 0.165153 0.088002
0.833462 0.165886 0.089272
0.882248 0.166842 0.090747
0.928178 0.167991 0.092394
0.971273 0.169303 0.094182
1.000000 0.170720 0.096118
0.003629 0.252659 0.089899
0.076687 0.250606 0.084863
0.161947 0.248046 0.081905
0.242877 0.245616 0.079097
0.320380 0.243319 0.078444
0.394523 0.241467 0.078194
0.465606 0.240027 0.078321
0.533765 0.238974 0.078798
0.599056 0.238283 0.079602
0.661501 0.237930 0.080705
0.721102 0.237891 0.082082
0.777858 0.238138 0.083703
0.831577 0.238646 0.085539
0.880607 0.239384 0.087559
0.926775 0.240325 0.089731
0.970101 0.241437 0.092021
1.000000 0.242665 0.094431
0.004632 0.323889 0.083478
0.071377 0.322448 0.077829
0.155825 0.320107 0.075090
0.235984 0.317886 0.072491
0.313632 0.315733 0.069973
0.388436 0.313618 0.070385
0.460166 0.311921 0.071157
0.528956 0.310617 0.072266
0.594863 0.309680 0.073686
0.657909 0.309088 0.075390
0.718095 0.308816 0.077351
0.775417 0.308838 0.079539
0.829784 0.309127 0.081923
0.879044 0.309655 0.084471
0.925437 0.310393 0.087151
0.968981 0.311312 0.089927
1.000000 0.312358 0.092797
0.005605 0.392830 0.078527
0.067504 0.391987 0.072276
0.151161 0.389861 0.069751
0.230568 0.387842 0.067354
0.307489 0.385886 0.065033
0.382501 0.383979 0.062769
0.454860 0.382031 0.064171
0.524266 0.380481 0.065896
0.590775 0.379306 0.067917
0.654406 0.378480 0.070207
0.715161 0.377981 0.072737
0.773037 0.377783 0.075478
0.828025 0.377859 0.078396
0.877544 0.378182 0.081460
0.924151 0.378723 0.084635
0.967902 0.379453 0.087885
1.000000 0.380321 0.091204
0.006551 0.459703 0.074938
0.064965 0.459448 0.068094
0.147848 0.457530 0.065778
0.226521 0.455709 0.063580
0.302731 0.453946 0.061451
0.377049 0.452226 0.059374
0.449676 0.450545 0.057345
0.519683 0.448756 0.059671
0.586779 0.447346 0.062279
0.650983 0.446293 0.065141
0.712295 0.445572 0.068228
0.770710 0.445159 0.071509
0.826221 0.445027 0.074950
0.876103 0.445150 0.078518
0.922913 0.445498 0.082176
0.966862 0.446043 0.085889
1.000000 0.446737 0.089647
0.007470 0.524580 0.072624
0.063673 0.524902 0.065198
0.145800 0.523188 0.063086
0.223756 0.521561 0.061081
0.299270 0.519985 0.059139
0.372911 0.518449 0.057246
0.444875 0.516947 0.055395
0.515204 0.515479 0.053587
0.582874 0.513841 0.056769
0.647637 0.512565 0.060191
0.709494 0.511627 0.063822
0.768437 0.511004 0.067631
0.824458 0.510669 0.071582
0.874716 0.510595 0.075642
0.921720 0.510755 0.079773
0.965859 0.511120 0.083939
1.000000 0.511645 0.088126
0.008362 0.587462 0.071503
0.063547 0.588350 0.063504
0.144936 0.586835 0.061592
0.222191 0.585398 0.059776
0.297027 0.584005 0.058018
0.370006 0.582647 0.056303
0.441323 0.581320 0.054627
0.511020 0.580023 0.052989
0.579062 0.578756 0.051390
0.644372 0.577263 0.055358
0.706759 0.576114 0.059521
0.766217 0.575285 0.063844
0.822736 0.574752 0.068294
0.873384 0.574487 0.072834
0.920573 0.574463 0.077427
0.964892 0.574652 0.082035
1.000000 0.575010 0.086640
0.009228 0.648314 0.071492
0.064502 0.649756 0.062933
0.145172 0.648436 0.061214
0.221744 0.647182 0.059583
0.295919 0.645968 0.058003
0.368252 0.644784 0.056462
0.438940 0.643627 0.054957
0.508021 0.642496 0.053485
0.575462 0.641392 0.052049
0.641189 0.640317 0.050648
0.704094 0.638962 0.055329
0.764054 0.637933 0.060154
0.821059 0.637206 0.065090
0.872106 0.636755 0.070098
0.919471 0.636552 0.075141
0.963961 0.636569 0.080180
1.000000 0.636766 0.085193
0.010065 0.707083 0.072506
0.066452 0.709065 0.063398
0.146422 0.707934 0.061868
0.222331 0.706860 0.060416
0.295862 0.705819 0.059010
0.367569 0.704805 0.057638
0.437643 0.703813 0.056298
0.506125 0.702844 0.054988
0.572981 0.701898 0.053710
0.638138 0.700976 0.052464
0.701502 0.700080 0.051252
0.761951 0.698857 0.056566
0.819428 0.697942 0.061974
0.870883 0.697309 0.067437
0.918415 0.696932 0.072918
0.963067 0.696782 0.078375
1.000000 0.696822 0.083785
0.010872 0.763705 0.074455
0.069306 0.766214 0.064811
0.148597 0.765265 0.063464
0.223862 0.764365 0.062186
0.296769 0.763493 0.060948
0.367867 0.762643 0.059741
0.437347 0.761812 0.058562
0.505248 0.761000 0.057409
0.571537 0.760207 0.056283
0.636141 0.759434 0.055186
0.698967 0.758683 0.054119
0.759910 0.757954 0.053085
0.817845 0.756856 0.058951
0.869715 0.756048 0.064856
0.917405 0.755501 0.070761
0.962210 0.755190 0.076625
1.000000 0.755077 0.082419
0.011650 0.818112 0.077244
0.072967 0.821132 0.067079
0.151602 0.820361 0.065910
0.226244 0.819629 0.064800
0.298548 0.818920 0.063725
0.369058 0.818228 0.062677
0.437962 0.817553 0.061652
0.505302 0.816892 0.060651
0.571042 0.816247 0.059674
0.635111 0.815619 0.058721
0.697417 0.815008 0.057795
0.757855 0.814415 0.056896
0.816315 0.813842 0.056027
0.868602 0.812863 0.062360
0.916441 0.812154 0.068675
0.961391 0.811686 0.074932
1.000000 0.811425 0.081098
0.012396 0.867807 0.080775
0.077337 0.871076 0.070105
0.155339 0.870487 0.069107
0.229380 0.869929 0.068159
0.301102 0.869389 0.067241
0.371045 0.868864 0.066346
0.439395 0.868352 0.065471
0.506192 0.867853 0.064616
0.571403 0.867366 0.063782
0.634957 0.866893 0.062969
0.696762 0.866434 0.062178
0.756714 0.865989 0.061410
0.814703 0.865560 0.060668
0.867545 0.865146 0.059953
0.915524 0.864329 0.066664
0.960611 0.863744 0.073299
1.000000 0.863360 0.079825
0.013110 0.914328 0.084947
0.082311 0.917988 0.073789
0.159706 0.917510 0.072955
0.233170 0.917057 0.072163
0.304332 0.916619 0.071396
0.373730 0.916192 0.070648
0.441547 0.915777 0.069917
0.507824 0.915371 0.069203
0.572527 0.914976 0.068506
0.635585 0.914591 0.067826
0.696908 0.914218 0.067165
0.756393 0.913857 0.066524
0.813930 0.913508 0.065904
0.866374 0.913172 0.065306
0.914654 0.912849 0.064732
0.959870 0.912101 0.071731
1.000000 0.911565 0.078601
0.013790 0.958404 0.089654
0.087785 0.962432 0.078027
0.164598 0.962059 0.077350
0.237509 0.961706 0.076707
0.308137 0.961364 0.076085
0.377012 0.961032 0.075478
0.444320 0.960708 0.074885
0.510098 0.960392 0.074305
0.574315 0.960083 0.073739
0.636899 0.959784 0.073187
0.697761 0.959492 0.072651
0.756798 0.959211 0.072131
0.813903 0.958938 0.071627
0.865913 0.958676 0.071142
0.913624 0.958425 0.070676
0.959168 0.958185 0.070230
1.000000 0.957502 0.077430
0.014435 1.000000 0.094790
0.093582 1.000000 0.082764
0.169844 1.000000 0.082234
0.242233 1.000000 0.081731
0.312355 1.000000 0.081243
0.380737 1.000000 0.080767
0.447562 1.000000 0.080303
0.512869 1.000000 0.079848
0.576626 1.000000 0.079405
0.638762 1.000000 0.078973
0.699187 1.000000 0.078553
0.757802 1.000000 0.078145
0.814497 1.000000 0.077751
0.866044 1.000000 0.077371
0.913225 1.000000 0.077005
0.958260 1.000000 0.076656
1.000000 1.000000 0.076327
0.000276 0.005138 0.205907
0.101229 0.005349 0.202374
0.186297 0.005528 0.199450
0.264553 0.005690 0.195217
0.338836 0.005845 0.191530
0.409832 0.005993 0.188327
0.477836 0.006135 0.185571
0.542980 0.006272 0.183235
0.605323 0.006403 0.181295
0.664889 0.006528 0.179729
0.721688 0.006647 0.178513
0.775721 0.006761 0.177622
0.826921 0.006869 0.177031
0.874364 0.006972 0.176713
0.919007 0.007069 0.176641
0.960877 0.007160 0.176786
1.000000 0.007245 0.177119
0.001590 0.098724 0.194105
0.091536 0.095576 0.191900
0.177634 0.092790 0.188716
0.257802 0.090664 0.185148
0.333943 0.089013 0.182100
0.406757 0.087792 0.179517
0.476542 0.086968 0.177363
0.543432 0.086517 0.175611
0.607484 0.086414 0.174238
0.668721 0.086635 0.173220
0.727148 0.087152 0.172534
0.782765 0.087940 0.172155
0.835277 0.088971 0.172056
0.883827 0.090213 0.172210
0.929526 0.091638 0.172588
0.972398 0.093214 0.173163
1.000000 0.094881 0.173943
0.002699 0.177709 0.184336
0.082700 0.174929 0.181189
0.168797 0.172143 0.178005
0.250565 0.169487 0.174972
0.328254 0.167323 0.172442
0.402579 0.165602 0.170364
0.473840 0.164290 0.168704
0.542172 0.163361 0.167434
0.607633 0.162792 0.166532
0.670242 0.162558 0.165974
0.730005 0.162634 0.165735
0.786916 0.162993 0.165788
0.840473 0.163609 0.166108
0.889887 0.164452 0.166666
0.936419 0.165493 0.167433
0.980089 0.166701 0.168378
1.000000 0.167998 0.169541
0.003740 0.251889 0.175294
0.075872 0.249737 0.171519
0.160371 0.247480 0.167800
0.242138 0.244824 0.164766
0.320528 0.242382 0.162937
0.395535 0.240389 0.161541
0.467463 0.238811 0.160547
0.536447 0.237623 0.159930
0.602543 0.236801 0.159664
0.665773 0.236319 0.159726
0.726138 0.236155 0.160089
0.783635 0.236282 0.160728
0.837819 0.236672 0.161614
0.887473 0.237298 0.162717
0.934240 0.238130 0.164008
0.978138 0.239138 0.165455
1.000000 0.240249 0.167091
0.004743 0.323194 0.167917
0.070636 0.321653 0.163528
0.153586 0.319909 0.159291
0.234583 0.317461 0.156466
0.313043 0.315090 0.153729
0.388711 0.312833 0.152994
0.461285 0.310999 0.152646
0.530900 0.309559 0.152660
0.597613 0.308491 0.153011
0.661444 0.307771 0.153673
0.722393 0.307374 0.154621
0.780457 0.307275 0.155826
0.835288 0.307447 0.157260
0.885169 0.307862 0.158892
0.932157 0.308492 0.160691
0.976270 0.309307 0.162624
1.000000 0.310236 0.164718
0.005716 0.392207 0.162033
0.066836 0.391265 0.157042
0.148275 0.390021 0.152300
0.228520 0.387776 0.149677
0.306253 0.385601 0.147137
0.382056 0.383481 0.144659
0.455261 0.381395 0.144941
0.525492 0.379710 0.145571
0.592806 0.378403 0.146523
0.657222 0.377449 0.147771
0.718741 0.376825 0.149288
0.777357 0.376506 0.151046
0.832857 0.376466 0.153015
0.882955 0.376676 0.155162
0.930154 0.377108 0.157456
0.974472 0.377734 0.159863
1.000000 0.378488 0.162403
0.006662 0.459151 0.157532
0.064368 0.458797 0.151950
0.144331 0.458041 0.146714
0.223842 0.455995 0.144289
0.300863 0.454012 0.141940
0.375973 0.452078 0.139650
0.449373 0.450189 0.137412
0.520206 0.448265 0.138643
0.588108 0.446723 0.140182
0.653096 0.445542 0.142003
0.715172 0.444696 0.144077
0.774328 0.444162 0.146375
0.830519 0.443913 0.148866
0.880822 0.443923 0.151517
0.928222 0.444163 0.154295
0.972735 0.444604 0.157165
1.000000 0.445185 0.160142
0.007580 0.524097 0.154328
0.063145 0.524320 0.148162
0.141666 0.524042 0.142444
0.220459 0.522189 0.140213
0.296785 0.520394 0.138052
0.371218 0.518644 0.135945
0.443955 0.516933 0.133885
0.515041 0.515261 0.131873
0.583516 0.513491 0.133986
0.649064 0.512087 0.136366
0.711684 0.511025 0.138984
0.771368 0.510280 0.141810
0.828105 0.509828 0.144811
0.878767 0.509642 0.147954
0.926359 0.509694 0.151205
0.971058 0.509955 0.154528
1.000000 0.510367 0.157931
0.008472 0.587047 0.152337
0.063087 0.587835 0.145599
0.140199 0.588024 0.139410
0.218292 0.586360 0.137368
0.293939 0.584748 0.135390
0.367709 0.583176 0.133462
0.439801 0.581640 0.131577
0.510254 0.580139 0.129735
0.579034 0.578674 0.127937
0.645128 0.577052 0.130863
0.708279 0.575778 0.134013
0.768478 0.574829 0.137353
0.825714 0.574178 0.140853
0.876790 0.573800 0.144476
0.924563 0.573668 0.148189
0.969440 0.573753 0.151954
1.000000 0.574001 0.155773
0.009337 0.647965 0.151480
0.064108 0.649307 0.144180
0.139847 0.649950 0.137531
0.217258 0.648471 0.135674
0.292244 0.647038 0.133875
0.365369 0.645640 0.132120
0.436830 0.644274 0.130406
0.506667 0.642939 0.128730
0.574846 0.641636 0.127094
0.641292 0.640366 0.125500
0.704961 0.638886 0.129167
0.765662 0.637737 0.133010
0.823383 0.636893 0.136995
0.874889 0.636329 0.141087
0.922836 0.636017 0.145249
0.967881 0.635931 0.149445
1.000000 0.636018 0.153670
0.010174 0.706798 0.151670
0.066122 0.708681 0.143821
0.140526 0.709766 0.136726
0.217273 0.708465 0.135048
0.291616 0.707206 0.133422
0.364114 0.705977 0.131837
0.434962 0.704777 0.130288
0.504200 0.703604 0.128774
0.571794 0.702459 0.127296
0.637671 0.701343 0.125856
0.701734 0.700257 0.124455
0.762923 0.698913 0.128786
0.821117 0.697881 0.133244
0.873066 0.697136 0.137791
0.921177 0.696650 0.142391
0.966382 0.696397 0.147005
1.000000 0.696329 0.151625
0.010982 0.763482 0.152819
0.069038 0.765892 0.144434
0.142147 0.767405 0.136906
0.218250 0.766278 0.135402
0.291969 0.765187 0.133945
0.363859 0.764123 0.132524
0.434112 0.763083 0.131135
0.502769 0.762067 0.129778
0.569796 0.761075 0.128454
0.635119 0.760108 0.127162
0.698645 0.759168 0.125907
0.760266 0.758256 0.124689
0.818918 0.757041 0.129604
0.871322 0.756120 0.134594
0.919588 0.755465 0.139618
0.964944 0.755050 0.144638
1.000000 0.754831 0.149641
0.011759 0.817949 0.154835
0.072759 0.820870 0.145929
0.144617 0.822798 0.137982
0.220096 0.821840 0.136646
0.293212 0.820911 0.135352
0.364513 0.820006 0.134090
0.434191 0.819122 0.132856
0.502286 0.818257 0.131651
0.568765 0.817413 0.130475
0.633553 0.816591 0.129328
0.696559 0.815791 0.128213
0.757676 0.815015 0.127131
0.816791 0.814264 0.126085
0.869657 0.813173 0.131501
0.918070 0.812355 0.136936
0.963569 0.811783 0.142349
1.000000 0.811417 0.147722
0.012505 0.867700 0.157621
0.077187 0.870876 0.148210
0.147837 0.873027 0.139859
0.222715 0.872255 0.138685
0.295249 0.871509 0.137548
0.365983 0.870783 0.136439
0.435107 0.870075 0.135355
0.502660 0.869384 0.134296
0.568609 0.868711 0.133263
0.632883 0.868057 0.132255
0.695387 0.867421 0.131275
0.756017 0.866806 0.130325
0.814662 0.866211 0.129405
0.868073 0.865639 0.128519
0.916624 0.864721 0.134350
0.962257 0.864040 0.140142
1.000000 0.863561 0.145872
0.013218 0.914258 0.161076
0.082217 0.917826 0.151177
0.151707 0.920287 0.142438
0.226008 0.919620 0.141420
0.297983 0.918976 0.140434
0.368172 0.918349 0.139472
0.436763 0.917737 0.138532
0.503796 0.917140 0.137614
0.569236 0.916559 0.136717
0.633014 0.915993 0.135844
0.695037 0.915443 0.134994
0.755200 0.914912 0.134170
0.813393 0.914398 0.133372
0.866452 0.913903 0.132604
0.915250 0.913429 0.131865
0.961010 0.912585 0.138021
1.000000 0.911955 0.144094
0.013898 0.958370 0.165098
0.087744 0.962305 0.154729
0.156123 0.965062 0.145619
0.229873 0.964495 0.144750
0.301312 0.963948 0.143908
0.370979 0.963415 0.143088
0.439060 0.962895 0.142286
0.505595 0.962387 0.141502
0.570549 0.961893 0.140737
0.633853 0.961412 0.139991
0.695414 0.960945 0.139266
0.755130 0.960493 0.138562
0.812891 0.960056 0.137882
0.865562 0.959635 0.137225
0.913791 0.959232 0.136595
0.959828 0.958846 0.135992
1.000000 0.958071 0.142393
0.014543 1.000000 0.169580
0.093594 1.000000 0.158813
0.160868 1.000000 0.149383
0.234098 1.000000 0.148651
0.305034 1.000000 0.147942
0.374211 1.000000 0.147250
0.441813 1.000000 0.146574
0.507879 1.000000 0.145914
0.572376 1.000000 0.145269
0.635234 1.000000 0.144641
0.696362 1.000000 0.144030
0.755657 1.000000 0.143437
0.813011 1.000000 0.142864
0.865272 1.000000 0.142311
0.912976 1.000000 0.141780
0.958508 1.000000 0.141271
1.000000 1.000000 0.140793
0.000390 0.005195 0.284775
0.099709 0.005403 0.281522
0.183935 0.005580 0.278826
0.263884 0.005747 0.276268
0.338236 0.005902 0.271674
0.409300 0.006049 0.267586
0.477370 0.006191 0.263966
0.542579 0.006327 0.260785
0.604985 0.006457 0.258021
0.664614 0.006582 0.255651
0.721472 0.006701 0.253652
0.775563 0.006814 0.252003
0.826822 0.006922 0.250679
0.874290 0.007024 0.249654
0.918959 0.007121 0.248903
0.960853 0.007212 0.248398
1.000000 0.007297 0.248111
0.001691 0.097794 0.273904
