library/luts/clean_daylight.cube
# CrabbyCut preset LUT — sinh bởi scripts/generate_preset_luts.js
TITLE "Ánh ngày"
LUT_3D_SIZE 17
0.068389 0.074254 0.083712
0.156604 0.102388 0.111521
0.230097 0.115829 0.124755
0.299922 0.125608 0.134355
0.367651 0.133297 0.141882
0.433952 0.139560 0.147994
0.499186 0.144759 0.153050
0.563579 0.149118 0.157274
0.627284 0.152790 0.160815
0.690410 0.155885 0.163784
0.753038 0.158482 0.166260
0.815232 0.160647 0.168306
0.876121 0.162428 0.169972
0.936452 0.163867 0.171298
0.973684 0.164753 0.172114
0.973691 0.164962 0.172322
0.973689 0.164917 0.172277
0.122933 0.188605 0.137291
0.190087 0.195719 0.144248
0.256163 0.201530 0.149683
0.321626 0.206273 0.154057
0.386670 0.210140 0.157562
0.450840 0.213410 0.160657
0.514352 0.216160 0.163283
0.577391 0.218437 0.165440
0.640016 0.220302 0.167187
0.702273 0.221798 0.168570
0.764199 0.222966 0.169625
0.825781 0.223835 0.170385
0.885934 0.224432 0.170875
0.945752 0.224781 0.171118
0.982661 0.224717 0.170992
0.982648 0.224145 0.170423
0.982631 0.223377 0.169660
0.142459 0.268006 0.156198
0.206338 0.271853 0.159913
0.269612 0.275095 0.163029
0.332795 0.277790 0.164686
0.396247 0.279841 0.165704
0.460022 0.281303 0.166135
0.522959 0.282475 0.167011
0.585350 0.283375 0.167800
0.647451 0.283987 0.168304
0.709289 0.284336 0.168546
0.770885 0.284443 0.168549
0.832078 0.284327 0.168330
0.891891 0.284004 0.167906
0.951432 0.283487 0.167290
0.990545 0.282681 0.166421
0.990529 0.281494 0.165242
0.990511 0.280149 0.163905
0.153257 0.338699 0.166465
0.215414 0.340826 0.168474
0.277191 0.342574 0.170107
0.338628 0.343983 0.171404
0.400370 0.345089 0.170571
0.462793 0.345656 0.169203
0.525920 0.345710 0.167323
0.588131 0.345579 0.166722
0.649809 0.345282 0.166323
0.711286 0.344784 0.165724
0.772574 0.344097 0.164938
0.833462 0.343233 0.163977
0.892921 0.342204 0.162852
0.952148 0.341019 0.161572
0.995352 0.339628 0.160115
0.995340 0.337939 0.158436
0.995327 0.336118 0.156626
0.159074 0.404419 0.171799
0.220099 0.405417 0.172688
0.280855 0.406146 0.173311
0.341363 0.406628 0.173687
0.401643 0.406882 0.173838
0.462367 0.406971 0.171388
0.523853 0.406604 0.168484
0.586115 0.405795 0.165138
0.647488 0.404827 0.163586
0.708375 0.403740 0.162403
0.769109 0.402501 0.161069
0.829568 0.401117 0.159591
0.888417 0.399595 0.157977
0.947062 0.397944 0.156235
0.995703 0.396133 0.154350
0.995689 0.394024 0.152255
0.995673 0.391803 0.150048
0.161491 0.466746 0.173768
0.221692 0.466921 0.173840
0.281686 0.466891 0.173708
0.341489 0.466668 0.173387
0.401111 0.466266 0.172887
0.460565 0.465696 0.172219
0.520560 0.465057 0.168439
0.581364 0.464010 0.164250
0.642986 0.462562 0.159662
0.703722 0.460959 0.157358
0.763998 0.459262 0.155570
0.824152 0.457444 0.153661
0.882500 0.455509 0.151637
0.940641 0.453464 0.149503
0.996044 0.451302 0.147260
0.996027 0.448835 0.144807
0.996009 0.446270 0.142258
0.161371 0.526542 0.173224
0.220931 0.526078 0.172662
0.280326 0.525448 0.171937
0.339566 0.524664 0.171058
0.398658 0.523733 0.170033
0.457611 0.522663 0.168870
0.516432 0.521461 0.167576
0.575871 0.520268 0.162636
0.636150 0.518697 0.157319
0.697275 0.516752 0.151629
0.757503 0.514642 0.148700
0.817285 0.512453 0.146424
0.875390 0.510164 0.144048
0.933087 0.507779 0.141577
0.990623 0.505301 0.139015
0.996356 0.502542 0.136263
0.996337 0.499676 0.133415
0.159252 0.584342 0.170701
0.218293 0.583359 0.169625
0.277197 0.582240 0.168414
0.335971 0.580992 0.167074
0.394622 0.579620 0.165612
0.453156 0.578131 0.164034
0.511577 0.576530 0.162344
0.569890 0.574822 0.160548
0.628888 0.573189 0.154562
0.688747 0.571198 0.148220
0.749470 0.568853 0.141524
0.809280 0.566326 0.138060
0.867257 0.563728 0.135377
0.924553 0.561045 0.132611
0.981703 0.558280 0.129763
0.996678 0.555280 0.126756
0.996656 0.552147 0.123643
0.155494 0.640507 0.166556
0.214102 0.639092 0.165051
0.272594 0.637561 0.163431
0.330975 0.635920 0.161702
0.389250 0.634174 0.159868
0.447424 0.632326 0.157934
0.505500 0.630381 0.155903
0.563483 0.628342 0.153779
0.621376 0.626214 0.151567
0.680013 0.624221 0.144615
0.739527 0.621886 0.137322
0.799919 0.619211 0.129690
0.858230 0.616332 0.125754
0.915165 0.613385 0.122725
0.971963 0.610365 0.119625
0.996992 0.607156 0.116392
0.996969 0.603785 0.113043
0.150359 0.695297 0.161046
0.208597 0.693513 0.159175
0.266735 0.691629 0.157206
0.324777 0.689649 0.155140
0.382726 0.687578 0.152984
0.440587 0.685417 0.150740
0.498362 0.683171 0.148410
0.556054 0.680843 0.145999
0.613667 0.678435 0.143509
0.671202 0.675950 0.140943
0.729539 0.673657 0.133084
0.788763 0.671033 0.124896
0.848063 0.668080 0.116378
0.905019 0.664898 0.112020
0.961494 0.661649 0.108692
0.997299 0.658259 0.105260
0.997275 0.654673 0.101697
0.144041 0.748906 0.154366
0.201957 0.746801 0.152177
0.259787 0.744609 0.149901
0.317531 0.742333 0.147542
0.375194 0.739976 0.145102
0.432778 0.737539 0.142583
0.490286 0.735027 0.139990
0.547721 0.732441 0.137323
0.605083 0.729784 0.134586
0.662377 0.727058 0.131780
0.719604 0.724265 0.128908
0.777685 0.721717 0.120188
0.836288 0.718847 0.111146
0.893838 0.715656 0.101784
0.950375 0.712209 0.097041
0.997601 0.708661 0.093432
0.997576 0.704880 0.089675
0.136690 0.801484 0.146663
0.194324 0.799098 0.144194
0.251880 0.796633 0.141648
0.309361 0.794094 0.139027
0.366769 0.791482 0.136335
0.424106 0.788799 0.133572
0.481375 0.786049 0.130742
0.538578 0.783231 0.127846
0.595716 0.780350 0.124886
0.652791 0.777406 0.121864
0.709806 0.774401 0.118782
0.766762 0.771338 0.115642
0.824623 0.768571 0.106095
0.881111 0.765489 0.096234
0.938301 0.762093 0.086060
0.994454 0.758413 0.080963
0.997871 0.754465 0.077034
0.128425 0.851792 0.138055
0.185807 0.849313 0.135337
0.243120 0.846771 0.132550
0.300364 0.844168 0.129695
0.357543 0.841506 0.126776
0.414658 0.838788 0.123793
0.471712 0.836014 0.120749
0.528705 0.833186 0.117646
0.585639 0.830208 0.114484
0.642516 0.827066 0.111266
0.699338 0.823869 0.107993
0.756105 0.820617 0.104666
0.812820 0.817313 0.101287
0.868675 0.814356 0.090943
0.924725 0.811090 0.080289
0.981586 0.807515 0.069328
0.998161 0.803478 0.063826
0.119345 0.899418 0.128640
0.176500 0.896709 0.125697
0.233593 0.893944 0.122692
0.290624 0.891125 0.119626
0.347595 0.888252 0.116501
0.404508 0.885328 0.113319
0.461365 0.882355 0.110081
0.518167 0.879333 0.106788
0.574915 0.876263 0.103442
0.631611 0.873148 0.100044
0.688255 0.869988 0.096595
0.744850 0.866785 0.093098
0.801396 0.863539 0.089552
0.856574 0.860252 0.085958
0.911502 0.857337 0.074840
0.967245 0.854141 0.063417
0.997354 0.850470 0.054968
0.109528 0.946210 0.118495
0.166478 0.943293 0.115349
0.223371 0.940325 0.112146
0.280207 0.937308 0.108888
0.336989 0.934244 0.105576
0.393718 0.931132 0.102211
0.450395 0.927976 0.098794
0.507021 0.924775 0.095328
0.563598 0.921532 0.091812
0.620127 0.918246 0.088249
0.676609 0.914920 0.084639
0.733044 0.911554 0.080983
0.789434 0.908150 0.077283
0.844977 0.904707 0.073539
0.898670 0.901228 0.069752
0.953311 0.898164 0.057879
0.996753 0.894689 0.047283
0.098957 0.990049 0.107621
0.155804 0.989130 0.104357
0.212514 0.985977 0.100973
0.269173 0.982780 0.097538
0.325781 0.979539 0.094053
0.382340 0.976255 0.090520
0.438852 0.972930 0.086940
0.495316 0.969565 0.083313
0.551735 0.966161 0.079641
0.608109 0.962718 0.075925
0.664439 0.959238 0.072165
0.720727 0.955722 0.068363
0.776972 0.952170 0.064520
0.832957 0.948583 0.060635
0.886430 0.944962 0.056711
0.939812 0.941307 0.052748
0.994191 0.938118 0.042641
0.086096 0.989907 0.094797
0.142831 0.990366 0.091410
0.199518 0.990824 0.087976
0.256160 0.991282 0.084497
0.312757 0.991738 0.080973
0.369310 0.992193 0.077406
0.425821 0.992647 0.073795
0.482290 0.993100 0.070144
0.538717 0.993552 0.066451
0.595105 0.994003 0.062718
0.651453 0.994454 0.058946
0.707762 0.994903 0.055135
0.764034 0.995351 0.051287
0.820133 0.991925 0.051360
0.873840 0.988184 0.051722
0.927028 0.984413 0.052082
0.980126 0.980612 0.052440
0.083001 0.088828 0.158136
0.161788 0.107552 0.176611
0.233734 0.119449 0.188312
0.302739 0.128411 0.197102
0.369929 0.135562 0.204094
0.435836 0.141432 0.209816
0.500764 0.146325 0.214569
0.564909 0.150436 0.218547
0.628406 0.153901 0.221883
0.691355 0.156819 0.224676
0.753829 0.159263 0.227000
0.815887 0.161292 0.228912
0.876633 0.162953 0.230458
0.936841 0.164283 0.231677
0.973871 0.165070 0.232395
0.973875 0.165191 0.232515
0.973871 0.165064 0.232389
0.125531 0.191189 0.199821
0.192209 0.197828 0.206306
0.257731 0.203314 0.211647
0.322355 0.207904 0.216099
0.386251 0.211767 0.219830
0.449539 0.215023 0.222959
0.512307 0.217760 0.225573
0.574624 0.220047 0.227741
0.636543 0.221937 0.229515
0.698108 0.223474 0.230938
0.759354 0.224692 0.232045
0.820311 0.225622 0.232866
0.879862 0.226288 0.233426
0.939028 0.226712 0.233745
0.975670 0.226673 0.233643
0.975650 0.226034 0.233009
0.975623 0.225204 0.232184
0.143851 0.269387 0.217534
0.207513 0.273017 0.221034
0.270603 0.276075 0.223966
0.333396 0.278610 0.226151
0.396119 0.280618 0.227812
0.458821 0.282148 0.228998
0.520953 0.283384 0.230076
0.582666 0.284338 0.230920
0.644100 0.285014 0.231488
0.705277 0.285434 0.231802
0.766220 0.285619 0.231883
0.826878 0.285586 0.231748
0.886052 0.285351 0.231413
0.944959 0.284928 0.230890
0.984001 0.284169 0.230069
0.983973 0.282930 0.228838
0.983942 0.281537 0.227453
0.154035 0.339467 0.227193
0.216058 0.341460 0.229069
0.277715 0.343089 0.230584
0.339045 0.344391 0.231774
0.400503 0.345365 0.231725
0.462411 0.345875 0.231214
0.524791 0.345943 0.230262
0.586456 0.345846 0.229879
0.647681 0.345583 0.229514
0.708708 0.345122 0.228954
0.769551 0.344478 0.228211
0.830079 0.343661 0.227297
0.889100 0.342681 0.226221
0.947892 0.341549 0.224994
0.991299 0.340189 0.223568
0.991277 0.338457 0.221847
0.991252 0.336596 0.219997
0.159454 0.404789 0.232133
0.220385 0.405694 0.232929
0.281055 0.406337 0.233465
0.341483 0.406739 0.233763
0.401689 0.406920 0.233841
0.462301 0.406896 0.231888
0.523679 0.406422 0.229486
0.585837 0.405508 0.226646
0.647144 0.404476 0.225152
0.707979 0.403336 0.223917
0.768662 0.402046 0.222533
0.829087 0.400615 0.221008
0.887879 0.399049 0.219350
0.946471 0.397355 0.217565
0.995738 0.395506 0.215641
0.995723 0.393358 0.213507
0.995708 0.391100 0.211264
0.161583 0.466830 0.233816
0.221712 0.466933 0.233818
0.281640 0.466836 0.233620
0.341380 0.466551 0.233236
0.400944 0.466091 0.232678
0.460343 0.465466 0.231957
0.520242 0.464731 0.228690
0.580953 0.463591 0.225018
0.642485 0.462053 0.220949
0.703167 0.460397 0.218714
0.763401 0.458658 0.216885
0.823515 0.456799 0.214936
0.881833 0.454826 0.212875
0.939927 0.452745 0.210705
0.996078 0.450551 0.208428
0.996061 0.448050 0.205942
0.996043 0.445453 0.203361
0.161241 0.526403 0.233053
0.220744 0.525882 0.232434
0.280085 0.525199 0.231655
0.339273 0.524364 0.230725
0.398318 0.523385 0.229653
0.457225 0.522269 0.228445
0.516003 0.521024 0.227108
0.575357 0.519746 0.222693
0.635552 0.518091 0.217902
0.696595 0.516065 0.212740
0.756778 0.513910 0.209889
0.816526 0.511687 0.207578
0.874613 0.509364 0.205170
0.932267 0.506947 0.202667
0.989763 0.504439 0.200074
0.996389 0.501654 0.197295
0.996369 0.498760 0.194419
0.158942 0.584024 0.230351
0.217935 0.582994 0.229228
0.276795 0.581830 0.227973
0.335527 0.580540 0.226591
0.394137 0.579128 0.225089
0.452632 0.577600 0.223472
0.511016 0.575962 0.221746
0.569294 0.574218 0.219914
0.628214 0.572507 0.214461
0.687996 0.570439 0.208651
0.748644 0.568019 0.202490
0.808415 0.565453 0.199108
0.866384 0.562826 0.196397
0.923643 0.560115 0.193603
0.980756 0.557323 0.190728
0.996710 0.554300 0.187697
0.996688 0.551143 0.184559
0.155035 0.640039 0.226058
0.213602 0.638585 0.224513
0.272056 0.637016 0.222856
0.330401 0.635339 0.221091
0.388641 0.633557 0.219222
0.446781 0.631676 0.217255
0.504826 0.629699 0.215192
0.562777 0.627629 0.213038
0.620640 0.625471 0.210795
0.679205 0.623406 0.204381
0.738647 0.620999 0.197626
0.798968 0.618253 0.190532
0.857274 0.615339 0.186684
0.914173 0.612367 0.183630
0.970937 0.609323 0.180506
0.997023 0.606095 0.177252
0.997000 0.602701 0.173880
0.149772 0.694702 0.220422
0.207976 0.692884 0.218517
0.266080 0.690967 0.216515
0.324090 0.688956 0.214418
0.382009 0.686854 0.212231
0.439841 0.684664 0.209958
0.497587 0.682390 0.207600
0.555252 0.680034 0.205162
0.612838 0.677600 0.202646
0.670348 0.675089 0.200054
0.728616 0.672728 0.192737
0.787772 0.670036 0.185089
0.847041 0.667015 0.177115
0.903956 0.663802 0.172847
0.960400 0.660530 0.169497
0.997330 0.657124 0.166047
0.997306 0.653517 0.162463
0.143343 0.748201 0.213632
0.201230 0.746067 0.211414
0.259030 0.743846 0.209109
0.316746 0.741542 0.206722
0.374382 0.739157 0.204255
0.431940 0.736695 0.201711
0.489423 0.734157 0.199092
0.546833 0.731547 0.196401
0.604172 0.728866 0.193641
0.661443 0.726117 0.190812
0.718647 0.723301 0.187918
0.776662 0.720688 0.179741
0.835242 0.717753 0.171244
0.892719 0.714498 0.162427
0.949219 0.711022 0.157778
0.997631 0.707459 0.154152
0.997606 0.703659 0.150376
0.135895 0.800683 0.205833
0.193502 0.798269 0.203338
0.251033 0.795779 0.200766
0.308488 0.793215 0.198121
0.365872 0.790579 0.195404
0.423186 0.787873 0.192619
0.480432 0.785099 0.189766
0.537613 0.782260 0.186848
0.594730 0.779357 0.183867
0.651784 0.776392 0.180824
0.708779 0.773368 0.177722
0.765715 0.770284 0.174562
0.823513 0.767454 0.165562
0.879977 0.764309 0.156248
0.937097 0.760851 0.146621
0.993216 0.757144 0.141620
0.997900 0.753184 0.137676
0.127544 0.850957 0.197140
0.184902 0.848456 0.194398
0.242191 0.845894 0.191588
0.299414 0.843271 0.188711
0.356571 0.840589 0.185770
0.413665 0.837852 0.182766
0.470697 0.835060 0.179702
0.527670 0.832214 0.176578
0.584585 0.829147 0.173397
0.641443 0.825986 0.170160
0.698246 0.822771 0.166869
0.754995 0.819501 0.163524
0.811692 0.816179 0.160128
0.867530 0.813161 0.150332
0.923513 0.809834 0.140227
0.980306 0.806199 0.129815
0.998190 0.802142 0.124413
0.118386 0.898504 0.187648
0.175520 0.895776 0.184684
0.232591 0.892993 0.181658
0.289602 0.890155 0.178572
0.346553 0.887265 0.175427
0.403447 0.884324 0.172225
0.460285 0.881334 0.168968
0.517069 0.878295 0.165657
0.573799 0.875210 0.162293
0.630477 0.872080 0.158878
0.687105 0.868905 0.155413
0.743683 0.865687 0.151899
0.800213 0.862428 0.148337
0.855424 0.859127 0.144728
0.910286 0.856157 0.134159
0.965963 0.852907 0.123287
0.997442 0.849210 0.114981
0.108499 0.945225 0.177433
0.165429 0.942290 0.174268
0.222303 0.939306 0.171046
0.279120 0.936273 0.167769
0.335884 0.933192 0.164439
0.392595 0.930065 0.161056
0.449255 0.926894 0.157622
0.505864 0.923679 0.154139
0.562425 0.920421 0.150607
0.618937 0.917121 0.147028
0.675403 0.913782 0.143402
0.731823 0.910403 0.139732
0.788198 0.906985 0.136016
0.843783 0.903530 0.132258
0.897452 0.900038 0.128457
0.952029 0.896922 0.117135
0.996858 0.893418 0.106802
0.097910 0.990206 0.166532
0.154693 0.988064 0.163213
0.211385 0.984896 0.159812
0.268026 0.981684 0.156360
0.324618 0.978428 0.152859
0.381161 0.975131 0.149310
0.437656 0.971792 0.145713
0.494105 0.968414 0.142071
0.550509 0.964996 0.138384
0.606868 0.961541 0.134653
0.663183 0.958048 0.130879
0.719456 0.954520 0.127063
0.775688 0.950955 0.123205
0.831721 0.947357 0.119307
0.885173 0.943724 0.115370
0.938533 0.940059 0.111394
0.992844 0.936812 0.099334
0.084992 0.990063 0.153652
0.141711 0.990522 0.150249
0.198383 0.990980 0.146800
0.255009 0.991437 0.143305
0.311591 0.991892 0.139767
0.368130 0.992347 0.136184
0.424626 0.992801 0.132560
0.481081 0.993254 0.128894
0.537495 0.993706 0.125187
0.593869 0.994156 0.121441
0.650204 0.994606 0.117656
0.706501 0.995055 0.113832
0.762716 0.994375 0.109936
0.818775 0.990643 0.105908
0.872517 0.986879 0.101843
0.925672 0.983084 0.097742
0.978740 0.979260 0.093605
0.090805 0.096608 0.225820
0.166298 0.112045 0.241034
0.237045 0.122745 0.251548
0.305351 0.131009 0.259645
0.372060 0.137681 0.266162
0.437608 0.143192 0.271528
0.502251 0.147801 0.275999
0.566163 0.151680 0.279746
0.629465 0.154950 0.282889
0.692245 0.157699 0.285515
0.754572 0.159996 0.287693
0.816500 0.161896 0.289476
0.877108 0.163440 0.290907
0.937197 0.164666 0.292022
0.974057 0.165357 0.292645
0.974058 0.165391 0.292679
0.974052 0.165185 0.292474
0.127950 0.193595 0.262173
0.194198 0.199805 0.268233
0.259392 0.204964 0.273249
0.323753 0.209290 0.277440
0.387431 0.212936 0.280955
0.450533 0.216007 0.283901
0.513141 0.218584 0.286357
0.575318 0.220731 0.288385
0.637112 0.222497 0.290036
0.698565 0.223922 0.291348
0.759710 0.225039 0.292355
0.820574 0.225876 0.293085
0.880024 0.226458 0.293560
0.939099 0.226804 0.293802
0.975847 0.226695 0.293630
0.975825 0.225990 0.292930
0.975796 0.225097 0.292043
0.145165 0.270690 0.278792
0.208622 0.274115 0.282089
0.271536 0.276999 0.284848
0.333981 0.279413 0.287142
0.396013 0.281416 0.289028
0.457679 0.283053 0.290551
0.519016 0.284362 0.291748
0.580056 0.285375 0.292651
0.640824 0.286117 0.293286
0.701344 0.286610 0.293674
0.761635 0.286875 0.293836
0.821713 0.286927 0.293787
0.880298 0.286783 0.293542
0.938572 0.286453 0.293114
0.977555 0.285746 0.292343
0.977514 0.284457 0.291062
0.977468 0.283016 0.289630
0.154766 0.340187 0.287873
0.216660 0.342052 0.289622
0.278202 0.343566 0.291023
0.339427 0.344764 0.292110
0.400562 0.345643 0.292652
0.461794 0.346163 0.292836
0.523144 0.346344 0.292685
0.584043 0.346349 0.292541
0.644623 0.346172 0.292264
0.705010 0.345803 0.291795
0.765217 0.345255 0.291148
0.825233 0.344537 0.290334
0.883630 0.343660 0.289361
0.941802 0.342633 0.288240
0.985282 0.341346 0.286886
0.985243 0.339574 0.285125
0.985200 0.337675 0.283238
0.159801 0.405127 0.292433
0.220641 0.405940 0.293139
0.281226 0.406499 0.293592
0.341577 0.406824 0.293813
0.401711 0.406933 0.293820
0.462070 0.406809 0.292682
0.522960 0.406304 0.291163
0.584394 0.405428 0.289275
0.645177 0.404450 0.288019
0.705575 0.403362 0.286836
0.765826 0.402127 0.285507
0.825906 0.400753 0.284040
0.884271 0.399246 0.282441
0.942438 0.397614 0.280718
0.992026 0.395816 0.278846
0.991997 0.393635 0.276677
0.991967 0.391344 0.274401
0.161650 0.466888 0.293840
0.221710 0.466922 0.293772
0.281572 0.466760 0.293510
0.341251 0.466414 0.293066
0.400758 0.465897 0.292451
0.460103 0.465218 0.291676
0.519907 0.464388 0.288924
0.580526 0.463156 0.285770
0.641968 0.461528 0.282222
0.702598 0.459820 0.280057
0.762791 0.458040 0.278186
0.822865 0.456142 0.276199
0.881154 0.454131 0.274100
0.939202 0.452013 0.271894
0.996111 0.449789 0.269584
0.996094 0.447255 0.267066
0.996076 0.444626 0.264453
0.161091 0.526245 0.292861
0.220538 0.525668 0.292187
0.279826 0.524932 0.291356
0.338965 0.524047 0.290377
0.397962 0.523021 0.289257
0.456824 0.521860 0.288005
0.515559 0.520573 0.286626
0.574828 0.519210 0.282736
0.634941 0.517472 0.278472
0.695903 0.515365 0.273839
0.756042 0.513167 0.271065
0.815756 0.510909 0.268721
0.873826 0.508554 0.266280
0.931438 0.506105 0.263747
0.988894 0.503567 0.261124
0.996422 0.500756 0.258317
0.996402 0.497834 0.255414
0.158615 0.583689 0.289985
0.217563 0.582613 0.288817
0.276378 0.581406 0.287517
0.335068 0.580073 0.286094
0.393639 0.578622 0.284553
0.452095 0.577056 0.282898
0.510443 0.575381 0.281135
0.568685 0.573602 0.279269
0.627528 0.571814 0.274348
0.687234 0.569670 0.269072
0.747807 0.567175 0.263445
0.807539 0.564571 0.260147
0.865502 0.561914 0.257407
0.922723 0.559175 0.254585
0.979800 0.556357 0.251685
0.996742 0.553312 0.248629
0.996720 0.550130 0.245467
0.154561 0.639558 0.285546
0.213090 0.638064 0.283963
0.271506 0.636458 0.282269
0.329815 0.634745 0.280468
0.388021 0.632930 0.278565
0.446128 0.631015 0.276565
0.504140 0.629006 0.274471
0.562061 0.626906 0.272286
0.619895 0.624719 0.270014
0.678387 0.622581 0.264137
0.737757 0.620103 0.257920
0.798009 0.617286 0.251366
0.856309 0.614338 0.247605
0.913174 0.611341 0.244527
0.969905 0.608273 0.241379
0.997054 0.605026 0.238104
0.997031 0.601610 0.234710
0.149173 0.694096 0.279787
0.207343 0.692244 0.277848
0.265415 0.690295 0.275813
0.323394 0.688252 0.273686
0.381283 0.686120 0.271469
0.439085 0.683901 0.269167
0.496803 0.681599 0.266781
0.554441 0.679216 0.264316
0.612001 0.676756 0.261774
0.669486 0.674220 0.259157
0.727685 0.671790 0.252381
0.786773 0.669030 0.245275
0.846012 0.665943 0.237843
0.902887 0.662698 0.233666
0.959299 0.659405 0.230295
0.997361 0.655981 0.226826
0.997336 0.652355 0.223222
0.142635 0.747486 0.272889
0.200492 0.745322 0.270640
0.258264 0.743072 0.268308
0.315952 0.740741 0.265893
0.373562 0.738329 0.263400
0.431094 0.735841 0.260830
0.488552 0.733279 0.258186
0.545937 0.730644 0.255472
0.603253 0.727940 0.252688
0.660501 0.725168 0.249836
0.717683 0.722330 0.246920
0.775633 0.719651 0.239288
0.834190 0.716651 0.231335
0.891595 0.713332 0.223064
0.948057 0.709828 0.218508
0.997661 0.706251 0.214866
0.997636 0.702432 0.211071
0.135091 0.799872 0.264994
0.192672 0.797432 0.262473
0.250177 0.794917 0.259876
0.307608 0.792328 0.257206
0.364968 0.789667 0.254466
0.422259 0.786938 0.251657
0.479482 0.784142 0.248782
0.536641 0.781281 0.245843
0.593736 0.778357 0.242840
0.650770 0.775372 0.239778
0.707745 0.772327 0.236656
0.764661 0.769224 0.233476
0.822396 0.766331 0.225022
0.878837 0.763124 0.216255
0.935888 0.759604 0.207175
0.991972 0.755870 0.202270
0.997930 0.751897 0.198312
0.126655 0.850115 0.256217
0.183989 0.847593 0.253451
0.241255 0.845009 0.250618
0.298455 0.842367 0.247719
0.355591 0.839666 0.244757
0.412664 0.836910 0.241732
0.469676 0.834099 0.238648
0.526629 0.831204 0.235505
0.583524 0.828080 0.232304
0.640363 0.824900 0.229049
0.697148 0.821666 0.225739
0.753879 0.818379 0.222376
0.810559 0.815040 0.218962
0.866381 0.811960 0.209715
0.922296 0.808572 0.200159
0.979022 0.804877 0.190297
0.998219 0.800801 0.184994
0.117420 0.897584 0.246648
0.174532 0.894837 0.243663
0.231583 0.892035 0.240616
0.288573 0.889179 0.237510
0.345505 0.886272 0.234346
0.402380 0.883314 0.231125
0.459199 0.880307 0.227850
0.515964 0.877253 0.224521
0.572676 0.874152 0.221139
0.629337 0.871007 0.217707
0.685948 0.867817 0.214225
0.742510 0.864585 0.210694
0.799023 0.861311 0.207116
0.854268 0.857997 0.203492
0.909065 0.854973 0.193473
0.964677 0.851669 0.183151
0.997529 0.847944 0.175015
0.107463 0.944234 0.236365
0.164374 0.941282 0.233180
0.221228 0.938281 0.229939
0.278027 0.935232 0.226644
0.334773 0.932135 0.223296
0.391467 0.928993 0.219896
0.448109 0.925807 0.216445
0.504702 0.922577 0.212945
0.561246 0.919305 0.209397
0.617742 0.915992 0.205802
0.674192 0.912638 0.202161
0.730597 0.909246 0.198475
0.786957 0.905816 0.194745
0.842583 0.902348 0.190972
0.896231 0.898844 0.187156
0.950743 0.895675 0.176386
0.996962 0.892140 0.166343
0.096849 0.990132 0.225431
0.153575 0.986994 0.222064
0.210250 0.983810 0.218645
0.266874 0.980583 0.215176
0.323449 0.977313 0.211659
0.379976 0.974001 0.208094
0.436455 0.970649 0.204482
0.492889 0.967257 0.200824
0.549277 0.963827 0.197122
0.605621 0.960359 0.193376
0.661922 0.956854 0.189587
0.718181 0.953313 0.185757
0.774399 0.949737 0.181886
0.830482 0.946127 0.177974
0.883912 0.942483 0.174024
0.937251 0.938807 0.170034
0.991500 0.935508 0.158528
0.083883 0.990219 0.212502
0.140586 0.990678 0.209083
0.197242 0.991135 0.205618
0.253854 0.991591 0.202108
0.310421 0.992047 0.198555
0.366945 0.992501 0.194958
0.423427 0.992955 0.191320
0.479868 0.993407 0.187640
0.536268 0.993859 0.183920
0.592629 0.994309 0.180160
0.648950 0.994759 0.176362
0.705234 0.995208 0.172525
0.761382 0.993111 0.168573
0.817428 0.989368 0.164532
0.871219 0.985593 0.160455
0.924355 0.981789 0.156341
0.977403 0.977954 0.152192
0.096913 0.102696 0.291825
0.170308 0.116039 0.304961
0.240083 0.125769 0.314513
0.307781 0.133427 0.322009
0.374059 0.139667 0.328098
0.439276 0.144848 0.333137
0.503655 0.149193 0.337346
0.567348 0.152854 0.340876
0.630464 0.155938 0.343835
0.693083 0.158527 0.346302
0.755269 0.160684 0.348340
0.817073 0.162458 0.349999
0.877546 0.163891 0.351320
0.937519 0.165015 0.352334
0.974242 0.165613 0.352865
0.974241 0.165563 0.352816
0.974232 0.165280 0.352534
0.130208 0.195840 0.324366
