library/luts/clean_daylight.cube
# CrabbyCut preset LUT — sinh bởi scripts/generate_preset_luts.js
TITLE "Ánh ngày"
LUT_3D_SIZE 5
0.068389 0.074254 0.083712
0.367651 0.133297 0.141882
0.627284 0.152790 0.160815
0.876121 0.162428 0.169972
0.973689 0.164917 0.172277
0.159074 0.404419 0.171799
0.401643 0.406882 0.173838
0.647488 0.404827 0.163586
0.888417 0.399595 0.157977
0.995673 0.391803 0.150048
0.155494 0.640507 0.166556
0.389250 0.634174 0.159868
0.621376 0.626214 0.151567
0.858230 0.616332 0.125754
0.996969 0.603785 0.113043
0.128425 0.851792 0.138055
0.357543 0.841506 0.126776
0.585639 0.830208 0.114484
0.812820 0.817313 0.101287
0.998161 0.803478 0.063826
0.086096 0.989907 0.094797
0.312757 0.991738 0.080973
0.538717 0.993552 0.066451
0.764034 0.995351 0.051287
0.980126 0.980612 0.052440
0.102053 0.107817 0.356871
0.375937 0.141532 0.389914
0.631405 0.156869 0.404724
0.877949 0.164306 0.411697
0.974411 0.165350 0.412569
0.160400 0.405708 0.412941
0.401687 0.406891 0.413710
0.639864 0.404972 0.411400
0.874236 0.400639 0.406697
0.980955 0.393046 0.398967
0.153574 0.638556 0.404483
0.386746 0.631640 0.397217
0.618375 0.623184 0.388424
0.854357 0.612310 0.369422
0.997093 0.599404 0.356347
0.124852 0.848409 0.374346
0.353609 0.837800 0.362709
0.581383 0.825926 0.350099
0.808275 0.812743 0.336615
0.998277 0.798102 0.306141
0.081649 0.990531 0.330185
0.308065 0.992356 0.316117
0.533800 0.994165 0.301370
0.758701 0.990572 0.285832
0.974718 0.975333 0.269354
0.117394 0.123093 0.611889
0.382411 0.147959 0.636153
0.634652 0.160075 0.647767
0.879233 0.165632 0.652875
0.975118 0.165395 0.652474
0.161244 0.406516 0.653604
0.401375 0.406546 0.653230
0.638669 0.403744 0.650045
0.872347 0.398704 0.644640
0.981570 0.390560 0.636357
0.151444 0.636396 0.642203
0.384064 0.628929 0.634390
0.615221 0.620003 0.625130
0.844442 0.609814 0.614617
0.987349 0.597674 0.602302
0.121151 0.844911 0.610510
0.349562 0.833992 0.598531
0.577026 0.821543 0.585613
0.803637 0.808080 0.571852
0.998392 0.792643 0.548374
0.077115 0.991152 0.565487
0.303294 0.992972 0.551182
0.528811 0.994776 0.536218
0.753287 0.985451 0.520301
0.969309 0.970052 0.503631
0.128169 0.133813 0.860040
0.387538 0.153042 0.877053
0.637164 0.162548 0.885275
0.880038 0.166472 0.888454
0.975812 0.165086 0.887048
0.161655 0.406893 0.888699
0.400740 0.405877 0.887413
0.637216 0.402260 0.883774
0.870257 0.396558 0.878252
0.982178 0.387897 0.870232
0.149116 0.634038 0.875839
0.381214 0.626050 0.868250
0.611922 0.616676 0.859408
0.840877 0.606096 0.849476
0.987905 0.593658 0.837980
0.117328 0.841304 0.845615
0.345406 0.829973 0.834244
0.572570 0.817062 0.821030
0.798911 0.803329 0.807001
0.993210 0.788601 0.792024
0.072499 0.991772 0.800706
0.298447 0.993586 0.786171
0.523751 0.995357 0.770995
0.747806 0.980274 0.754702
0.963848 0.964719 0.737846
0.135863 0.141475 0.970630
0.391087 0.156569 0.972990
0.638510 0.163878 0.975087
0.879924 0.166364 0.977022
0.976071 0.163952 0.977717
0.161146 0.406370 0.977696
0.399288 0.404414 0.979481
0.635032 0.400065 0.981186
0.867551 0.393773 0.982825
0.982444 0.384662 0.983503
0.146154 0.631065 0.983408
0.377796 0.622621 0.984975
0.608120 0.612861 0.986497
0.836898 0.601952 0.987981
0.988252 0.589282 0.988867
0.113091 0.837324 0.988513
0.340901 0.825453 0.989951
0.567833 0.812307 0.991360
0.793971 0.798369 0.992742
0.993676 0.783522 0.993958
0.067697 0.992311 0.992478
0.293483 0.994167 0.994280
0.518402 0.990290 0.990459
0.742259 0.975042 0.975435
0.958337 0.959336 0.959911
