library/luts/clean_daylight.cube
# CrabbyCut preset LUT — sinh bởi scripts/generate_preset_luts.js
TITLE "Ánh ngày"
LUT_3D_SIZE 9
0.068389 0.074254 0.083712
0.230097 0.115829 0.124755
0.367651 0.133297 0.141882
0.499186 0.144759 0.153050
0.627284 0.152790 0.160815
0.753038 0.158482 0.166260
0.876121 0.162428 0.169972
0.973684 0.164753 0.172114
0.973689 0.164917 0.172277
0.142459 0.268006 0.156198
0.269612 0.275095 0.163029
0.396247 0.279841 0.165704
0.522959 0.282475 0.167011
0.647451 0.283987 0.168304
0.770885 0.284443 0.168549
0.891891 0.284004 0.167906
0.990545 0.282681 0.166421
0.990511 0.280149 0.163905
0.159074 0.404419 0.171799
0.280855 0.406146 0.173311
0.401643 0.406882 0.173838
0.523853 0.406604 0.168484
0.647488 0.404827 0.163586
0.769109 0.402501 0.161069
0.888417 0.399595 0.157977
0.995703 0.396133 0.154350
0.995673 0.391803 0.150048
0.161371 0.526542 0.173224
0.280326 0.525448 0.171937
0.398658 0.523733 0.170033
0.516432 0.521461 0.167576
0.636150 0.518697 0.157319
0.757503 0.514642 0.148700
0.875390 0.510164 0.144048
0.990623 0.505301 0.139015
0.996337 0.499676 0.133415
0.155494 0.640507 0.166556
0.272594 0.637561 0.163431
0.389250 0.634174 0.159868
0.505500 0.630381 0.155903
0.621376 0.626214 0.151567
0.739527 0.621886 0.137322
0.858230 0.616332 0.125754
0.971963 0.610365 0.119625
0.996969 0.603785 0.113043
0.144041 0.748906 0.154366
0.259787 0.744609 0.149901
0.375194 0.739976 0.145102
0.490286 0.735027 0.139990
0.605083 0.729784 0.134586
0.719604 0.724265 0.128908
0.836288 0.718847 0.111146
0.950375 0.712209 0.097041
0.997576 0.704880 0.089675
0.128425 0.851792 0.138055
0.243120 0.846771 0.132550
0.357543 0.841506 0.126776
0.471712 0.836014 0.120749
0.585639 0.830208 0.114484
0.699338 0.823869 0.107993
0.812820 0.817313 0.101287
0.924725 0.811090 0.080289
0.998161 0.803478 0.063826
0.109528 0.946210 0.118495
0.223371 0.940325 0.112146
0.336989 0.934244 0.105576
0.450395 0.927976 0.098794
0.563598 0.921532 0.091812
0.676609 0.914920 0.084639
0.789434 0.908150 0.077283
0.898670 0.901228 0.069752
0.996753 0.894689 0.047283
0.086096 0.989907 0.094797
0.199518 0.990824 0.087976
0.312757 0.991738 0.080973
0.425821 0.992647 0.073795
0.538717 0.993552 0.066451
0.651453 0.994454 0.058946
0.764034 0.995351 0.051287
0.873840 0.988184 0.051722
0.980126 0.980612 0.052440
0.090805 0.096608 0.225820
0.237045 0.122745 0.251548
0.372060 0.137681 0.266162
0.502251 0.147801 0.275999
0.629465 0.154950 0.282889
0.754572 0.159996 0.287693
0.877108 0.163440 0.290907
0.974057 0.165357 0.292645
0.974052 0.165185 0.292474
0.145165 0.270690 0.278792
0.271536 0.276999 0.284848
0.396013 0.281416 0.289028
0.519016 0.284362 0.291748
0.640824 0.286117 0.293286
0.761635 0.286875 0.293836
0.880298 0.286783 0.293542
0.977555 0.285746 0.292343
0.977468 0.283016 0.289630
0.159801 0.405127 0.292433
0.281226 0.406499 0.293592
0.401711 0.406933 0.293820
0.522960 0.406304 0.291163
0.645177 0.404450 0.288019
0.765826 0.402127 0.285507
0.884271 0.399246 0.282441
0.992026 0.395816 0.278846
0.991967 0.391344 0.274401
0.161091 0.526245 0.292861
0.279826 0.524932 0.291356
0.397962 0.523021 0.289257
0.515559 0.520573 0.286626
0.634941 0.517472 0.278472
0.756042 0.513167 0.271065
0.873826 0.508554 0.266280
0.988894 0.503567 0.261124
0.996402 0.497834 0.255414
0.154561 0.639558 0.285546
0.271506 0.636458 0.282269
0.388021 0.632930 0.278565
0.504140 0.629006 0.274471
0.619895 0.624719 0.270014
0.737757 0.620103 0.257920
0.856309 0.614338 0.247605
0.969905 0.608273 0.241379
0.997031 0.601610 0.234710
0.142635 0.747486 0.272889
0.258264 0.743072 0.268308
0.373562 0.738329 0.263400
0.488552 0.733279 0.258186
0.603253 0.727940 0.252688
0.717683 0.722330 0.246920
0.834190 0.716651 0.231335
0.948057 0.709828 0.218508
0.997636 0.702432 0.211071
0.126655 0.850115 0.256217
0.241255 0.845009 0.250618
0.355591 0.839666 0.244757
0.469676 0.834099 0.238648
0.583524 0.828080 0.232304
0.697148 0.821666 0.225739
0.810559 0.815040 0.218962
0.922296 0.808572 0.200159
0.998219 0.800801 0.184994
0.107463 0.944234 0.236365
0.221228 0.938281 0.229939
0.334773 0.932135 0.223296
0.448109 0.925807 0.216445
0.561246 0.919305 0.209397
0.674192 0.912638 0.202161
0.786957 0.905816 0.194745
0.896231 0.898844 0.187156
0.996962 0.892140 0.166343
0.083883 0.990219 0.212502
0.197242 0.991135 0.205618
0.310421 0.992047 0.198555
0.423427 0.992955 0.191320
0.536268 0.993859 0.183920
0.648950 0.994759 0.176362
0.761382 0.993111 0.168573
0.871219 0.985593 0.160455
0.977403 0.977954 0.152192
0.102053 0.107817 0.356871
0.242888 0.128560 0.377248
0.375937 0.141532 0.389914
0.504980 0.150507 0.398615
0.631405 0.156869 0.404724
0.755922 0.161327 0.408944
0.877949 0.164306 0.411697
0.974426 0.165840 0.413056
0.974411 0.165350 0.412569
0.147576 0.273080 0.401094
0.273244 0.278686 0.406453
0.397182 0.282565 0.410099
0.519753 0.285081 0.412392
0.641203 0.286478 0.413575
0.761710 0.286933 0.413824
0.880090 0.286578 0.413270
0.977892 0.285320 0.411851
0.977799 0.282388 0.408937
0.160400 0.405708 0.412941
0.281489 0.406745 0.413767
0.401687 0.406891 0.413710
0.521114 0.406269 0.412890
0.639864 0.404972 0.411400
0.758014 0.403074 0.409315
0.874236 0.400639 0.406697
0.981099 0.397642 0.403533
0.980955 0.393046 0.398967
0.160733 0.525871 0.412421
0.279257 0.524347 0.410707
0.397203 0.522247 0.408421
0.514630 0.519628 0.405621
0.633157 0.516283 0.400269
0.752928 0.511988 0.394703
0.869922 0.507452 0.389996
0.984088 0.502551 0.384926
0.993335 0.496740 0.379135
0.153574 0.638556 0.404483
0.270369 0.635306 0.401057
0.386746 0.631640 0.397217
0.502738 0.627590 0.392996
0.618375 0.623184 0.388424
0.735952 0.618283 0.378482
0.854357 0.612310 0.369422
0.967818 0.606149 0.363101
0.997093 0.599404 0.356347
0.141189 0.746026 0.391371
0.256703 0.741497 0.386676
0.371894 0.736647 0.381662
0.486783 0.731497 0.376350
0.601391 0.726064 0.370758
0.715732 0.720366 0.364903
0.832066 0.714428 0.351497
0.945715 0.707421 0.339949
0.997695 0.699959 0.332442
0.124852 0.848409 0.374346
0.239361 0.843221 0.368656
0.353609 0.837800 0.362709
0.467612 0.832160 0.356519
0.581383 0.825926 0.350099
0.694934 0.819439 0.343461
0.808275 0.812743 0.336615
0.919847 0.806033 0.320007
0.998277 0.798102 0.306141
0.105371 0.942235 0.354208
0.219060 0.936215 0.347707
0.332533 0.930006 0.340992
0.445800 0.923618 0.334073
0.558871 0.917059 0.326960
0.671755 0.910339 0.319662
0.784460 0.903464 0.312187
0.893775 0.896444 0.304542
0.997164 0.889567 0.285491
0.081649 0.990531 0.330185
0.194945 0.991445 0.323239
0.308065 0.992356 0.316117
0.421014 0.993262 0.308825
0.533800 0.994165 0.301370
0.646431 0.995064 0.293760
0.758701 0.990572 0.285832
0.868613 0.983013 0.277665
0.974718 0.975333 0.269354
0.110518 0.116248 0.485167
0.247911 0.133556 0.502135
0.379365 0.144937 0.513223
0.507412 0.152917 0.520937
0.633128 0.158571 0.526344
0.757103 0.162488 0.530027
0.878654 0.165033 0.532350
0.974791 0.166210 0.533354
0.974766 0.165419 0.532568
0.149725 0.275207 0.523135
0.274754 0.280176 0.527862
0.398194 0.283558 0.531016
0.520361 0.285671 0.532908
0.641474 0.286730 0.533757
0.761692 0.286897 0.533721
0.879802 0.286293 0.532918
0.978226 0.284823 0.531288
0.978126 0.281696 0.528181
0.160879 0.406169 0.533329
0.281649 0.406887 0.533840
0.401573 0.406761 0.533512
0.520761 0.405900 0.532455
0.639300 0.404391 0.530756
0.757260 0.402305 0.528483
0.873318 0.399698 0.525695
0.981412 0.396562 0.522390
0.981263 0.391826 0.517684
0.160300 0.525422 0.531907
0.278621 0.523695 0.529991
0.396385 0.521413 0.527525
0.513647 0.518630 0.524562
0.630452 0.515391 0.521146
0.746839 0.511734 0.517315
0.861658 0.507693 0.513104
0.973447 0.503296 0.508539
0.984232 0.497473 0.502734
0.152535 0.637501 0.523368
0.269183 0.634106 0.519797
0.385426 0.630306 0.515825
0.501295 0.626132 0.511482
0.616816 0.621612 0.506795
0.733586 0.616513 0.499704
0.850826 0.610594 0.492526
0.963417 0.604546 0.486319
0.994634 0.597787 0.479548
0.139703 0.744525 0.509814
0.255105 0.739885 0.505008
0.370191 0.734931 0.499891
0.484983 0.729683 0.494482
0.599498 0.724158 0.488799
0.713753 0.718374 0.482858
0.829917 0.712178 0.471632
0.943351 0.704987 0.461364
0.997755 0.697461 0.453789
0.123017 0.846674 0.492443
0.237436 0.841405 0.486665
0.351600 0.835908 0.480634
0.465522 0.830091 0.474364
0.579217 0.823747 0.467869
0.692695 0.817188 0.461159
0.805967 0.810423 0.454245
0.917380 0.803472 0.439834
0.998334 0.795383 0.427268
0.103253 0.940212 0.472025
0.216867 0.934127 0.465450
0.330269 0.927856 0.458665
0.443469 0.921409 0.451679
0.556475 0.914794 0.444502
0.669298 0.908021 0.437143
0.781943 0.901096 0.429609
0.891303 0.894027 0.421908
0.997361 0.886970 0.404729
0.079393 0.990842 0.447846
0.192628 0.991755 0.440840
0.305689 0.992664 0.433659
0.418582 0.993569 0.426311
0.531315 0.994471 0.418803
0.643893 0.995368 0.411141
0.756002 0.988019 0.403075
0.865994 0.980418 0.394858
0.972020 0.972699 0.386500
0.117394 0.123093 0.611889
0.252288 0.137907 0.626383
0.382411 0.147959 0.636153
0.509578 0.155062 0.642996
0.634652 0.160075 0.647767
0.758126 0.163492 0.650955
0.879233 0.165632 0.652875
0.975152 0.166472 0.653545
0.975118 0.165395 0.652474
0.151636 0.277098 0.644942
0.276082 0.281484 0.649091
0.399060 0.284406 0.651787
0.520848 0.286139 0.653305
0.641641 0.286880 0.653838
0.761585 0.286773 0.653529
0.879440 0.285929 0.652489
0.978557 0.284258 0.650657
0.978452 0.280943 0.647363
0.161244 0.406516 0.653604
0.281713 0.406933 0.653816
0.401375 0.406546 0.653230
0.520334 0.405456 0.651946
0.638669 0.403744 0.650045
0.756446 0.401475 0.647592
0.872347 0.398704 0.644640
0.981723 0.395432 0.641199
0.981570 0.390560 0.636357
0.159796 0.524901 0.651322
0.277921 0.522979 0.649213
0.395509 0.520522 0.646572
0.512611 0.517579 0.643450
0.629270 0.514194 0.639890
0.745523 0.510403 0.635926
0.860252 0.506238 0.631592
0.971886 0.501727 0.626914
0.984524 0.495818 0.621020
0.151444 0.636396 0.642203
0.267951 0.632859 0.638492
0.384064 0.628929 0.634390
0.499811 0.624635 0.629927
0.615221 0.620003 0.625130
0.730315 0.615056 0.620020
0.844442 0.609814 0.614617
0.954691 0.604296 0.608941
0.987349 0.597674 0.602302
0.138178 0.742986 0.628218
0.253470 0.738237 0.623304
0.368454 0.733181 0.618086
0.483150 0.727837 0.612581
0.597575 0.722222 0.606809
0.711745 0.716353 0.600784
0.827242 0.709986 0.592435
0.939424 0.702873 0.584072
0.995877 0.695396 0.576543
0.121151 0.844911 0.610510
0.235482 0.839563 0.604644
0.349562 0.833992 0.598531
0.463406 0.827961 0.592183
0.577026 0.821543 0.585613
0.690433 0.814913 0.578833
0.803637 0.808080 0.571852
0.914893 0.800889 0.559639
0.998392 0.792643 0.548374
0.101109 0.938167 0.589816
0.214650 0.932018 0.583169
0.327982 0.925686 0.576314
0.441115 0.919181 0.569263
0.554058 0.912512 0.562023
0.666819 0.905686 0.554604
0.779407 0.898711 0.547012
0.888816 0.891595 0.539256
0.997551 0.884350 0.524058
0.077115 0.991152 0.565487
0.190291 0.992064 0.558420
0.303294 0.992972 0.551182
0.416132 0.993876 0.543779
0.528811 0.994776 0.536218
0.641234 0.992971 0.528421
0.753287 0.985451 0.520301
0.863360 0.977810 0.512035
0.969309 0.970052 0.503631
0.123186 0.128856 0.737538
0.256138 0.141732 0.750108
0.385122 0.150648 0.758751
0.511506 0.156969 0.764819
0.635992 0.161395 0.769008
0.759003 0.164349 0.771736
0.879691 0.166110 0.773280
0.975510 0.166632 0.773634
0.975466 0.165283 0.772293
0.153333 0.278773 0.766536
0.277242 0.282624 0.770154
0.399790 0.285117 0.772424
0.521221 0.286494 0.773588
0.641711 0.286933 0.773821
0.761392 0.286565 0.773253
0.879004 0.285491 0.771985
0.978886 0.283627 0.769960
0.978775 0.280131 0.766486
0.161501 0.406755 0.773773
0.281683 0.406886 0.773701
0.401096 0.406251 0.772868
0.519835 0.404941 0.771366
0.637974 0.403033 0.769271
0.755574 0.400588 0.766643
0.871326 0.397657 0.763532
0.982032 0.394256 0.759960
0.981874 0.389250 0.754986
0.159223 0.524312 0.770669
0.277160 0.522202 0.768373
0.394577 0.519575 0.765564
0.511524 0.516477 0.762288
0.628041 0.512951 0.758587
0.744163 0.509029 0.754495
0.858808 0.504744 0.750041
0.970290 0.500120 0.745251
0.984815 0.494128 0.739271
0.150304 0.635241 0.760988
0.266674 0.631567 0.757141
0.382659 0.627510 0.752914
0.498289 0.623098 0.748334
0.613589 0.618357 0.743428
0.728581 0.613308 0.738217
0.842674 0.607971 0.732719
0.952796 0.602363 0.726953
0.987627 0.595680 0.720251
0.136615 0.741409 0.746585
0.251800 0.736553 0.741565
0.366685 0.731397 0.736247
0.481287 0.725959 0.730650
0.595623 0.720257 0.724791
0.709710 0.714304 0.718683
0.823559 0.708116 0.712341
0.932667 0.701703 0.705777
0.990334 0.694518 0.698535
0.119255 0.843121 0.728547
0.233499 0.837696 0.722595
0.347497 0.832052 0.716400
0.461264 0.825806 0.709976
0.574810 0.819315 0.703334
0.688147 0.812615 0.696484
0.801285 0.805716 0.689437
0.911888 0.798370 0.680117
0.997074 0.790182 0.670734
0.098939 0.936100 0.707583
0.212408 0.929888 0.700864
0.325672 0.923496 0.693941
0.438739 0.916934 0.686825
0.551620 0.910211 0.679523
0.664321 0.903334 0.672044
0.776852 0.896310 0.664396
0.886312 0.889147 0.656585
0.995139 0.881697 0.643577
0.074818 0.991462 0.683107
0.187934 0.992373 0.675981
0.300880 0.993279 0.668686
0.413663 0.994182 0.661228
0.526290 0.995081 0.653616
0.638552 0.990431 0.645680
0.750554 0.982869 0.637510
0.860714 0.975188 0.629196
0.966585 0.967392 0.620746
0.128169 0.133813 0.860040
0.259544 0.145114 0.870071
0.387538 0.153042 0.877053
0.513217 0.158659 0.881945
0.637164 0.162548 0.885275
0.759742 0.165070 0.887371
0.880038 0.166472 0.888454
0.975864 0.166696 0.888505
0.975812 0.165086 0.887048
0.154832 0.280253 0.883318
0.278246 0.283609 0.886168
0.400391 0.285700 0.887873
0.521486 0.286741 0.888630
0.641688 0.286893 0.888582
0.761119 0.286275 0.887839
0.878499 0.284981 0.886485
0.979213 0.282932 0.884471
0.979097 0.279261 0.881148
0.161655 0.406893 0.888699
0.281565 0.406751 0.888387
0.400740 0.405877 0.887413
0.519267 0.404357 0.885854
0.637216 0.402260 0.883774
0.754646 0.399645 0.881226
0.870257 0.396558 0.878252
0.982339 0.393032 0.874881
0.982178 0.387897 0.870232
0.158584 0.523657 0.885154
0.276338 0.521365 0.882898
0.393591 0.518573 0.880190
0.510388 0.515326 0.877070
0.626767 0.511662 0.873574
0.742762 0.507614 0.869730
0.857328 0.503210 0.865566
0.968662 0.498477 0.861103
0.985104 0.492405 0.855579
0.149116 0.634038 0.875839
0.265352 0.630231 0.872213
0.381214 0.626050 0.868250
0.496729 0.621524 0.863975
0.611922 0.616676 0.859408
0.726813 0.611527 0.854569
0.840877 0.606096 0.849476
0.950874 0.600399 0.844143
0.987905 0.593658 0.837980
0.135015 0.739795 0.862345
0.250096 0.734835 0.857677
0.364882 0.729581 0.852744
0.479392 0.724052 0.847561
0.593642 0.718263 0.842144
0.707647 0.712228 0.836505
0.821419 0.705962 0.830136
0.930508 0.699476 0.823499
0.990602 0.692249 0.816211
0.117328 0.841304 0.845615
0.231487 0.835803 0.840116
0.345406 0.829973 0.834244
0.459096 0.823626 0.827744
0.572570 0.817062 0.821030
0.685839 0.810294 0.814113
0.798911 0.803329 0.807001
0.908033 0.796178 0.799704
0.993210 0.788601 0.792024
0.096745 0.934011 0.825324
0.210143 0.927737 0.818535
0.323339 0.921286 0.811546
0.436342 0.914668 0.804365
0.549161 0.907892 0.797003
0.661803 0.900965 0.789466
0.774277 0.893893 0.781761
0.883793 0.886684 0.773897
0.991871 0.879106 0.763793
0.072499 0.991772 0.800706
0.185557 0.992681 0.793522
0.298447 0.993586 0.786171
0.411176 0.994487 0.778660
0.523751 0.995357 0.770995
0.635852 0.987877 0.762922
0.747806 0.980274 0.754702
0.858053 0.972553 0.746342
0.963848 0.964719 0.737846
0.132503 0.138121 0.970517
0.262527 0.148076 0.971778
0.389628 0.155113 0.972941
0.514654 0.160079 0.974033
0.638095 0.163463 0.975073
0.760265 0.165578 0.976070
0.880199 0.166644 0.977031
0.976148 0.166588 0.977786
0.976094 0.164737 0.977738
0.156071 0.281475 0.974417
0.279019 0.284367 0.975440
0.400785 0.286079 0.976423
0.521563 0.286804 0.977373
0.641496 0.286687 0.978295
0.760695 0.285837 0.979192
0.877870 0.284341 0.980067
0.979497 0.282127 0.980815
0.979387 0.278301 0.980715
0.161630 0.406853 0.977712
0.281285 0.406458 0.978624
0.400239 0.405363 0.979513
0.518574 0.403651 0.980381
0.636354 0.401384 0.981230
0.753633 0.398617 0.982063
0.869126 0.395396 0.982880
0.981911 0.391756 0.982997
0.982480 0.386503 0.978240
0.157827 0.522886 0.980692
0.275419 0.520432 0.981535
0.392527 0.517495 0.982362
0.509195 0.514118 0.983174
0.625448 0.510328 0.981640
0.741319 0.506157 0.977684
0.855812 0.501639 0.973416
0.967000 0.496798 0.968856
0.985392 0.490648 0.963259
0.147879 0.632787 0.983466
0.263987 0.628851 0.980237
0.379728 0.624551 0.976165
0.495131 0.619912 0.971789
0.610220 0.614960 0.967128
0.725013 0.609713 0.962201
0.839052 0.604190 0.957024
0.948926 0.598407 0.951613
0.988182 0.591610 0.945395
0.133379 0.738145 0.970124
0.248357 0.733083 0.965364
0.363048 0.727733 0.960344
0.477468 0.722114 0.955080
0.591633 0.716240 0.949587
0.705557 0.710126 0.943876
0.819253 0.703784 0.937959
0.928329 0.697225 0.931846
0.990869 0.689958 0.925165
0.115373 0.839461 0.953106
0.229448 0.833885 0.947532
0.343288 0.827843 0.941745
0.456904 0.821421 0.935755
0.570307 0.814786 0.929574
0.683508 0.807950 0.923211
0.796515 0.800921 0.916673
0.905661 0.793708 0.909968
0.993469 0.786103 0.902941
0.094526 0.931900 0.933527
0.207854 0.925565 0.927278
0.320984 0.919057 0.920850
0.433923 0.912385 0.914251
0.546682 0.905556 0.907488
0.659266 0.898579 0.900568
0.771684 0.891460 0.893499
0.881259 0.884206 0.886285
0.987760 0.876822 0.878932
0.070161 0.992081 0.910971
0.183161 0.992989 0.904373
0.295995 0.993893 0.897626
0.408672 0.994793 0.890734
0.521086 0.992830 0.883624
0.633136 0.985308 0.876222
0.745040 0.977665 0.868689
0.855380 0.969905 0.861030
0.961098 0.962034 0.853248
0.135863 0.141475 0.970630
0.264762 0.150306 0.971853
0.391087 0.156569 0.972990
0.515531 0.160954 0.974063
0.638510 0.163878 0.975087
0.760303 0.165616 0.976071
0.879924 0.166364 0.977022
0.976132 0.166039 0.977772
0.976071 0.163952 0.977717
0.156768 0.282171 0.974441
0.279289 0.284636 0.975449
0.400700 0.285994 0.976421
0.521177 0.286420 0.977360
0.640850 0.286043 0.978273
0.759821 0.284965 0.979163
0.876823 0.283266 0.980031
0.979461 0.280883 0.980782
0.979346 0.276893 0.980678
0.161146 0.406370 0.977696
0.280552 0.405727 0.978600
0.399288 0.404414 0.979481
0.517428 0.402507 0.980342
0.635032 0.400065 0.981186
0.752152 0.397139 0.982013
0.867551 0.393773 0.982825
0.980220 0.390001 0.983624
0.982444 0.384662 0.983503
0.156615 0.521677 0.980651
0.274037 0.519053 0.981489
0.390992 0.515962 0.982310
0.507518 0.512445 0.983117
0.623651 0.508534 0.983911
0.739421 0.504261 0.984693
0.853890 0.499651 0.985463
0.965004 0.494728 0.986223
0.985404 0.488525 0.986225
0.146154 0.631065 0.983408
0.262152 0.627019 0.984197
0.377796 0.622621 0.984975
0.493112 0.617894 0.985741
0.608120 0.612861 0.986497
0.722841 0.607541 0.987244
0.836898 0.601952 0.987981
0.946712 0.596109 0.988710
0.988252 0.589282 0.988867
0.131329 0.736096 0.986018
0.246231 0.730957 0.986770
0.360852 0.725537 0.987513
0.475209 0.719853 0.988248
0.589316 0.713921 0.988974
0.703188 0.707754 0.989692
0.816837 0.701364 0.990402
0.925960 0.694762 0.991105
0.991005 0.687482 0.991441
0.113091 0.837324 0.988513
0.227112 0.831698 0.989236
0.340901 0.825453 0.989951
0.454471 0.818984 0.990659
0.567833 0.812307 0.991360
0.680997 0.805433 0.992054
0.793971 0.798369 0.992742
0.903187 0.791125 0.993423
0.993676 0.783522 0.993958
0.092078 0.929602 0.990915
0.205367 0.923229 0.991613
0.318460 0.916688 0.992305
0.431367 0.909986 0.992991
0.544097 0.903131 0.993670
0.656655 0.896131 0.994344
0.769050 0.888992 0.995012
0.878710 0.881712 0.993136
0.985128 0.874286 0.985738
0.067697 0.992311 0.992478
0.180671 0.993240 0.993380
0.293483 0.994167 0.994280
0.406140 0.995090 0.995180
0.518402 0.990290 0.990459
0.630403 0.982726 0.983012
0.742259 0.975042 0.975435
0.852694 0.967244 0.967734
0.958337 0.959336 0.959911
