library/luts/cool_blue.cube
# CrabbyCut preset LUT — sinh bởi scripts/generate_preset_luts.js
TITLE "Lạnh xanh"
LUT_3D_SIZE 5
0.000000 0.000000 0.059993
0.214493 0.000000 0.059493
0.448994 0.000000 0.058994
0.683494 0.000000 0.058494
0.917994 0.000000 0.057994
0.000000 0.247500 0.058223
0.212723 0.247500 0.057723
0.447223 0.247500 0.057223
0.681724 0.247500 0.056724
0.916224 0.247500 0.056224
0.000000 0.495000 0.056453
0.210953 0.495000 0.055953
0.445453 0.495000 0.055453
0.679954 0.495000 0.054954
0.914454 0.495000 0.054454
0.000000 0.742500 0.054682
0.209183 0.742500 0.054183
0.443683 0.742500 0.053683
0.678184 0.742500 0.053184
0.912684 0.742500 0.052684
0.000000 0.990000 0.052912
0.207413 0.990000 0.052413
0.441913 0.990000 0.051913
0.676413 0.990000 0.051413
0.910914 0.990000 0.050914
0.000000 0.000000 0.329798
0.214298 0.000000 0.329298
0.448799 0.000000 0.328799
0.683299 0.000000 0.328299
0.917799 0.000000 0.327799
0.000000 0.247500 0.328028
0.212528 0.247500 0.327528
0.447028 0.247500 0.327029
0.681529 0.247500 0.326529
0.916029 0.247500 0.326029
0.000000 0.495000 0.326258
0.210758 0.495000 0.325758
0.445258 0.495000 0.325258
0.679759 0.495000 0.324759
0.914259 0.495000 0.324259
0.000000 0.742500 0.324487
0.208988 0.742500 0.323988
0.443488 0.742500 0.323488
0.677989 0.742500 0.322989
0.912489 0.742500 0.322489
0.000000 0.990000 0.322717
0.207218 0.990000 0.322218
0.441718 0.990000 0.321718
0.676219 0.990000 0.321219
0.910719 0.990000 0.320719
0.000000 0.000000 0.599603
0.214103 0.000000 0.599103
0.448604 0.000000 0.598604
0.683104 0.000000 0.598104
0.917604 0.000000 0.597604
0.000000 0.247500 0.597833
0.212333 0.247500 0.597333
0.446834 0.247500 0.596834
0.681334 0.247500 0.596334
0.915834 0.247500 0.595834
0.000000 0.495000 0.596063
0.210563 0.495000 0.595563
0.445063 0.495000 0.595063
0.679564 0.495000 0.594564
0.914064 0.495000 0.594064
0.000000 0.742500 0.594293
0.208793 0.742500 0.593793
0.443293 0.742500 0.593293
0.677794 0.742500 0.592794
0.912294 0.742500 0.592294
0.000000 0.990000 0.592522
0.207023 0.990000 0.592023
0.441523 0.990000 0.591523
0.676024 0.990000 0.591024
0.910524 0.990000 0.590524
0.000000 0.000000 0.869408
0.213908 0.000000 0.868908
0.448409 0.000000 0.868409
0.682909 0.000000 0.867909
0.917410 0.000000 0.867410
0.000000 0.247500 0.867638
0.212138 0.247500 0.867138
0.446639 0.247500 0.866639
0.681139 0.247500 0.866139
0.915639 0.247500 0.865639
0.000000 0.495000 0.865868
0.210368 0.495000 0.865368
0.444869 0.495000 0.864869
0.679369 0.495000 0.864369
0.913869 0.495000 0.863869
0.000000 0.742500 0.864098
0.208598 0.742500 0.863598
0.443098 0.742500 0.863098
0.677599 0.742500 0.862599
0.912099 0.742500 0.862099
0.000000 0.990000 0.862327
0.206828 0.990000 0.861828
0.441328 0.990000 0.861328
0.675829 0.990000 0.860829
0.910329 0.990000 0.860329
0.000000 0.000000 1.000000
0.213778 0.000000 1.000000
0.448279 0.000000 1.000000
0.682779 0.000000 1.000000
0.917280 0.000000 1.000000
0.000000 0.247500 1.000000
0.212008 0.247500 1.000000
0.446509 0.247500 1.000000
0.681009 0.247500 1.000000
0.915509 0.247500 1.000000
0.000000 0.495000 1.000000
0.210238 0.495000 1.000000
0.444739 0.495000 1.000000
0.679239 0.495000 1.000000
0.913739 0.495000 1.000000
0.000000 0.742500 1.000000
0.208468 0.742500 1.000000
0.442968 0.742500 1.000000
0.677469 0.742500 1.000000
0.911969 0.742500 1.000000
0.000000 0.990000 1.000000
0.206698 0.990000 1.000000
0.441198 0.990000 1.000000
0.675699 0.990000 1.000000
0.910199 0.990000 1.000000
