library/luts/cool_blue.cube
# CrabbyCut preset LUT — sinh bởi scripts/generate_preset_luts.js
TITLE "Lạnh xanh"
LUT_3D_SIZE 17
0.000000 0.000000 0.059993
0.038618 0.000000 0.059868
0.097243 0.000000 0.059743
0.155868 0.000000 0.059618
0.214493 0.000000 0.059493
0.273118 0.000000 0.059368
0.331743 0.000000 0.059243
0.390368 0.000000 0.059118
0.448994 0.000000 0.058994
0.507619 0.000000 0.058869
0.566244 0.000000 0.058744
0.624869 0.000000 0.058619
0.683494 0.000000 0.058494
0.742119 0.000000 0.058369
0.800744 0.000000 0.058244
0.859369 0.000000 0.058119
0.917994 0.000000 0.057994
0.000000 0.061875 0.059550
0.038175 0.061875 0.059425
0.096800 0.061875 0.059300
0.155426 0.061875 0.059176
0.214051 0.061875 0.059051
0.272676 0.061875 0.058926
0.331301 0.061875 0.058801
0.389926 0.061875 0.058676
0.448551 0.061875 0.058551
0.507176 0.061875 0.058426
0.565801 0.061875 0.058301
0.624426 0.061875 0.058176
0.683051 0.061875 0.058051
0.741677 0.061875 0.057927
0.800302 0.061875 0.057802
0.858927 0.061875 0.057677
0.917552 0.061875 0.057552
0.000000 0.123750 0.059108
0.037733 0.123750 0.058983
0.096358 0.123750 0.058858
0.154983 0.123750 0.058733
0.213608 0.123750 0.058608
0.272233 0.123750 0.058483
0.330858 0.123750 0.058358
0.389483 0.123750 0.058233
0.448108 0.123750 0.058109
0.506734 0.123750 0.057984
0.565359 0.123750 0.057859
0.623984 0.123750 0.057734
0.682609 0.123750 0.057609
0.741234 0.123750 0.057484
0.799859 0.123750 0.057359
0.858484 0.123750 0.057234
0.917109 0.123750 0.057109
0.000000 0.185625 0.058665
0.037290 0.185625 0.058540
0.095915 0.185625 0.058415
0.154540 0.185625 0.058290
0.213166 0.185625 0.058166
0.271791 0.185625 0.058041
0.330416 0.185625 0.057916
0.389041 0.185625 0.057791
0.447666 0.185625 0.057666
0.506291 0.185625 0.057541
0.564916 0.185625 0.057416
0.623541 0.185625 0.057291
0.682166 0.185625 0.057166
0.740791 0.185625 0.057041
0.799417 0.185625 0.056917
0.858042 0.185625 0.056792
0.916667 0.185625 0.056667
0.000000 0.247500 0.058223
0.036848 0.247500 0.058098
0.095473 0.247500 0.057973
0.154098 0.247500 0.057848
0.212723 0.247500 0.057723
0.271348 0.247500 0.057598
0.329973 0.247500 0.057473
0.388598 0.247500 0.057348
0.447223 0.247500 0.057223
0.505849 0.247500 0.057099
0.564474 0.247500 0.056974
0.623099 0.247500 0.056849
0.681724 0.247500 0.056724
0.740349 0.247500 0.056599
0.798974 0.247500 0.056474
0.857599 0.247500 0.056349
0.916224 0.247500 0.056224
0.000000 0.309375 0.057780
0.036405 0.309375 0.057655
0.095030 0.309375 0.057530
0.153655 0.309375 0.057405
0.212281 0.309375 0.057281
0.270906 0.309375 0.057156
0.329531 0.309375 0.057031
0.388156 0.309375 0.056906
0.446781 0.309375 0.056781
0.505406 0.309375 0.056656
0.564031 0.309375 0.056531
0.622656 0.309375 0.056406
0.681281 0.309375 0.056281
0.739906 0.309375 0.056156
0.798531 0.309375 0.056031
0.857157 0.309375 0.055907
0.915782 0.309375 0.055782
0.000000 0.371250 0.057338
0.035963 0.371250 0.057213
0.094588 0.371250 0.057088
0.153213 0.371250 0.056963
0.211838 0.371250 0.056838
0.270463 0.371250 0.056713
0.329088 0.371250 0.056588
0.387713 0.371250 0.056463
0.446338 0.371250 0.056338
0.504963 0.371250 0.056213
0.563589 0.371250 0.056089
0.622214 0.371250 0.055964
0.680839 0.371250 0.055839
0.739464 0.371250 0.055714
0.798089 0.371250 0.055589
0.856714 0.371250 0.055464
0.915339 0.371250 0.055339
0.000000 0.433125 0.056895
0.035520 0.433125 0.056770
0.094145 0.433125 0.056645
0.152770 0.433125 0.056520
0.211395 0.433125 0.056395
0.270021 0.433125 0.056271
0.328646 0.433125 0.056146
0.387271 0.433125 0.056021
0.445896 0.433125 0.055896
0.504521 0.433125 0.055771
0.563146 0.433125 0.055646
0.621771 0.433125 0.055521
0.680396 0.433125 0.055396
0.739021 0.433125 0.055271
0.797646 0.433125 0.055146
0.856272 0.433125 0.055022
0.914897 0.433125 0.054897
0.000000 0.495000 0.056453
0.035078 0.495000 0.056328
0.093703 0.495000 0.056203
0.152328 0.495000 0.056078
0.210953 0.495000 0.055953
0.269578 0.495000 0.055828
0.328203 0.495000 0.055703
0.386828 0.495000 0.055578
0.445453 0.495000 0.055453
0.504078 0.495000 0.055328
0.562704 0.495000 0.055204
0.621329 0.495000 0.055079
0.679954 0.495000 0.054954
0.738579 0.495000 0.054829
0.797204 0.495000 0.054704
0.855829 0.495000 0.054579
0.914454 0.495000 0.054454
0.000000 0.556875 0.056010
0.034635 0.556875 0.055885
0.093260 0.556875 0.055760
0.151885 0.556875 0.055635
0.210510 0.556875 0.055510
0.269135 0.556875 0.055385
0.327761 0.556875 0.055261
0.386386 0.556875 0.055136
0.445011 0.556875 0.055011
0.503636 0.556875 0.054886
0.562261 0.556875 0.054761
0.620886 0.556875 0.054636
0.679511 0.556875 0.054511
0.738136 0.556875 0.054386
0.796761 0.556875 0.054261
0.855386 0.556875 0.054136
0.914012 0.556875 0.054012
0.000000 0.618750 0.055567
0.034193 0.618750 0.055443
0.092818 0.618750 0.055318
0.151443 0.618750 0.055193
0.210068 0.618750 0.055068
0.268693 0.618750 0.054943
0.327318 0.618750 0.054818
0.385943 0.618750 0.054693
0.444568 0.618750 0.054568
0.503193 0.618750 0.054443
0.561818 0.618750 0.054318
0.620444 0.618750 0.054194
0.679069 0.618750 0.054069
0.737694 0.618750 0.053944
0.796319 0.618750 0.053819
0.854944 0.618750 0.053694
0.913569 0.618750 0.053569
0.000000 0.680625 0.055125
0.033750 0.680625 0.055000
0.092375 0.680625 0.054875
0.151000 0.680625 0.054750
0.209625 0.680625 0.054625
0.268250 0.680625 0.054500
0.326876 0.680625 0.054376
0.385501 0.680625 0.054251
0.444126 0.680625 0.054126
0.502751 0.680625 0.054001
0.561376 0.680625 0.053876
0.620001 0.680625 0.053751
0.678626 0.680625 0.053626
0.737251 0.680625 0.053501
0.795876 0.680625 0.053376
0.854501 0.680625 0.053251
0.913127 0.680625 0.053127
0.000000 0.742500 0.054682
0.033308 0.742500 0.054558
0.091933 0.742500 0.054433
0.150558 0.742500 0.054308
0.209183 0.742500 0.054183
0.267808 0.742500 0.054058
0.326433 0.742500 0.053933
0.385058 0.742500 0.053808
0.443683 0.742500 0.053683
0.502308 0.742500 0.053558
0.560933 0.742500 0.053433
0.619558 0.742500 0.053308
0.678184 0.742500 0.053184
0.736809 0.742500 0.053059
0.795434 0.742500 0.052934
0.854059 0.742500 0.052809
0.912684 0.742500 0.052684
0.000000 0.804375 0.054240
0.032865 0.804375 0.054115
0.091490 0.804375 0.053990
0.150115 0.804375 0.053865
0.208740 0.804375 0.053740
0.267365 0.804375 0.053615
0.325990 0.804375 0.053490
0.384616 0.804375 0.053366
0.443241 0.804375 0.053241
0.501866 0.804375 0.053116
0.560491 0.804375 0.052991
0.619116 0.804375 0.052866
0.677741 0.804375 0.052741
0.736366 0.804375 0.052616
0.794991 0.804375 0.052491
0.853616 0.804375 0.052366
0.912241 0.804375 0.052241
0.000000 0.866250 0.053797
0.032422 0.866250 0.053672
0.091048 0.866250 0.053548
0.149673 0.866250 0.053423
0.208298 0.866250 0.053298
0.266923 0.866250 0.053173
0.325548 0.866250 0.053048
0.384173 0.866250 0.052923
0.442798 0.866250 0.052798
0.501423 0.866250 0.052673
0.560048 0.866250 0.052548
0.618673 0.866250 0.052423
0.677299 0.866250 0.052299
0.735924 0.866250 0.052174
0.794549 0.866250 0.052049
0.853174 0.866250 0.051924
0.911799 0.866250 0.051799
0.000000 0.928125 0.053355
0.031980 0.928125 0.053230
0.090605 0.928125 0.053105
0.149230 0.928125 0.052980
0.207855 0.928125 0.052855
0.266480 0.928125 0.052730
0.325105 0.928125 0.052605
0.383731 0.928125 0.052481
0.442356 0.928125 0.052356
0.500981 0.928125 0.052231
0.559606 0.928125 0.052106
0.618231 0.928125 0.051981
0.676856 0.928125 0.051856
0.735481 0.928125 0.051731
0.794106 0.928125 0.051606
0.852731 0.928125 0.051481
0.911356 0.928125 0.051356
0.000000 0.990000 0.052912
0.031537 0.990000 0.052787
0.090162 0.990000 0.052662
0.148788 0.990000 0.052538
0.207413 0.990000 0.052413
0.266038 0.990000 0.052288
0.324663 0.990000 0.052163
0.383288 0.990000 0.052038
0.441913 0.990000 0.051913
0.500538 0.990000 0.051788
0.559163 0.990000 0.051663
0.617788 0.990000 0.051538
0.676413 0.990000 0.051413
0.735039 0.990000 0.051289
0.793664 0.990000 0.051164
0.852289 0.990000 0.051039
0.910914 0.990000 0.050914
0.000000 0.000000 0.127444
0.038569 0.000000 0.127319
0.097194 0.000000 0.127194
0.155819 0.000000 0.127069
0.214444 0.000000 0.126944
0.273070 0.000000 0.126820
0.331695 0.000000 0.126695
0.390320 0.000000 0.126570
0.448945 0.000000 0.126445
0.507570 0.000000 0.126320
0.566195 0.000000 0.126195
0.624820 0.000000 0.126070
0.683445 0.000000 0.125945
0.742070 0.000000 0.125820
0.800695 0.000000 0.125695
0.859321 0.000000 0.125571
0.917946 0.000000 0.125446
0.000000 0.061875 0.127002
0.038127 0.061875 0.126877
0.096752 0.061875 0.126752
0.155377 0.061875 0.126627
0.214002 0.061875 0.126502
0.272627 0.061875 0.126377
0.331252 0.061875 0.126252
0.389877 0.061875 0.126127
0.448502 0.061875 0.126002
0.507127 0.061875 0.125877
0.565752 0.061875 0.125752
0.624378 0.061875 0.125628
0.683003 0.061875 0.125503
0.741628 0.061875 0.125378
0.800253 0.061875 0.125253
0.858878 0.061875 0.125128
0.917503 0.061875 0.125003
0.000000 0.123750 0.126559
0.037684 0.123750 0.126434
0.096309 0.123750 0.126309
0.154934 0.123750 0.126184
0.213559 0.123750 0.126059
0.272184 0.123750 0.125934
0.330810 0.123750 0.125810
0.389435 0.123750 0.125685
0.448060 0.123750 0.125560
0.506685 0.123750 0.125435
0.565310 0.123750 0.125310
0.623935 0.123750 0.125185
0.682560 0.123750 0.125060
0.741185 0.123750 0.124935
0.799810 0.123750 0.124810
0.858435 0.123750 0.124685
0.917061 0.123750 0.124561
0.000000 0.185625 0.126116
0.037242 0.185625 0.125992
0.095867 0.185625 0.125867
0.154492 0.185625 0.125742
0.213117 0.185625 0.125617
0.271742 0.185625 0.125492
0.330367 0.185625 0.125367
0.388992 0.185625 0.125242
0.447617 0.185625 0.125117
0.506242 0.185625 0.124992
0.564867 0.185625 0.124867
0.623493 0.185625 0.124743
0.682118 0.185625 0.124618
0.740743 0.185625 0.124493
0.799368 0.185625 0.124368
0.857993 0.185625 0.124243
0.916618 0.185625 0.124118
0.000000 0.247500 0.125674
0.036799 0.247500 0.125549
0.095424 0.247500 0.125424
0.154049 0.247500 0.125299
0.212674 0.247500 0.125174
0.271299 0.247500 0.125049
0.329925 0.247500 0.124925
0.388550 0.247500 0.124800
0.447175 0.247500 0.124675
0.505800 0.247500 0.124550
0.564425 0.247500 0.124425
0.623050 0.247500 0.124300
0.681675 0.247500 0.124175
0.740300 0.247500 0.124050
0.798925 0.247500 0.123925
0.857550 0.247500 0.123800
0.916175 0.247500 0.123675
0.000000 0.309375 0.125231
0.036356 0.309375 0.125106
0.094982 0.309375 0.124982
0.153607 0.309375 0.124857
0.212232 0.309375 0.124732
0.270857 0.309375 0.124607
0.329482 0.309375 0.124482
0.388107 0.309375 0.124357
0.446732 0.309375 0.124232
0.505357 0.309375 0.124107
0.563982 0.309375 0.123982
0.622607 0.309375 0.123857
0.681233 0.309375 0.123733
0.739858 0.309375 0.123608
0.798483 0.309375 0.123483
0.857108 0.309375 0.123358
0.915733 0.309375 0.123233
0.000000 0.371250 0.124789
0.035914 0.371250 0.124664
0.094539 0.371250 0.124539
0.153164 0.371250 0.124414
0.211789 0.371250 0.124289
0.270414 0.371250 0.124164
0.329039 0.371250 0.124039
0.387665 0.371250 0.123915
0.446290 0.371250 0.123790
0.504915 0.371250 0.123665
0.563540 0.371250 0.123540
0.622165 0.371250 0.123415
0.680790 0.371250 0.123290
0.739415 0.371250 0.123165
0.798040 0.371250 0.123040
0.856665 0.371250 0.122915
0.915290 0.371250 0.122790
0.000000 0.433125 0.124346
0.035471 0.433125 0.124221
0.094097 0.433125 0.124097
0.152722 0.433125 0.123972
0.211347 0.433125 0.123847
0.269972 0.433125 0.123722
0.328597 0.433125 0.123597
0.387222 0.433125 0.123472
0.445847 0.433125 0.123347
0.504472 0.433125 0.123222
0.563097 0.433125 0.123097
0.621722 0.433125 0.122972
0.680348 0.433125 0.122848
0.738973 0.433125 0.122723
0.797598 0.433125 0.122598
0.856223 0.433125 0.122473
0.914848 0.433125 0.122348
0.000000 0.495000 0.123904
0.035029 0.495000 0.123779
0.093654 0.495000 0.123654
0.152279 0.495000 0.123529
0.210904 0.495000 0.123404
0.269529 0.495000 0.123279
0.328154 0.495000 0.123154
0.386779 0.495000 0.123029
0.445405 0.495000 0.122905
0.504030 0.495000 0.122780
0.562655 0.495000 0.122655
0.621280 0.495000 0.122530
0.679905 0.495000 0.122405
0.738530 0.495000 0.122280
0.797155 0.495000 0.122155
0.855780 0.495000 0.122030
0.914405 0.495000 0.121905
0.000000 0.556875 0.123461
0.034586 0.556875 0.123336
0.093211 0.556875 0.123211
0.151837 0.556875 0.123087
0.210462 0.556875 0.122962
0.269087 0.556875 0.122837
0.327712 0.556875 0.122712
0.386337 0.556875 0.122587
0.444962 0.556875 0.122462
0.503587 0.556875 0.122337
0.562212 0.556875 0.122212
0.620837 0.556875 0.122087
0.679462 0.556875 0.121962
0.738088 0.556875 0.121838
0.796713 0.556875 0.121713
0.855338 0.556875 0.121588
0.913963 0.556875 0.121463
0.000000 0.618750 0.123019
0.034144 0.618750 0.122894
0.092769 0.618750 0.122769
0.151394 0.618750 0.122644
0.210019 0.618750 0.122519
0.268644 0.618750 0.122394
0.327269 0.618750 0.122269
0.385894 0.618750 0.122144
0.444520 0.618750 0.122020
0.503145 0.618750 0.121895
0.561770 0.618750 0.121770
0.620395 0.618750 0.121645
0.679020 0.618750 0.121520
0.737645 0.618750 0.121395
0.796270 0.618750 0.121270
0.854895 0.618750 0.121145
0.913520 0.618750 0.121020
0.000000 0.680625 0.122576
0.033701 0.680625 0.122451
0.092326 0.680625 0.122326
0.150952 0.680625 0.122202
0.209577 0.680625 0.122077
0.268202 0.680625 0.121952
0.326827 0.680625 0.121827
0.385452 0.680625 0.121702
0.444077 0.680625 0.121577
0.502702 0.680625 0.121452
0.561327 0.680625 0.121327
0.619952 0.680625 0.121202
0.678577 0.680625 0.121077
0.737202 0.680625 0.120952
0.795828 0.680625 0.120828
0.854453 0.680625 0.120703
0.913078 0.680625 0.120578
0.000000 0.742500 0.122134
0.033259 0.742500 0.122009
0.091884 0.742500 0.121884
0.150509 0.742500 0.121759
0.209134 0.742500 0.121634
0.267759 0.742500 0.121509
0.326384 0.742500 0.121384
0.385009 0.742500 0.121259
0.443634 0.742500 0.121134
0.502260 0.742500 0.121010
0.560885 0.742500 0.120885
0.619510 0.742500 0.120760
0.678135 0.742500 0.120635
0.736760 0.742500 0.120510
0.795385 0.742500 0.120385
0.854010 0.742500 0.120260
0.912635 0.742500 0.120135
0.000000 0.804375 0.121691
0.032816 0.804375 0.121566
0.091441 0.804375 0.121441
0.150066 0.804375 0.121316
0.208692 0.804375 0.121192
0.267317 0.804375 0.121067
0.325942 0.804375 0.120942
0.384567 0.804375 0.120817
0.443192 0.804375 0.120692
0.501817 0.804375 0.120567
0.560442 0.804375 0.120442
0.619067 0.804375 0.120317
0.677692 0.804375 0.120192
0.736317 0.804375 0.120067
0.794943 0.804375 0.119943
0.853568 0.804375 0.119818
0.912193 0.804375 0.119693
0.000000 0.866250 0.121249
0.032374 0.866250 0.121124
0.090999 0.866250 0.120999
0.149624 0.866250 0.120874
0.208249 0.866250 0.120749
0.266874 0.866250 0.120624
0.325499 0.866250 0.120499
0.384124 0.866250 0.120374
0.442749 0.866250 0.120249
0.501375 0.866250 0.120125
0.560000 0.866250 0.120000
0.618625 0.866250 0.119875
0.677250 0.866250 0.119750
0.735875 0.866250 0.119625
0.794500 0.866250 0.119500
0.853125 0.866250 0.119375
0.911750 0.866250 0.119250
0.000000 0.928125 0.120806
0.031931 0.928125 0.120681
0.090556 0.928125 0.120556
0.149181 0.928125 0.120431
0.207806 0.928125 0.120306
0.266432 0.928125 0.120182
0.325057 0.928125 0.120057
0.383682 0.928125 0.119932
0.442307 0.928125 0.119807
0.500932 0.928125 0.119682
0.559557 0.928125 0.119557
0.618182 0.928125 0.119432
0.676807 0.928125 0.119307
0.735432 0.928125 0.119182
0.794057 0.928125 0.119057
0.852683 0.928125 0.118933
0.911308 0.928125 0.118808
0.000000 0.990000 0.120364
0.031489 0.990000 0.120239
0.090114 0.990000 0.120114
0.148739 0.990000 0.119989
0.207364 0.990000 0.119864
0.265989 0.990000 0.119739
0.324614 0.990000 0.119614
0.383239 0.990000 0.119489
0.441864 0.990000 0.119364
0.500489 0.990000 0.119239
0.559115 0.990000 0.119115
0.617740 0.990000 0.118990
0.676365 0.990000 0.118865
0.734990 0.990000 0.118740
0.793615 0.990000 0.118615
0.852240 0.990000 0.118490
0.910865 0.990000 0.118365
0.000000 0.000000 0.194895
0.038520 0.000000 0.194770
0.097146 0.000000 0.194646
0.155771 0.000000 0.194521
0.214396 0.000000 0.194396
0.273021 0.000000 0.194271
0.331646 0.000000 0.194146
0.390271 0.000000 0.194021
0.448896 0.000000 0.193896
0.507521 0.000000 0.193771
0.566146 0.000000 0.193646
0.624771 0.000000 0.193521
0.683396 0.000000 0.193396
0.742022 0.000000 0.193272
0.800647 0.000000 0.193147
0.859272 0.000000 0.193022
0.917897 0.000000 0.192897
0.000000 0.061875 0.194453
0.038078 0.061875 0.194328
0.096703 0.061875 0.194203
0.155328 0.061875 0.194078
0.213953 0.061875 0.193953
0.272578 0.061875 0.193828
0.331203 0.061875 0.193703
0.389828 0.061875 0.193578
0.448454 0.061875 0.193454
0.507079 0.061875 0.193329
0.565704 0.061875 0.193204
0.624329 0.061875 0.193079
0.682954 0.061875 0.192954
0.741579 0.061875 0.192829
0.800204 0.061875 0.192704
0.858829 0.061875 0.192579
0.917454 0.061875 0.192454
0.000000 0.123750 0.194010
0.037635 0.123750 0.193885
0.096260 0.123750 0.193760
0.154886 0.123750 0.193636
0.213511 0.123750 0.193511
0.272136 0.123750 0.193386
0.330761 0.123750 0.193261
0.389386 0.123750 0.193136
0.448011 0.123750 0.193011
0.506636 0.123750 0.192886
0.565261 0.123750 0.192761
0.623886 0.123750 0.192636
0.682511 0.123750 0.192511
0.741137 0.123750 0.192387
0.799762 0.123750 0.192262
0.858387 0.123750 0.192137
0.917012 0.123750 0.192012
0.000000 0.185625 0.193568
0.037193 0.185625 0.193443
0.095818 0.185625 0.193318
0.154443 0.185625 0.193193
0.213068 0.185625 0.193068
0.271693 0.185625 0.192943
0.330318 0.185625 0.192818
0.388943 0.185625 0.192693
0.447568 0.185625 0.192569
0.506194 0.185625 0.192444
0.564819 0.185625 0.192319
0.623444 0.185625 0.192194
0.682069 0.185625 0.192069
0.740694 0.185625 0.191944
0.799319 0.185625 0.191819
0.857944 0.185625 0.191694
0.916569 0.185625 0.191569
0.000000 0.247500 0.193125
0.036750 0.247500 0.193000
0.095375 0.247500 0.192875
0.154000 0.247500 0.192750
0.212626 0.247500 0.192626
0.271251 0.247500 0.192501
0.329876 0.247500 0.192376
0.388501 0.247500 0.192251
0.447126 0.247500 0.192126
0.505751 0.247500 0.192001
0.564376 0.247500 0.191876
0.623001 0.247500 0.191751
0.681626 0.247500 0.191626
0.740251 0.247500 0.191501
0.798877 0.247500 0.191377
0.857502 0.247500 0.191252
0.916127 0.247500 0.191127
0.000000 0.309375 0.192683
0.036308 0.309375 0.192558
0.094933 0.309375 0.192433
0.153558 0.309375 0.192308
0.212183 0.309375 0.192183
0.270808 0.309375 0.192058
0.329433 0.309375 0.191933
0.388058 0.309375 0.191808
0.446683 0.309375 0.191683
0.505309 0.309375 0.191559
0.563934 0.309375 0.191434
0.622559 0.309375 0.191309
0.681184 0.309375 0.191184
0.739809 0.309375 0.191059
0.798434 0.309375 0.190934
0.857059 0.309375 0.190809
0.915684 0.309375 0.190684
0.000000 0.371250 0.192240
0.035865 0.371250 0.192115
0.094490 0.371250 0.191990
0.153115 0.371250 0.191865
0.211741 0.371250 0.191741
0.270366 0.371250 0.191616
0.328991 0.371250 0.191491
0.387616 0.371250 0.191366
0.446241 0.371250 0.191241
0.504866 0.371250 0.191116
0.563491 0.371250 0.190991
0.622116 0.371250 0.190866
0.680741 0.371250 0.190741
0.739366 0.371250 0.190616
0.797991 0.371250 0.190491
0.856617 0.371250 0.190367
0.915242 0.371250 0.190242
0.000000 0.433125 0.191798
0.035423 0.433125 0.191673
0.094048 0.433125 0.191548
0.152673 0.433125 0.191423
0.211298 0.433125 0.191298
0.269923 0.433125 0.191173
0.328548 0.433125 0.191048
0.387173 0.433125 0.190923
0.445798 0.433125 0.190798
0.504423 0.433125 0.190673
0.563049 0.433125 0.190549
0.621674 0.433125 0.190424
0.680299 0.433125 0.190299
0.738924 0.433125 0.190174
0.797549 0.433125 0.190049
0.856174 0.433125 0.189924
0.914799 0.433125 0.189799
0.000000 0.495000 0.191355
0.034980 0.495000 0.191230
0.093605 0.495000 0.191105
0.152230 0.495000 0.190980
0.210855 0.495000 0.190855
0.269481 0.495000 0.190731
0.328106 0.495000 0.190606
0.386731 0.495000 0.190481
0.445356 0.495000 0.190356
0.503981 0.495000 0.190231
0.562606 0.495000 0.190106
0.621231 0.495000 0.189981
0.679856 0.495000 0.189856
0.738481 0.495000 0.189731
0.797106 0.495000 0.189606
0.855732 0.495000 0.189482
0.914357 0.495000 0.189357
0.000000 0.556875 0.190913
0.034538 0.556875 0.190788
0.093163 0.556875 0.190663
0.151788 0.556875 0.190538
0.210413 0.556875 0.190413
0.269038 0.556875 0.190288
0.327663 0.556875 0.190163
0.386288 0.556875 0.190038
0.444913 0.556875 0.189913
0.503538 0.556875 0.189788
0.562164 0.556875 0.189664
0.620789 0.556875 0.189539
0.679414 0.556875 0.189414
0.738039 0.556875 0.189289
0.796664 0.556875 0.189164
0.855289 0.556875 0.189039
0.913914 0.556875 0.188914
0.000000 0.618750 0.190470
0.034095 0.618750 0.190345
0.092720 0.618750 0.190220
0.151345 0.618750 0.190095
0.209970 0.618750 0.189970
0.268595 0.618750 0.189845
0.327221 0.618750 0.189721
0.385846 0.618750 0.189596
0.444471 0.618750 0.189471
0.503096 0.618750 0.189346
0.561721 0.618750 0.189221
0.620346 0.618750 0.189096
0.678971 0.618750 0.188971
0.737596 0.618750 0.188846
0.796221 0.618750 0.188721
0.854846 0.618750 0.188596
0.913472 0.618750 0.188472
0.000000 0.680625 0.190027
0.033653 0.680625 0.189903
0.092278 0.680625 0.189778
0.150903 0.680625 0.189653
0.209528 0.680625 0.189528
0.268153 0.680625 0.189403
0.326778 0.680625 0.189278
0.385403 0.680625 0.189153
0.444028 0.680625 0.189028
0.502653 0.680625 0.188903
0.561278 0.680625 0.188778
0.619904 0.680625 0.188654
0.678529 0.680625 0.188529
0.737154 0.680625 0.188404
0.795779 0.680625 0.188279
0.854404 0.680625 0.188154
0.913029 0.680625 0.188029
0.000000 0.742500 0.189585
0.033210 0.742500 0.189460
0.091835 0.742500 0.189335
0.150460 0.742500 0.189210
0.209085 0.742500 0.189085
0.267710 0.742500 0.188960
0.326336 0.742500 0.188836
0.384961 0.742500 0.188711
0.443586 0.742500 0.188586
0.502211 0.742500 0.188461
0.560836 0.742500 0.188336
0.619461 0.742500 0.188211
0.678086 0.742500 0.188086
0.736711 0.742500 0.187961
0.795336 0.742500 0.187836
0.853961 0.742500 0.187711
0.912587 0.742500 0.187587
0.000000 0.804375 0.189142
0.032768 0.804375 0.189018
0.091393 0.804375 0.188893
0.150018 0.804375 0.188768
0.208643 0.804375 0.188643
0.267268 0.804375 0.188518
0.325893 0.804375 0.188393
0.384518 0.804375 0.188268
0.443143 0.804375 0.188143
0.501768 0.804375 0.188018
0.560393 0.804375 0.187893
0.619018 0.804375 0.187768
0.677644 0.804375 0.187644
0.736269 0.804375 0.187519
0.794894 0.804375 0.187394
0.853519 0.804375 0.187269
0.912144 0.804375 0.187144
0.000000 0.866250 0.188700
0.032325 0.866250 0.188575
0.090950 0.866250 0.188450
0.149575 0.866250 0.188325
0.208200 0.866250 0.188200
0.266825 0.866250 0.188075
0.325450 0.866250 0.187950
0.384076 0.866250 0.187826
0.442701 0.866250 0.187701
0.501326 0.866250 0.187576
0.559951 0.866250 0.187451
0.618576 0.866250 0.187326
0.677201 0.866250 0.187201
0.735826 0.866250 0.187076
0.794451 0.866250 0.186951
0.853076 0.866250 0.186826
0.911701 0.866250 0.186701
0.000000 0.928125 0.188257
0.031882 0.928125 0.188132
0.090508 0.928125 0.188008
0.149133 0.928125 0.187883
0.207758 0.928125 0.187758
0.266383 0.928125 0.187633
0.325008 0.928125 0.187508
0.383633 0.928125 0.187383
0.442258 0.928125 0.187258
0.500883 0.928125 0.187133
0.559508 0.928125 0.187008
0.618133 0.928125 0.186883
0.676759 0.928125 0.186759
0.735384 0.928125 0.186634
0.794009 0.928125 0.186509
0.852634 0.928125 0.186384
0.911259 0.928125 0.186259
0.000000 0.990000 0.187815
0.031440 0.990000 0.187690
0.090065 0.990000 0.187565
0.148690 0.990000 0.187440
0.207315 0.990000 0.187315
0.265940 0.990000 0.187190
0.324565 0.990000 0.187065
0.383191 0.990000 0.186941
0.441816 0.990000 0.186816
0.500441 0.990000 0.186691
0.559066 0.990000 0.186566
0.617691 0.990000 0.186441
0.676316 0.990000 0.186316
0.734941 0.990000 0.186191
0.793566 0.990000 0.186066
0.852191 0.990000 0.185941
0.910816 0.990000 0.185816
0.000000 0.000000 0.262347
0.038472 0.000000 0.262222
0.097097 0.000000 0.262097
0.155722 0.000000 0.261972
0.214347 0.000000 0.261847
0.272972 0.000000 0.261722
0.331597 0.000000 0.261597
0.390222 0.000000 0.261472
0.448847 0.000000 0.261347
0.507472 0.000000 0.261222
0.566098 0.000000 0.261098
0.624723 0.000000 0.260973
0.683348 0.000000 0.260848
0.741973 0.000000 0.260723
0.800598 0.000000 0.260598
0.859223 0.000000 0.260473
0.917848 0.000000 0.260348
0.000000 0.061875 0.261904
