library/luts/cool_blue.cube
# CrabbyCut preset LUT — sinh bởi scripts/generate_preset_luts.js
TITLE "Lạnh xanh"
LUT_3D_SIZE 9
0.000000 0.000000 0.059993
0.097243 0.000000 0.059743
0.214493 0.000000 0.059493
0.331743 0.000000 0.059243
0.448994 0.000000 0.058994
0.566244 0.000000 0.058744
0.683494 0.000000 0.058494
0.800744 0.000000 0.058244
0.917994 0.000000 0.057994
0.000000 0.123750 0.059108
0.096358 0.123750 0.058858
0.213608 0.123750 0.058608
0.330858 0.123750 0.058358
0.448108 0.123750 0.058109
0.565359 0.123750 0.057859
0.682609 0.123750 0.057609
0.799859 0.123750 0.057359
0.917109 0.123750 0.057109
0.000000 0.247500 0.058223
0.095473 0.247500 0.057973
0.212723 0.247500 0.057723
0.329973 0.247500 0.057473
0.447223 0.247500 0.057223
0.564474 0.247500 0.056974
0.681724 0.247500 0.056724
0.798974 0.247500 0.056474
0.916224 0.247500 0.056224
0.000000 0.371250 0.057338
0.094588 0.371250 0.057088
0.211838 0.371250 0.056838
0.329088 0.371250 0.056588
0.446338 0.371250 0.056338
0.563589 0.371250 0.056089
0.680839 0.371250 0.055839
0.798089 0.371250 0.055589
0.915339 0.371250 0.055339
0.000000 0.495000 0.056453
0.093703 0.495000 0.056203
0.210953 0.495000 0.055953
0.328203 0.495000 0.055703
0.445453 0.495000 0.055453
0.562704 0.495000 0.055204
0.679954 0.495000 0.054954
0.797204 0.495000 0.054704
0.914454 0.495000 0.054454
0.000000 0.618750 0.055567
0.092818 0.618750 0.055318
0.210068 0.618750 0.055068
0.327318 0.618750 0.054818
0.444568 0.618750 0.054568
0.561818 0.618750 0.054318
0.679069 0.618750 0.054069
0.796319 0.618750 0.053819
0.913569 0.618750 0.053569
0.000000 0.742500 0.054682
0.091933 0.742500 0.054433
0.209183 0.742500 0.054183
0.326433 0.742500 0.053933
0.443683 0.742500 0.053683
0.560933 0.742500 0.053433
0.678184 0.742500 0.053184
0.795434 0.742500 0.052934
0.912684 0.742500 0.052684
0.000000 0.866250 0.053797
0.091048 0.866250 0.053548
0.208298 0.866250 0.053298
0.325548 0.866250 0.053048
0.442798 0.866250 0.052798
0.560048 0.866250 0.052548
0.677299 0.866250 0.052299
0.794549 0.866250 0.052049
0.911799 0.866250 0.051799
0.000000 0.990000 0.052912
0.090162 0.990000 0.052662
0.207413 0.990000 0.052413
0.324663 0.990000 0.052163
0.441913 0.990000 0.051913
0.559163 0.990000 0.051663
0.676413 0.990000 0.051413
0.793664 0.990000 0.051164
0.910914 0.990000 0.050914
0.000000 0.000000 0.194895
0.097146 0.000000 0.194646
0.214396 0.000000 0.194396
0.331646 0.000000 0.194146
0.448896 0.000000 0.193896
0.566146 0.000000 0.193646
0.683396 0.000000 0.193396
0.800647 0.000000 0.193147
0.917897 0.000000 0.192897
0.000000 0.123750 0.194010
0.096260 0.123750 0.193760
0.213511 0.123750 0.193511
0.330761 0.123750 0.193261
0.448011 0.123750 0.193011
0.565261 0.123750 0.192761
0.682511 0.123750 0.192511
0.799762 0.123750 0.192262
0.917012 0.123750 0.192012
0.000000 0.247500 0.193125
0.095375 0.247500 0.192875
0.212626 0.247500 0.192626
0.329876 0.247500 0.192376
0.447126 0.247500 0.192126
0.564376 0.247500 0.191876
0.681626 0.247500 0.191626
0.798877 0.247500 0.191377
0.916127 0.247500 0.191127
0.000000 0.371250 0.192240
0.094490 0.371250 0.191990
0.211741 0.371250 0.191741
0.328991 0.371250 0.191491
0.446241 0.371250 0.191241
0.563491 0.371250 0.190991
0.680741 0.371250 0.190741
0.797991 0.371250 0.190491
0.915242 0.371250 0.190242
0.000000 0.495000 0.191355
0.093605 0.495000 0.191105
0.210855 0.495000 0.190855
0.328106 0.495000 0.190606
0.445356 0.495000 0.190356
0.562606 0.495000 0.190106
0.679856 0.495000 0.189856
0.797106 0.495000 0.189606
0.914357 0.495000 0.189357
0.000000 0.618750 0.190470
0.092720 0.618750 0.190220
0.209970 0.618750 0.189970
0.327221 0.618750 0.189721
0.444471 0.618750 0.189471
0.561721 0.618750 0.189221
0.678971 0.618750 0.188971
0.796221 0.618750 0.188721
0.913472 0.618750 0.188472
0.000000 0.742500 0.189585
0.091835 0.742500 0.189335
0.209085 0.742500 0.189085
0.326336 0.742500 0.188836
0.443586 0.742500 0.188586
0.560836 0.742500 0.188336
0.678086 0.742500 0.188086
0.795336 0.742500 0.187836
0.912587 0.742500 0.187587
0.000000 0.866250 0.188700
0.090950 0.866250 0.188450
0.208200 0.866250 0.188200
0.325450 0.866250 0.187950
0.442701 0.866250 0.187701
0.559951 0.866250 0.187451
0.677201 0.866250 0.187201
0.794451 0.866250 0.186951
0.911701 0.866250 0.186701
0.000000 0.990000 0.187815
0.090065 0.990000 0.187565
0.207315 0.990000 0.187315
0.324565 0.990000 0.187065
0.441816 0.990000 0.186816
0.559066 0.990000 0.186566
0.676316 0.990000 0.186316
0.793566 0.990000 0.186066
0.910816 0.990000 0.185816
0.000000 0.000000 0.329798
0.097048 0.000000 0.329548
0.214298 0.000000 0.329298
0.331548 0.000000 0.329048
0.448799 0.000000 0.328799
0.566049 0.000000 0.328549
0.683299 0.000000 0.328299
0.800549 0.000000 0.328049
0.917799 0.000000 0.327799
0.000000 0.123750 0.328913
0.096163 0.123750 0.328663
0.213413 0.123750 0.328413
0.330663 0.123750 0.328163
0.447914 0.123750 0.327914
0.565164 0.123750 0.327664
0.682414 0.123750 0.327414
0.799664 0.123750 0.327164
0.916914 0.123750 0.326914
0.000000 0.247500 0.328028
0.095278 0.247500 0.327778
0.212528 0.247500 0.327528
0.329778 0.247500 0.327278
0.447028 0.247500 0.327029
0.564279 0.247500 0.326779
0.681529 0.247500 0.326529
0.798779 0.247500 0.326279
0.916029 0.247500 0.326029
0.000000 0.371250 0.327143
0.094393 0.371250 0.326893
0.211643 0.371250 0.326643
0.328893 0.371250 0.326393
0.446143 0.371250 0.326143
0.563394 0.371250 0.325894
0.680644 0.371250 0.325644
0.797894 0.371250 0.325394
0.915144 0.371250 0.325144
0.000000 0.495000 0.326258
0.093508 0.495000 0.326008
0.210758 0.495000 0.325758
0.328008 0.495000 0.325508
0.445258 0.495000 0.325258
0.562509 0.495000 0.325009
0.679759 0.495000 0.324759
0.797009 0.495000 0.324509
0.914259 0.495000 0.324259
0.000000 0.618750 0.325373
0.092623 0.618750 0.325123
0.209873 0.618750 0.324873
0.327123 0.618750 0.324623
0.444373 0.618750 0.324373
0.561624 0.618750 0.324124
0.678874 0.618750 0.323874
0.796124 0.618750 0.323624
0.913374 0.618750 0.323374
0.000000 0.742500 0.324487
0.091738 0.742500 0.324238
0.208988 0.742500 0.323988
0.326238 0.742500 0.323738
0.443488 0.742500 0.323488
0.560738 0.742500 0.323238
0.677989 0.742500 0.322989
0.795239 0.742500 0.322739
0.912489 0.742500 0.322489
0.000000 0.866250 0.323602
0.090853 0.866250 0.323353
0.208103 0.866250 0.323103
0.325353 0.866250 0.322853
0.442603 0.866250 0.322603
0.559853 0.866250 0.322353
0.677104 0.866250 0.322104
0.794354 0.866250 0.321854
0.911604 0.866250 0.321604
0.000000 0.990000 0.322717
0.089968 0.990000 0.322468
0.207218 0.990000 0.322218
0.324468 0.990000 0.321968
0.441718 0.990000 0.321718
0.558968 0.990000 0.321468
0.676219 0.990000 0.321219
0.793469 0.990000 0.320969
0.910719 0.990000 0.320719
0.000000 0.000000 0.464700
0.096951 0.000000 0.464451
0.214201 0.000000 0.464201
0.331451 0.000000 0.463951
0.448701 0.000000 0.463701
0.565951 0.000000 0.463451
0.683202 0.000000 0.463202
0.800452 0.000000 0.462952
0.917702 0.000000 0.462702
0.000000 0.123750 0.463815
0.096066 0.123750 0.463566
0.213316 0.123750 0.463316
0.330566 0.123750 0.463066
0.447816 0.123750 0.462816
0.565066 0.123750 0.462566
0.682316 0.123750 0.462316
0.799567 0.123750 0.462067
0.916817 0.123750 0.461817
0.000000 0.247500 0.462930
0.095180 0.247500 0.462680
0.212431 0.247500 0.462431
0.329681 0.247500 0.462181
0.446931 0.247500 0.461931
0.564181 0.247500 0.461681
0.681431 0.247500 0.461431
0.798682 0.247500 0.461182
0.915932 0.247500 0.460932
0.000000 0.371250 0.462045
0.094295 0.371250 0.461795
0.211546 0.371250 0.461546
0.328796 0.371250 0.461296
0.446046 0.371250 0.461046
0.563296 0.371250 0.460796
0.680546 0.371250 0.460546
0.797797 0.371250 0.460297
0.915047 0.371250 0.460047
0.000000 0.495000 0.461160
0.093410 0.495000 0.460910
0.210661 0.495000 0.460661
0.327911 0.495000 0.460411
0.445161 0.495000 0.460161
0.562411 0.495000 0.459911
0.679661 0.495000 0.459661
0.796911 0.495000 0.459411
0.914162 0.495000 0.459162
0.000000 0.618750 0.460275
0.092525 0.618750 0.460025
0.209775 0.618750 0.459775
0.327026 0.618750 0.459526
0.444276 0.618750 0.459276
0.561526 0.618750 0.459026
0.678776 0.618750 0.458776
0.796026 0.618750 0.458526
0.913277 0.618750 0.458277
0.000000 0.742500 0.459390
0.091640 0.742500 0.459140
0.208890 0.742500 0.458890
0.326141 0.742500 0.458641
0.443391 0.742500 0.458391
0.560641 0.742500 0.458141
0.677891 0.742500 0.457891
0.795141 0.742500 0.457641
0.912392 0.742500 0.457392
0.000000 0.866250 0.458505
0.090755 0.866250 0.458255
0.208005 0.866250 0.458005
0.325256 0.866250 0.457756
0.442506 0.866250 0.457506
0.559756 0.866250 0.457256
0.677006 0.866250 0.457006
0.794256 0.866250 0.456756
0.911507 0.866250 0.456507
0.000000 0.990000 0.457620
0.089870 0.990000 0.457370
0.207120 0.990000 0.457120
0.324370 0.990000 0.456870
0.441621 0.990000 0.456621
0.558871 0.990000 0.456371
0.676121 0.990000 0.456121
0.793371 0.990000 0.455871
0.910621 0.990000 0.455621
0.000000 0.000000 0.599603
0.096853 0.000000 0.599353
0.214103 0.000000 0.599103
0.331353 0.000000 0.598853
0.448604 0.000000 0.598604
0.565854 0.000000 0.598354
0.683104 0.000000 0.598104
0.800354 0.000000 0.597854
0.917604 0.000000 0.597604
0.000000 0.123750 0.598718
0.095968 0.123750 0.598468
0.213218 0.123750 0.598218
0.330468 0.123750 0.597968
0.447719 0.123750 0.597719
0.564969 0.123750 0.597469
0.682219 0.123750 0.597219
0.799469 0.123750 0.596969
0.916719 0.123750 0.596719
0.000000 0.247500 0.597833
0.095083 0.247500 0.597583
0.212333 0.247500 0.597333
0.329583 0.247500 0.597083
0.446834 0.247500 0.596834
0.564084 0.247500 0.596584
0.681334 0.247500 0.596334
0.798584 0.247500 0.596084
0.915834 0.247500 0.595834
0.000000 0.371250 0.596948
0.094198 0.371250 0.596698
0.211448 0.371250 0.596448
0.328698 0.371250 0.596198
0.445948 0.371250 0.595948
0.563199 0.371250 0.595699
0.680449 0.371250 0.595449
0.797699 0.371250 0.595199
0.914949 0.371250 0.594949
0.000000 0.495000 0.596063
0.093313 0.495000 0.595813
0.210563 0.495000 0.595563
0.327813 0.495000 0.595313
0.445063 0.495000 0.595063
0.562314 0.495000 0.594814
0.679564 0.495000 0.594564
0.796814 0.495000 0.594314
0.914064 0.495000 0.594064
0.000000 0.618750 0.595178
0.092428 0.618750 0.594928
0.209678 0.618750 0.594678
0.326928 0.618750 0.594428
0.444178 0.618750 0.594178
0.561429 0.618750 0.593929
0.678679 0.618750 0.593679
0.795929 0.618750 0.593429
0.913179 0.618750 0.593179
0.000000 0.742500 0.594293
0.091543 0.742500 0.594043
0.208793 0.742500 0.593793
0.326043 0.742500 0.593543
0.443293 0.742500 0.593293
0.560544 0.742500 0.593044
0.677794 0.742500 0.592794
0.795044 0.742500 0.592544
0.912294 0.742500 0.592294
0.000000 0.866250 0.593407
0.090658 0.866250 0.593158
0.207908 0.866250 0.592908
0.325158 0.866250 0.592658
0.442408 0.866250 0.592408
0.559658 0.866250 0.592158
0.676909 0.866250 0.591909
0.794159 0.866250 0.591659
0.911409 0.866250 0.591409
0.000000 0.990000 0.592522
0.089773 0.990000 0.592273
0.207023 0.990000 0.592023
0.324273 0.990000 0.591773
0.441523 0.990000 0.591523
0.558773 0.990000 0.591273
0.676024 0.990000 0.591024
0.793274 0.990000 0.590774
0.910524 0.990000 0.590524
0.000000 0.000000 0.734505
0.096756 0.000000 0.734256
0.214006 0.000000 0.734006
0.331256 0.000000 0.733756
0.448506 0.000000 0.733506
0.565756 0.000000 0.733256
0.683007 0.000000 0.733007
0.800257 0.000000 0.732757
0.917507 0.000000 0.732507
0.000000 0.123750 0.733620
0.095871 0.123750 0.733371
0.213121 0.123750 0.733121
0.330371 0.123750 0.732871
0.447621 0.123750 0.732621
0.564871 0.123750 0.732371
0.682122 0.123750 0.732122
0.799372 0.123750 0.731872
0.916622 0.123750 0.731622
0.000000 0.247500 0.732735
0.094986 0.247500 0.732486
0.212236 0.247500 0.732236
0.329486 0.247500 0.731986
0.446736 0.247500 0.731736
0.563986 0.247500 0.731486
0.681236 0.247500 0.731236
0.798487 0.247500 0.730987
0.915737 0.247500 0.730737
0.000000 0.371250 0.731850
0.094100 0.371250 0.731600
0.211351 0.371250 0.731351
0.328601 0.371250 0.731101
0.445851 0.371250 0.730851
0.563101 0.371250 0.730601
0.680351 0.371250 0.730351
0.797602 0.371250 0.730102
0.914852 0.371250 0.729852
0.000000 0.495000 0.730965
0.093215 0.495000 0.730715
0.210466 0.495000 0.730466
0.327716 0.495000 0.730216
0.444966 0.495000 0.729966
0.562216 0.495000 0.729716
0.679466 0.495000 0.729466
0.796717 0.495000 0.729217
0.913967 0.495000 0.728967
0.000000 0.618750 0.730080
0.092330 0.618750 0.729830
0.209581 0.618750 0.729581
0.326831 0.618750 0.729331
0.444081 0.618750 0.729081
0.561331 0.618750 0.728831
0.678581 0.618750 0.728581
0.795831 0.618750 0.728331
0.913082 0.618750 0.728082
0.000000 0.742500 0.729195
0.091445 0.742500 0.728945
0.208695 0.742500 0.728695
0.325946 0.742500 0.728446
0.443196 0.742500 0.728196
0.560446 0.742500 0.727946
0.677696 0.742500 0.727696
0.794946 0.742500 0.727446
0.912197 0.742500 0.727197
0.000000 0.866250 0.728310
0.090560 0.866250 0.728060
0.207810 0.866250 0.727810
0.325061 0.866250 0.727561
0.442311 0.866250 0.727311
0.559561 0.866250 0.727061
0.676811 0.866250 0.726811
0.794061 0.866250 0.726561
0.911312 0.866250 0.726312
0.000000 0.990000 0.727425
0.089675 0.990000 0.727175
0.206925 0.990000 0.726925
0.324176 0.990000 0.726676
0.441426 0.990000 0.726426
0.558676 0.990000 0.726176
0.675926 0.990000 0.725926
0.793176 0.990000 0.725676
0.910427 0.990000 0.725427
0.000000 0.000000 0.869408
0.096658 0.000000 0.869158
0.213908 0.000000 0.868908
0.331159 0.000000 0.868659
0.448409 0.000000 0.868409
0.565659 0.000000 0.868159
0.682909 0.000000 0.867909
0.800159 0.000000 0.867659
0.917410 0.000000 0.867410
0.000000 0.123750 0.868523
0.095773 0.123750 0.868273
0.213023 0.123750 0.868023
0.330273 0.123750 0.867773
0.447524 0.123750 0.867524
0.564774 0.123750 0.867274
0.682024 0.123750 0.867024
0.799274 0.123750 0.866774
0.916524 0.123750 0.866524
0.000000 0.247500 0.867638
0.094888 0.247500 0.867388
0.212138 0.247500 0.867138
0.329388 0.247500 0.866888
0.446639 0.247500 0.866639
0.563889 0.247500 0.866389
0.681139 0.247500 0.866139
0.798389 0.247500 0.865889
0.915639 0.247500 0.865639
0.000000 0.371250 0.866753
0.094003 0.371250 0.866503
0.211253 0.371250 0.866253
0.328503 0.371250 0.866003
0.445754 0.371250 0.865754
0.563004 0.371250 0.865504
0.680254 0.371250 0.865254
0.797504 0.371250 0.865004
0.914754 0.371250 0.864754
0.000000 0.495000 0.865868
0.093118 0.495000 0.865618
0.210368 0.495000 0.865368
0.327618 0.495000 0.865118
0.444869 0.495000 0.864869
0.562119 0.495000 0.864619
0.679369 0.495000 0.864369
0.796619 0.495000 0.864119
0.913869 0.495000 0.863869
0.000000 0.618750 0.864983
0.092233 0.618750 0.864733
0.209483 0.618750 0.864483
0.326733 0.618750 0.864233
0.443983 0.618750 0.863983
0.561234 0.618750 0.863734
0.678484 0.618750 0.863484
0.795734 0.618750 0.863234
0.912984 0.618750 0.862984
0.000000 0.742500 0.864098
0.091348 0.742500 0.863848
0.208598 0.742500 0.863598
0.325848 0.742500 0.863348
0.443098 0.742500 0.863098
0.560349 0.742500 0.862849
0.677599 0.742500 0.862599
0.794849 0.742500 0.862349
0.912099 0.742500 0.862099
0.000000 0.866250 0.863213
0.090463 0.866250 0.862963
0.207713 0.866250 0.862713
0.324963 0.866250 0.862463
0.442213 0.866250 0.862213
0.559464 0.866250 0.861964
0.676714 0.866250 0.861714
0.793964 0.866250 0.861464
0.911214 0.866250 0.861214
0.000000 0.990000 0.862327
0.089578 0.990000 0.862078
0.206828 0.990000 0.861828
0.324078 0.990000 0.861578
0.441328 0.990000 0.861328
0.558578 0.990000 0.861078
0.675829 0.990000 0.860829
0.793079 0.990000 0.860579
0.910329 0.990000 0.860329
0.000000 0.000000 1.000000
0.096561 0.000000 1.000000
0.213811 0.000000 1.000000
0.331061 0.000000 1.000000
0.448311 0.000000 1.000000
0.565561 0.000000 1.000000
0.682812 0.000000 1.000000
0.800062 0.000000 1.000000
0.917312 0.000000 1.000000
0.000000 0.123750 1.000000
0.095676 0.123750 1.000000
0.212926 0.123750 1.000000
0.330176 0.123750 1.000000
0.447426 0.123750 1.000000
0.564676 0.123750 1.000000
0.681927 0.123750 1.000000
0.799177 0.123750 1.000000
0.916427 0.123750 1.000000
0.000000 0.247500 1.000000
0.094791 0.247500 1.000000
0.212041 0.247500 1.000000
0.329291 0.247500 1.000000
0.446541 0.247500 1.000000
0.563791 0.247500 1.000000
0.681042 0.247500 1.000000
0.798292 0.247500 1.000000
0.915542 0.247500 1.000000
0.000000 0.371250 1.000000
0.093906 0.371250 1.000000
0.211156 0.371250 1.000000
0.328406 0.371250 1.000000
0.445656 0.371250 1.000000
0.562906 0.371250 1.000000
0.680156 0.371250 1.000000
0.797407 0.371250 0.999907
0.914657 0.371250 0.999657
0.000000 0.495000 1.000000
0.093020 0.495000 1.000000
0.210271 0.495000 1.000000
0.327521 0.495000 1.000000
0.444771 0.495000 0.999771
0.562021 0.495000 0.999521
0.679271 0.495000 0.999271
0.796522 0.495000 0.999022
0.913772 0.495000 0.998772
0.000000 0.618750 0.999885
0.092135 0.618750 0.999635
0.209386 0.618750 0.999386
0.326636 0.618750 0.999136
0.443886 0.618750 0.998886
0.561136 0.618750 0.998636
0.678386 0.618750 0.998386
0.795637 0.618750 0.998137
0.912887 0.618750 0.997887
0.000000 0.742500 0.999000
0.091250 0.742500 0.998750
0.208501 0.742500 0.998501
0.325751 0.742500 0.998251
0.443001 0.742500 0.998001
0.560251 0.742500 0.997751
0.677501 0.742500 0.997501
0.794751 0.742500 0.997251
0.912002 0.742500 0.997002
0.000000 0.866250 0.998115
0.090365 0.866250 0.997865
0.207615 0.866250 0.997615
0.324866 0.866250 0.997366
0.442116 0.866250 0.997116
0.559366 0.866250 0.996866
0.676616 0.866250 0.996616
0.793866 0.866250 0.996366
0.911117 0.866250 0.996117
0.000000 0.990000 0.997230
0.089480 0.990000 0.996980
0.206730 0.990000 0.996730
0.323981 0.990000 0.996481
0.441231 0.990000 0.996231
0.558481 0.990000 0.995981
0.675731 0.990000 0.995731
0.792981 0.990000 0.995481
0.910232 0.990000 0.995232
0.000000 0.000000 1.000000
0.096528 0.000000 1.000000
0.213778 0.000000 1.000000
0.331029 0.000000 1.000000
0.448279 0.000000 1.000000
0.565529 0.000000 1.000000
0.682779 0.000000 1.000000
0.800029 0.000000 1.000000
0.917280 0.000000 1.000000
0.000000 0.123750 1.000000
0.095643 0.123750 1.000000
0.212893 0.123750 1.000000
0.330144 0.123750 1.000000
0.447394 0.123750 1.000000
0.564644 0.123750 1.000000
0.681894 0.123750 1.000000
0.799144 0.123750 1.000000
0.916395 0.123750 1.000000
0.000000 0.247500 1.000000
0.094758 0.247500 1.000000
0.212008 0.247500 1.000000
0.329258 0.247500 1.000000
0.446509 0.247500 1.000000
0.563759 0.247500 1.000000
0.681009 0.247500 1.000000
0.798259 0.247500 1.000000
0.915509 0.247500 1.000000
0.000000 0.371250 1.000000
0.093873 0.371250 1.000000
0.211123 0.371250 1.000000
0.328373 0.371250 1.000000
0.445624 0.371250 1.000000
0.562874 0.371250 1.000000
0.680124 0.371250 1.000000
0.797374 0.371250 1.000000
0.914624 0.371250 1.000000
0.000000 0.495000 1.000000
0.092988 0.495000 1.000000
0.210238 0.495000 1.000000
0.327488 0.495000 1.000000
0.444739 0.495000 1.000000
0.561989 0.495000 1.000000
0.679239 0.495000 1.000000
0.796489 0.495000 1.000000
0.913739 0.495000 1.000000
0.000000 0.618750 1.000000
0.092103 0.618750 1.000000
0.209353 0.618750 1.000000
0.326603 0.618750 1.000000
0.443853 0.618750 1.000000
0.561104 0.618750 1.000000
0.678354 0.618750 1.000000
0.795604 0.618750 1.000000
0.912854 0.618750 1.000000
0.000000 0.742500 1.000000
0.091218 0.742500 1.000000
0.208468 0.742500 1.000000
0.325718 0.742500 1.000000
0.442968 0.742500 1.000000
0.560219 0.742500 1.000000
0.677469 0.742500 1.000000
0.794719 0.742500 1.000000
0.911969 0.742500 1.000000
0.000000 0.866250 1.000000
0.090333 0.866250 1.000000
0.207583 0.866250 1.000000
0.324833 0.866250 1.000000
0.442083 0.866250 1.000000
0.559334 0.866250 1.000000
0.676584 0.866250 1.000000
0.793834 0.866250 1.000000
0.911084 0.866250 1.000000
0.000000 0.990000 1.000000
0.089448 0.990000 1.000000
0.206698 0.990000 1.000000
0.323948 0.990000 1.000000
0.441198 0.990000 1.000000
0.558448 0.990000 1.000000
0.675699 0.990000 1.000000
0.792949 0.990000 1.000000
0.910199 0.990000 1.000000
