library/luts/fresh_nature.cube
# CrabbyCut preset LUT — sinh bởi scripts/generate_preset_luts.js
TITLE "Xanh tươi"
LUT_3D_SIZE 9
0.000000 0.010000 0.015000
0.178490 0.010399 0.014401
0.327325 0.010714 0.013929
0.460535 0.010996 0.013506
0.582741 0.011255 0.013118
0.696123 0.011495 0.012758
0.801969 0.011719 0.012422
0.901140 0.011929 0.012107
0.994252 0.012126 0.011811
0.000000 0.209626 0.012874
0.159740 0.177666 0.012688
0.311487 0.173158 0.012256
0.447935 0.170501 0.011854
0.573259 0.169362 0.011471
0.689677 0.169566 0.011101
0.798498 0.170998 0.010743
0.900596 0.173579 0.010394
0.996597 0.177246 0.010052
0.000000 0.363836 0.011231
0.145396 0.337606 0.011038
0.298503 0.315693 0.010785
0.437649 0.311958 0.010386
0.565554 0.309788 0.010005
0.684469 0.308994 0.009639
0.795722 0.309455 0.009283
0.900200 0.311085 0.008936
0.998537 0.313819 0.008597
0.000000 0.489581 0.009892
0.138331 0.478221 0.009568
0.287516 0.460647 0.009282
0.428044 0.444054 0.009015
0.558359 0.440921 0.008637
0.679605 0.439195 0.008273
0.793130 0.438749 0.007920
0.899830 0.439491 0.007576
1.000000 0.441353 0.007239
0.000000 0.604008 0.008673
0.136785 0.601014 0.008269
0.282829 0.591547 0.007908
0.419900 0.578740 0.007612
0.551476 0.566362 0.007328
0.674953 0.563745 0.006967
0.790651 0.562430 0.006616
0.898769 0.562323 0.006274
1.000000 0.563352 0.005939
0.000000 0.713165 0.007510
0.139475 0.711025 0.007093
0.283065 0.709314 0.006658
0.417167 0.701956 0.006314
0.545741 0.693002 0.006003
0.670452 0.684254 0.005703
0.788252 0.682099 0.005354
0.897738 0.681171 0.005014
1.000000 0.681393 0.004682
0.001476 0.818018 0.006393
0.145997 0.816717 0.005951
0.287065 0.815687 0.005517
0.418798 0.814725 0.005112
0.544770 0.809757 0.004768
0.666830 0.804165 0.004442
0.785915 0.798665 0.004125
0.896770 0.796936 0.003787
1.000000 0.796373 0.003457
0.002913 0.911634 0.005315
0.155880 0.911089 0.004838
0.294481 0.910655 0.004405
0.423910 0.910251 0.004000
0.547720 0.909867 0.003614
0.667464 0.907613 0.003262
0.784187 0.905237 0.002921
0.895857 0.902897 0.002587
1.000000 0.901637 0.002259
0.004304 1.000000 0.004272
0.168948 1.000000 0.003749
0.305128 1.000000 0.003317
0.432295 1.000000 0.002913
0.553943 1.000000 0.002527
0.671644 1.000000 0.002153
0.786292 1.000000 0.001789
0.895301 1.000000 0.001433
1.000000 1.000000 0.001083
0.000000 0.010139 0.206717
0.176571 0.010528 0.199722
0.325750 0.010838 0.191316
0.459282 0.011117 0.185036
0.581799 0.011373 0.180448
0.695483 0.011612 0.177329
0.801626 0.011836 0.175540
0.901089 0.012046 0.174982
0.994489 0.012244 0.175581
0.000000 0.181700 0.183346
0.157826 0.175587 0.176488
0.313711 0.170393 0.170573
0.454087 0.167096 0.166603
0.583171 0.165345 0.164209
0.703229 0.164958 0.163199
0.815597 0.165816 0.163450
0.921167 0.167836 0.164876
0.996733 0.170903 0.167487
0.000000 0.340884 0.164080
0.139971 0.337485 0.154492
0.297207 0.314310 0.150676
0.440286 0.309936 0.149407
0.571954 0.307157 0.149597
0.694512 0.305774 0.151088
0.809317 0.305662 0.153775
0.917270 0.306733 0.157585
0.998687 0.308876 0.162523
0.000000 0.480814 0.153082
0.129707 0.479856 0.141032
0.282974 0.461060 0.137113
0.427397 0.443325 0.133349
0.561479 0.439584 0.135953
0.686373 0.437271 0.139779
0.803452 0.436254 0.144741
0.913568 0.436439 0.150775
1.000000 0.437718 0.157887
0.000000 0.602993 0.148257
0.125277 0.604211 0.134008
0.275316 0.593613 0.130071
0.416219 0.579699 0.126449
0.551459 0.566263 0.122901
0.678586 0.563061 0.128960
0.797841 0.561177 0.136098
0.909240 0.560514 0.144262
1.000000 0.560968 0.153453
0.000178 0.712439 0.147896
0.125406 0.715644 0.131633
0.272844 0.712892 0.128161
0.410672 0.704488 0.124878
0.542852 0.694509 0.121664
0.671053 0.684769 0.118493
0.792413 0.682047 0.127736
0.905148 0.680563 0.137959
1.000000 0.680219 0.149163
0.001677 0.817577 0.151227
0.129452 0.822725 0.132993
0.274369 0.820654 0.130201
0.409697 0.818720 0.127594
0.539200 0.812770 0.124910
0.664696 0.806217 0.122237
0.787125 0.799782 0.119591
0.901253 0.797500 0.131820
1.000000 0.796378 0.144984
0.003130 0.911449 0.158005
0.136917 0.917728 0.137831
0.279369 0.916342 0.135705
0.412393 0.915052 0.133720
0.539643 0.913822 0.131821
0.662764 0.910730 0.129802
0.782779 0.907538 0.127797
0.897528 0.904401 0.125814
1.000000 0.902645 0.140895
0.004541 1.000000 0.168042
0.147495 1.000000 0.146044
0.287541 1.000000 0.144561
0.418319 1.000000 0.143175
0.543420 1.000000 0.141850
0.664462 1.000000 0.140568
0.782365 1.000000 0.139319
0.894525 1.000000 0.138097
1.000000 1.000000 0.136905
0.000000 0.010247 0.357007
0.171762 0.010627 0.351066
0.324458 0.010947 0.346143
0.458259 0.011224 0.336362
0.581033 0.011478 0.328423
0.694967 0.011715 0.322063
0.801352 0.011937 0.317116
0.901052 0.012146 0.313469
0.994685 0.012342 0.311037
0.000000 0.179244 0.337157
0.156210 0.173823 0.335870
0.312045 0.168629 0.329955
0.452694 0.165604 0.322480
0.582039 0.164115 0.316733
0.702349 0.163980 0.312478
0.814963 0.165084 0.309570
0.920774 0.167345 0.307905
0.996930 0.170648 0.307479
0.000000 0.321800 0.320710
0.139983 0.317740 0.315972
0.295541 0.312546 0.310057
0.441867 0.307642 0.304480
0.576642 0.304355 0.300550
0.702205 0.302481 0.298053
0.819937 0.301892 0.296856
0.930755 0.302495 0.296866
0.998815 0.304144 0.298125
0.000000 0.465469 0.304911
0.129111 0.463905 0.297657
0.278628 0.460784 0.289647
0.426277 0.442106 0.285721
0.563465 0.437858 0.284203
0.691364 0.435055 0.284042
0.811371 0.433559 0.285120
0.924232 0.433276 0.287355
1.000000 0.434068 0.290780
0.000000 0.595183 0.295833
0.124268 0.595920 0.286251
0.268510 0.594702 0.276319
0.412585 0.579876 0.272399
0.550861 0.565566 0.268567
0.680993 0.561873 0.270639
0.803176 0.559511 0.273893
0.917252 0.558380 0.278256
1.000000 0.558352 0.283753
0.000377 0.711859 0.292078
0.124569 0.714710 0.280356
0.263791 0.715230 0.268667
0.404703 0.705961 0.264862
0.539870 0.695136 0.261239
0.670959 0.684577 0.257671
0.795247 0.681377 0.263030
0.910642 0.679426 0.269453
1.000000 0.678605 0.276954
0.001875 0.817228 0.292440
0.128846 0.822022 0.278745
0.263258 0.824134 0.265447
0.401560 0.821397 0.262037
0.533987 0.814636 0.258784
0.662325 0.807290 0.255596
0.787523 0.800082 0.252449
0.904339 0.797332 0.260879
1.000000 0.795738 0.270331
0.003326 0.911301 0.296313
0.136538 0.917257 0.280677
0.266243 0.920461 0.265805
0.402242 0.918440 0.263016
0.532337 0.916514 0.260349
0.658252 0.912731 0.257691
0.780992 0.908865 0.255073
0.898301 0.905073 0.252489
1.000000 0.902901 0.263851
0.004737 1.000000 0.303498
0.147343 1.000000 0.286034
0.272358 1.000000 0.269670
0.406122 1.000000 0.267473
0.534080 1.000000 0.265371
0.657886 1.000000 0.263338
0.778481 1.000000 0.261357
0.893276 1.000000 0.259419
1.000000 1.000000 0.257528
0.000000 0.010344 0.490580
0.167964 0.010716 0.485623
0.317501 0.011030 0.481512
0.457305 0.011323 0.477673
0.580319 0.011576 0.466606
0.694484 0.011811 0.457219
0.801096 0.012032 0.449324
0.901017 0.012239 0.442793
0.994867 0.012434 0.437529
0.000000 0.177477 0.474014
0.155206 0.172703 0.477926
0.308042 0.168312 0.472814
0.451393 0.164212 0.468041
0.580981 0.162966 0.459163
0.701527 0.163067 0.451879
0.814371 0.164401 0.446020
0.920406 0.166886 0.441468
0.997114 0.170411 0.438208
0.000000 0.318951 0.460277
0.141583 0.315544 0.460730
0.293967 0.310880 0.459123
0.440293 0.305977 0.453546
0.575312 0.302934 0.446485
0.701111 0.301296 0.440959
0.819072 0.300935 0.436811
0.930115 0.301763 0.433934
0.999000 0.303634 0.432358
0.000000 0.451063 0.447449
0.128556 0.448932 0.444672
0.278377 0.445345 0.440363
0.424703 0.440441 0.434787
0.564792 0.435719 0.429421
0.695498 0.432457 0.425536
0.818238 0.430515 0.422987
0.933642 0.429795 0.421673
1.000000 0.430133 0.421654
0.000000 0.584025 0.434306
0.123384 0.584246 0.429153
0.267823 0.582602 0.422880
0.408665 0.579514 0.415469
0.549774 0.564388 0.411371
0.682713 0.560237 0.409720
0.807630 0.557428 0.409347
0.924197 0.555860 0.410162
1.000000 0.555383 0.412206
0.000482 0.705632 0.426950
0.123650 0.708048 0.419573
0.262856 0.708211 0.411475
0.398603 0.706809 0.402360
0.536557 0.695194 0.398355
0.670344 0.683871 0.394416
0.797365 0.680224 0.396149
0.915246 0.677836 0.399023
1.000000 0.676571 0.403064
0.002060 0.816902 0.424308
0.128281 0.821365 0.414852
0.262420 0.823205 0.405059
0.393434 0.823370 0.394361
0.528591 0.815851 0.390576
0.659583 0.807764 0.386908
0.787367 0.799835 0.383293
0.906703 0.796648 0.388174
1.000000 0.794615 0.394159
0.003510 0.911163 0.425468
0.136184 0.916817 0.414070
0.265616 0.919774 0.402703
0.392235 0.921125 0.390535
0.524988 0.918550 0.387150
0.653511 0.914122 0.383894
0.778796 0.909630 0.380703
0.898514 0.905226 0.377559
1.000000 0.902667 0.385447
0.004919 1.000000 0.429990
0.147201 1.000000 0.416760
0.271947 1.000000 0.403898
0.394213 1.000000 0.390317
0.524838 1.000000 0.387490
0.651225 1.000000 0.384755
0.774334 1.000000 0.382091
0.891615 1.000000 0.379484
1.000000 1.000000 0.376938
0.000000 0.010432 0.612236
0.164795 0.010797 0.608218
0.311316 0.011106 0.604883
0.448452 0.011394 0.601769
0.579635 0.011670 0.598791
0.694023 0.011903 0.586508
0.800851 0.012122 0.575793
0.900984 0.012328 0.566502
0.995042 0.012521 0.558530
0.000000 0.176263 0.598805
0.154704 0.172109 0.607690
0.304689 0.168486 0.603346
0.445383 0.165103 0.599290
0.579970 0.161867 0.595410
0.700741 0.162194 0.585229
0.813805 0.163747 0.576547
0.920055 0.166447 0.569233
0.997291 0.170183 0.563262
0.000000 0.316702 0.587661
0.143582 0.313920 0.593078
0.292939 0.309764 0.595592
0.436607 0.305578 0.590733
0.574039 0.301574 0.586085
0.700064 0.300161 0.577661
0.818245 0.300021 0.570691
0.929502 0.301063 0.565052
0.999178 0.303146 0.560764
0.000000 0.447848 0.577254
0.132941 0.446348 0.579434
0.279762 0.443267 0.579246
0.423187 0.438838 0.577518
0.563276 0.434116 0.572152
0.694207 0.431079 0.565369
0.817167 0.429357 0.559998
0.932680 0.428852 0.555922
1.000000 0.429402 0.553190
0.000000 0.573301 0.567299
0.122530 0.573027 0.566381
0.267157 0.570975 0.563609
0.408169 0.567507 0.559468
0.548258 0.562785 0.554102
0.683882 0.558195 0.548889
0.811414 0.554959 0.545047
0.930357 0.552973 0.542467
1.000000 0.552068 0.541207
0.000556 0.697834 0.556379
0.122716 0.699801 0.553192
0.261990 0.699594 0.548556
0.397799 0.697847 0.542675
0.532911 0.694773 0.535644
0.669279 0.682718 0.531352
0.798916 0.678644 0.529615
0.919174 0.675838 0.529095
1.000000 0.674149 0.529824
0.002180 0.812612 0.550577
0.127496 0.816685 0.545251
0.261556 0.818204 0.538872
0.392497 0.818069 0.531362
0.522952 0.816536 0.522774
0.656484 0.807741 0.518646
0.786742 0.799122 0.514583
0.908499 0.795517 0.516070
1.000000 0.793065 0.518737
0.003686 0.911031 0.549016
0.135845 0.916397 0.541673
0.265016 0.919117 0.533658
0.391392 0.920249 0.524621
0.517481 0.920066 0.514572
0.648499 0.915024 0.510746
0.776219 0.909933 0.507006
0.898261 0.904944 0.503326
1.000000 0.902018 0.507889
0.005094 1.000000 0.550991
0.147065 1.000000 0.541812
0.271554 1.000000 0.532299
0.393580 1.000000 0.521846
0.515527 1.000000 0.510428
0.644383 1.000000 0.507022
0.769897 1.000000 0.503704
0.889580 1.000000 0.500458
1.000000 1.000000 0.497285
0.000000 0.010513 0.724250
0.162140 0.010872 0.721138
0.305769 0.011176 0.718555
0.440324 0.011459 0.716143
0.569038 0.011730 0.713836
0.693577 0.011992 0.711603
0.800615 0.012210 0.698159
0.900952 0.012414 0.686198
0.995212 0.012606 0.675606
0.000000 0.175531 0.713847
0.154645 0.171977 0.727542
0.301889 0.169098 0.723942
0.440012 0.166409 0.720580
0.572140 0.163837 0.717364
0.699980 0.161348 0.714253
0.813257 0.163115 0.702840
0.919715 0.166022 0.692853
0.997461 0.169963 0.684259
0.000000 0.314969 0.705212
0.145953 0.312793 0.715431
0.292387 0.309128 0.721933
0.433484 0.305636 0.717768
0.568457 0.302296 0.713784
0.699051 0.299064 0.709929
0.817445 0.299136 0.700228
0.928910 0.300386 0.691916
0.999349 0.302675 0.685004
0.000000 0.445180 0.697148
0.137629 0.444291 0.704122
0.281545 0.441701 0.707922
0.422164 0.437730 0.709917
0.559794 0.433672 0.705215
0.692958 0.429746 0.700666
0.816131 0.428236 0.692564
0.931751 0.427939 0.685816
1.000000 0.428695 0.680458
0.000000 0.569738 0.689434
0.129479 0.570080 0.693303
0.271175 0.568520 0.694519
0.409379 0.565509 0.694101
0.546784 0.561226 0.692297
0.682408 0.556636 0.687084
0.810152 0.553613 0.680510
0.929218 0.551835 0.675259
1.000000 0.551136 0.671373
0.000629 0.690256 0.681970
0.121802 0.691788 0.682836
0.261140 0.691224 0.681551
0.397010 0.689143 0.678797
0.532180 0.685750 0.674760
0.667805 0.681159 0.669547
0.799972 0.676672 0.664453
0.922535 0.673462 0.660648
1.000000 0.671364 0.658173
0.002286 0.807718 0.672988
0.126683 0.811401 0.671672
0.260699 0.812598 0.668607
0.391600 0.812163 0.664191
0.522017 0.810342 0.658563
0.653042 0.807275 0.651812
0.785693 0.797988 0.647316
0.909804 0.793979 0.645518
1.000000 0.791122 0.644973
0.003827 0.909049 0.668602
0.135315 0.914106 0.665220
0.264329 0.916573 0.660482
0.390558 0.917470 0.654504
0.516506 0.917063 0.647381
0.643207 0.915496 0.639183
0.773281 0.909827 0.634914
0.897592 0.904275 0.630714
1.000000 0.900994 0.632059
0.005264 1.000000 0.668067
0.146933 1.000000 0.662806
0.271174 1.000000 0.656535
0.392967 1.000000 0.649109
0.514692 1.000000 0.640586
0.637326 1.000000 0.631020
0.765167 1.000000 0.627070
0.887197 1.000000 0.623204
1.000000 1.000000 0.619422
0.000000 0.010588 0.827973
0.159944 0.010942 0.825744
0.300779 0.011241 0.823893
0.432820 0.011519 0.822164
0.559130 0.011786 0.820510
0.681341 0.012044 0.818910
0.800384 0.012295 0.817352
0.900921 0.012497 0.802790
0.995376 0.012688 0.789645
0.000000 0.175236 0.820516
0.154994 0.172269 0.838432
0.299582 0.170113 0.835728
0.435200 0.168101 0.833192
0.564932 0.166176 0.830757
0.690455 0.164313 0.828278
0.812723 0.162498 0.825857
0.919383 0.165609 0.813268
0.997627 0.169749 0.802117
0.000000 0.313699 0.814324
0.148678 0.312115 0.829220
0.292269 0.308928 0.839072
0.430862 0.306112 0.835769
0.563439 0.303418 0.832596
0.691716 0.300812 0.829515
0.816665 0.298274 0.826405
0.928333 0.299726 0.815491
0.999516 0.302215 0.806022
0.000000 0.442999 0.808542
0.142620 0.442706 0.820185
0.283702 0.440595 0.827869
0.421587 0.437070 0.833251
0.556821 0.433659 0.829367
0.687668 0.430359 0.825513
0.815122 0.427144 0.821692
0.930847 0.427049 0.812341
1.000000 0.428006 0.804426
0.000000 0.566687 0.803011
0.136680 0.567629 0.811542
0.275507 0.566547 0.816642
0.410978 0.563983 0.819851
0.545767 0.560127 0.821516
0.679074 0.556163 0.816929
0.808923 0.552301 0.812461
0.928111 0.550726 0.804606
1.000000 0.550228 0.798163
0.000740 0.686362 0.797659
0.131168 0.688499 0.803180
0.267578 0.688413 0.805779
0.400714 0.686779 0.806653
0.533269 0.683812 0.806085
0.666363 0.679636 0.804228
0.798530 0.675148 0.799134
0.921239 0.672140 0.792727
1.000000 0.670243 0.787693
0.002390 0.802933 0.792446
0.125880 0.806235 0.795035
0.259855 0.807118 0.795198
0.390716 0.806390 0.793797
0.521095 0.804290 0.791053
0.652084 0.800952 0.787091
0.784251 0.796464 0.781997
0.910667 0.792061 0.777000
1.000000 0.788811 0.773326
0.003962 0.906949 0.785193
0.134775 0.911702 0.785675
0.263644 0.913921 0.784130
0.389737 0.914587 0.781134
0.515556 0.913960 0.776865
0.642131 0.912182 0.771427
0.770000 0.909349 0.764895
0.896539 0.903249 0.760190
1.000000 0.899623 0.758399
0.005428 1.000000 0.782106
0.146805 1.000000 0.780663
0.270803 1.000000 0.777549
0.392370 1.000000 0.773071
0.513879 1.000000 0.767369
0.636303 1.000000 0.760531
0.760146 1.000000 0.752622
0.884487 1.000000 0.748154
1.000000 1.000000 0.743778
0.000000 0.010657 0.917281
0.158170 0.011009 0.916241
0.296292 0.011302 0.915375
0.425873 0.011576 0.914563
0.549830 0.011838 0.913783
0.669765 0.012091 0.913026
0.786590 0.012338 0.912287
0.900891 0.012580 0.911561
0.995538 0.012769 0.896980
0.000000 0.175348 0.913773
0.155724 0.172955 0.935448
0.297724 0.171508 0.933656
0.430893 0.170157 0.931975
0.558281 0.168864 0.930360
0.681536 0.167614 0.928791
0.801595 0.166396 0.927257
0.919059 0.165204 0.925751
0.997790 0.169540 0.912939
0.000000 0.312857 0.910823
0.151741 0.311852 0.929386
0.292554 0.309132 0.943023
0.428698 0.306978 0.940592
0.558931 0.304917 0.938256
0.684939 0.302923 0.935986
0.807680 0.300981 0.933767
0.927768 0.299081 0.931586
0.999680 0.301765 0.920267
0.000000 0.441266 0.908033
0.147907 0.441557 0.923641
0.286213 0.439914 0.934801
0.421423 0.436826 0.943791
0.554313 0.434048 0.940759
0.682892 0.431360 0.937813
0.808137 0.428741 0.934932
0.929965 0.426180 0.932102
1.000000 0.427332 0.922184
0.000000 0.564101 0.905334
0.144138 0.565632 0.918068
0.280147 0.565018 0.926821
0.412943 0.562891 0.933540
0.545174 0.559453 0.938644
0.676212 0.556101 0.935032
0.803853 0.552836 0.931499
0.927029 0.549641 0.928028
1.000000 0.549339 0.919460
0.000846 0.682951 0.902693
0.140732 0.685682 0.912604
0.274278 0.686063 0.918992
0.404739 0.684866 0.923481
0.534735 0.682318 0.926432
0.665354 0.678545 0.928029
0.795312 0.674654 0.923848
0.919972 0.670848 0.919740
1.000000 0.669148 0.912486
0.002488 0.798719 0.900094
0.137451 0.802618 0.907214
0.268561 0.803970 0.911265
0.396747 0.803679 0.913550
0.524568 0.801997 0.914375
0.653081 0.799062 0.913895
0.782836 0.794969 0.912214
0.909229 0.790566 0.907470
1.000000 0.787513 0.901500
0.004093 0.904889 0.897524
0.134240 0.909345 0.901876
0.262967 0.911320 0.903608
0.388928 0.911761 0.903708
0.514620 0.910919 0.902422
0.641073 0.908935 0.899884
0.768822 0.905901 0.896181
0.895129 0.901887 0.891375
1.000000 0.897926 0.886664
0.005590 1.000000 0.892388
0.146680 1.000000 0.894812
0.270441 1.000000 0.894942
0.391786 1.000000 0.893520
0.513083 1.000000 0.890755
0.635302 1.000000 0.886763
0.758945 1.000000 0.881622
0.881465 1.000000 0.875386
1.000000 1.000000 0.870551
0.000000 0.010722 1.000000
0.156789 0.011071 1.000000
0.292268 0.011359 1.000000
0.419435 0.011628 1.000000
0.541083 0.011886 1.000000
0.658784 0.012135 1.000000
0.773432 0.012377 1.000000
0.885603 0.012615 1.000000
0.995696 0.012848 1.000000
0.000000 0.175842 1.000000
0.156778 0.173993 1.000000
0.296248 0.173242 1.000000
0.427013 0.172541 1.000000
0.552102 0.171871 1.000000
0.673133 0.171222 1.000000
0.791025 0.170590 1.000000
0.906370 0.169971 1.000000
0.997918 0.169318 1.000000
0.000000 0.312415 1.000000
0.155098 0.311961 1.000000
0.293158 0.309688 1.000000
0.426899 0.308184 1.000000
0.554835 0.306746 1.000000
0.678620 0.305354 1.000000
0.799194 0.303998 1.000000
0.917164 0.302672 1.000000
0.999793 0.301300 1.000000
0.000000 0.439949 1.000000
0.153461 0.440799 1.000000
0.289010 0.439603 1.000000
0.421575 0.436935 1.000000
0.552169 0.434780 1.000000
0.678526 0.432694 1.000000
0.801606 0.430663 1.000000
0.921317 0.428676 1.000000
1.000000 0.426643 1.000000
0.000000 0.561948 1.000000
0.151833 0.564044 1.000000
0.285041 0.563880 1.000000
0.415197 0.562174 1.000000
0.544903 0.559140 1.000000
0.673720 0.556391 1.000000
0.799197 0.553713 1.000000
0.920313 0.551093 1.000000
1.000000 0.548439 1.000000
0.000949 0.679989 1.000000
0.150482 0.683291 1.000000
0.281202 0.684124 1.000000
0.409025 0.683350 1.000000
0.536501 0.681207 1.000000
0.664682 0.677828 1.000000
0.792478 0.674525 1.000000
0.915098 0.671293 1.000000
1.000000 0.668047 1.000000
0.002582 0.794969 1.000000
0.149174 0.799446 1.000000
0.277462 0.801251 1.000000
0.403014 0.801384 1.000000
0.528317 0.800109 1.000000
0.654396 0.797569 1.000000
0.781782 0.793861 1.000000
0.906121 0.790034 1.000000
1.000000 0.786219 1.000000
0.004180 0.900782 1.000000
0.147895 0.905763 1.000000
0.273802 0.908156 1.000000
0.397132 0.908986 1.000000
0.520310 0.908517 1.000000
0.644332 0.906893 1.000000
0.769715 0.904211 1.000000
0.893725 0.900539 1.000000
1.000000 0.896586 1.000000
0.005748 1.000000 1.000000
0.146547 1.000000 1.000000
0.270071 1.000000 1.000000
0.391196 1.000000 1.000000
0.512285 1.000000 1.000000
0.634305 1.000000 1.000000
0.757756 1.000000 1.000000
0.880116 1.000000 1.000000
1.000000 1.000000 1.000000
