library/luts/fresh_nature.cube
# CrabbyCut preset LUT — sinh bởi scripts/generate_preset_luts.js
TITLE "Xanh tươi"
LUT_3D_SIZE 17
0.000000 0.010000 0.015000
0.098363 0.010221 0.014669
0.178490 0.010399 0.014401
0.255358 0.010562 0.014157
0.327325 0.010714 0.013929
0.395502 0.010858 0.013712
0.460535 0.010996 0.013506
0.522847 0.011128 0.013308
0.582741 0.011255 0.013118
0.640441 0.011377 0.012935
0.696123 0.011495 0.012758
0.749927 0.011609 0.012587
0.801969 0.011719 0.012422
0.852346 0.011826 0.012262
0.901140 0.011929 0.012107
0.948421 0.012029 0.011957
0.994252 0.012126 0.011811
0.000000 0.121081 0.013817
0.086825 0.101872 0.013733
0.168077 0.099023 0.013495
0.245712 0.096828 0.013273
0.318593 0.095147 0.013061
0.387660 0.093913 0.012856
0.453565 0.093080 0.012657
0.516735 0.092619 0.012463
0.577476 0.092505 0.012273
0.636015 0.092722 0.012086
0.692527 0.093255 0.011902
0.747156 0.094091 0.011721
0.800017 0.095219 0.011542
0.851208 0.096632 0.011366
0.900812 0.098320 0.011191
0.948901 0.100278 0.011019
0.995536 0.102498 0.010848
0.000000 0.209626 0.012874
0.076686 0.192167 0.012807
0.159740 0.177666 0.012688
0.237833 0.175147 0.012467
0.311487 0.173158 0.012256
0.381302 0.171625 0.012052
0.447935 0.170501 0.011854
0.511819 0.169755 0.011660
0.573259 0.169362 0.011471
0.632486 0.169304 0.011284
0.689677 0.169566 0.011101
0.744975 0.170134 0.010921
0.798498 0.170998 0.010743
0.850344 0.172149 0.010567
0.900596 0.173579 0.010394
0.949326 0.175280 0.010222
0.996597 0.177246 0.010052
0.000000 0.289648 0.012021
0.069232 0.273794 0.011963
0.151497 0.260642 0.011835
0.230475 0.248284 0.011714
0.304851 0.246007 0.011504
0.375364 0.244194 0.011301
0.442678 0.242799 0.011103
0.507227 0.241787 0.010911
0.569321 0.241133 0.010722
0.629191 0.240818 0.010536
0.687015 0.240826 0.010354
0.742939 0.241145 0.010174
0.797079 0.241762 0.009997
0.849536 0.242669 0.009822
0.900393 0.243857 0.009649
0.949723 0.245319 0.009478
0.997588 0.247047 0.009309
0.000000 0.363836 0.011231
0.063847 0.349492 0.011176
0.145396 0.337606 0.011038
0.223143 0.326438 0.010908
0.298503 0.315693 0.010785
0.369685 0.313614 0.010582
0.437649 0.311958 0.010386
0.502835 0.310691 0.010194
0.565554 0.309788 0.010005
0.626038 0.309227 0.009821
0.684469 0.308994 0.009639
0.740991 0.309073 0.009460
0.795722 0.309455 0.009283
0.848764 0.310128 0.009109
0.900200 0.311085 0.008936
0.950103 0.312317 0.008766
0.998537 0.313819 0.008597
0.000000 0.429917 0.010527
0.060193 0.420556 0.010432
0.141086 0.409872 0.010284
0.217812 0.399835 0.010147
0.292114 0.390177 0.010015
0.364189 0.380781 0.009887
0.432784 0.378874 0.009691
0.498586 0.377361 0.009500
0.561909 0.376216 0.009312
0.622988 0.375418 0.009128
0.682005 0.374950 0.008947
0.739106 0.374798 0.008769
0.794409 0.374951 0.008593
0.848017 0.375398 0.008419
0.900012 0.376131 0.008247
0.950470 0.377142 0.008077
0.999454 0.378424 0.007909
0.000000 0.489581 0.009892
0.058049 0.487427 0.009728
0.138331 0.478221 0.009568
0.214192 0.469264 0.009422
0.287516 0.460647 0.009282
0.358625 0.452264 0.009147
0.428044 0.444054 0.009015
0.494446 0.442301 0.008824
0.558359 0.440921 0.008637
0.620018 0.439891 0.008454
0.679605 0.439195 0.008273
0.737270 0.438818 0.008095
0.793130 0.438749 0.007920
0.847289 0.438976 0.007747
0.899830 0.439491 0.007576
0.950738 0.440286 0.007406
1.000000 0.441353 0.007239
0.000000 0.547534 0.009274
0.057245 0.545620 0.009111
0.136953 0.543175 0.008883
0.212066 0.535258 0.008728
0.284481 0.527641 0.008581
0.354692 0.520231 0.008438
0.423219 0.512975 0.008299
0.490397 0.505838 0.008163
0.554885 0.504228 0.007977
0.617111 0.502972 0.007794
0.677258 0.502052 0.007614
0.735473 0.501455 0.007437
0.791879 0.501168 0.007262
0.846497 0.501180 0.007089
0.899312 0.501481 0.006919
0.950455 0.502065 0.006750
1.000000 0.502923 0.006583
0.000000 0.604008 0.008673
0.057449 0.602332 0.008507
0.136785 0.601014 0.008269
0.211259 0.598198 0.008063
0.282829 0.591547 0.007908
0.352204 0.585076 0.007758
0.419900 0.578740 0.007612
0.486248 0.572508 0.007469
0.551476 0.566362 0.007328
0.614258 0.564883 0.007146
0.674953 0.563745 0.006967
0.733710 0.562931 0.006790
0.790651 0.562430 0.006616
0.845686 0.562231 0.006444
0.898769 0.562323 0.006274
0.950183 0.562699 0.006106
1.000000 0.563352 0.005939
0.000000 0.659174 0.008085
0.058623 0.657735 0.007914
0.137598 0.656609 0.007676
0.211588 0.655558 0.007454
0.282413 0.652662 0.007261
0.351008 0.647100 0.007104
0.417928 0.641653 0.006951
0.483500 0.636297 0.006801
0.547953 0.631014 0.006654
0.611452 0.625791 0.006509
0.672686 0.624437 0.006330
0.731976 0.623411 0.006154
0.789443 0.622699 0.005980
0.844902 0.622292 0.005809
0.898245 0.622178 0.005640
0.949920 0.622351 0.005472
1.000000 0.622801 0.005306
0.000000 0.713165 0.007510
0.060886 0.711961 0.007331
0.139475 0.711025 0.007093
0.212863 0.710150 0.006871
0.283065 0.709314 0.006658
0.350972 0.706539 0.006474
0.417167 0.701956 0.006314
0.482014 0.697448 0.006157
0.545741 0.693002 0.006003
0.608511 0.688607 0.005852
0.670452 0.684254 0.005703
0.730266 0.683018 0.005527
0.788252 0.682099 0.005354
0.844144 0.681487 0.005183
0.897738 0.681171 0.005014
0.949666 0.681142 0.004847
1.000000 0.681393 0.004682
0.000738 0.766084 0.006946
0.064408 0.765114 0.006756
0.142303 0.764365 0.006518
0.215042 0.763666 0.006296
0.284624 0.762997 0.006084
0.351949 0.762350 0.005879
0.417499 0.759844 0.005698
0.481669 0.756160 0.005535
0.544716 0.752527 0.005375
0.606804 0.748936 0.005217
0.668059 0.745379 0.005062
0.728579 0.741851 0.004908
0.787076 0.740728 0.004736
0.843410 0.739913 0.004566
0.897246 0.739397 0.004397
0.949419 0.739170 0.004231
1.000000 0.739224 0.004066
0.001476 0.818018 0.006393
0.068788 0.817281 0.006189
0.145997 0.816717 0.005951
0.218096 0.816191 0.005730
0.287065 0.815687 0.005517
0.353797 0.815200 0.005312
0.418798 0.814725 0.005112
0.482359 0.812600 0.004934
0.544770 0.809757 0.004768
0.606219 0.806947 0.004604
0.666830 0.804165 0.004442
0.726703 0.801405 0.004283
0.785915 0.798665 0.004125
0.842697 0.797650 0.003955
0.896770 0.796936 0.003787
0.949180 0.796513 0.003622
1.000000 0.796373 0.003457
0.002200 0.866090 0.005850
0.074000 0.865618 0.005629
0.150530 0.865258 0.005391
0.221995 0.864922 0.005170
0.290359 0.864602 0.004958
0.356504 0.864293 0.004753
0.420934 0.863993 0.004553
0.483971 0.863700 0.004358
0.545803 0.862194 0.004180
0.606654 0.860336 0.004010
0.666663 0.858498 0.003842
0.725928 0.856679 0.003677
0.784528 0.854875 0.003513
0.842005 0.853085 0.003352
0.896307 0.852265 0.003184
0.948947 0.851711 0.003019
1.000000 0.851414 0.002855
0.002913 0.911634 0.005315
0.080022 0.911328 0.005075
0.155880 0.911089 0.004838
0.226718 0.910867 0.004617
0.294481 0.910655 0.004405
0.360046 0.910450 0.004200
0.423910 0.910251 0.004000
0.486394 0.910057 0.003805
0.547720 0.909867 0.003614
0.608020 0.908818 0.003435
0.667464 0.907613 0.003262
0.726161 0.906420 0.003090
0.784187 0.905237 0.002921
0.841070 0.904063 0.002753
0.895857 0.902897 0.002587
0.948722 0.902138 0.002422
1.000000 0.901637 0.002259
0.003614 0.956254 0.004790
0.086833 0.956106 0.004528
0.162026 0.955988 0.004291
0.232242 0.955877 0.004070
0.299410 0.955772 0.003858
0.364400 0.955670 0.003653
0.427704 0.955571 0.003454
0.489640 0.955475 0.003259
0.550428 0.955380 0.003067
0.610231 0.955287 0.002879
0.669150 0.954744 0.002699
0.727314 0.954156 0.002521
0.784802 0.953574 0.002346
0.841103 0.952997 0.002173
0.895119 0.952423 0.002001
0.948502 0.951853 0.001831
1.000000 0.951152 0.001668
0.004304 1.000000 0.004272
0.094416 1.000000 0.003986
0.168948 1.000000 0.003749
0.238549 1.000000 0.003528
0.305128 1.000000 0.003317
0.369547 1.000000 0.003112
0.432295 1.000000 0.002913
0.493688 1.000000 0.002718
0.553943 1.000000 0.002527
0.613221 1.000000 0.002338
0.671644 1.000000 0.002153
0.729309 1.000000 0.001970
0.786292 1.000000 0.001789
0.842014 1.000000 0.001610
0.895301 1.000000 0.001433
0.947949 1.000000 0.001257
1.000000 1.000000 0.001083
0.000000 0.010077 0.121287
0.097216 0.010292 0.117144
0.177435 0.010468 0.112930
0.254398 0.010628 0.109466
0.326456 0.010779 0.106577
0.394722 0.010922 0.104178
0.459841 0.011058 0.102214
0.522240 0.011190 0.100651
0.582218 0.011316 0.099459
0.640001 0.011438 0.098620
0.695766 0.011556 0.098114
0.749652 0.011670 0.097930
0.801776 0.011780 0.098053
0.852234 0.011887 0.098475
0.901109 0.011991 0.099186
0.948471 0.012093 0.100178
0.994382 0.012191 0.101444
0.000000 0.104287 0.107446
0.085640 0.100628 0.103384
0.168142 0.097572 0.099934
0.246952 0.095183 0.097177
0.320957 0.093319 0.094961
0.391113 0.091907 0.093207
0.458078 0.090901 0.091870
0.522287 0.090270 0.090914
0.584047 0.089992 0.090316
0.643589 0.090046 0.090057
0.701091 0.090418 0.090120
0.756697 0.091096 0.090493
0.810524 0.092069 0.091164
0.862671 0.093328 0.092125
0.913222 0.094864 0.093366
0.962249 0.096671 0.094880
0.995605 0.098712 0.096706
0.000000 0.194359 0.095058
0.074438 0.191517 0.090181
0.158778 0.176625 0.088327
0.238012 0.173914 0.086379
0.312792 0.171741 0.084937
0.383696 0.170031 0.083933
0.451391 0.168734 0.083325
0.516314 0.167820 0.083083
0.578775 0.167262 0.083186
0.639006 0.167041 0.083616
0.697187 0.167143 0.084358
0.753464 0.167554 0.085402
0.807953 0.168263 0.086736
0.860756 0.169261 0.088351
0.911956 0.170539 0.090241
0.961625 0.172090 0.092399
0.996671 0.173880 0.094859
0.000000 0.275780 0.085759
0.066004 0.273689 0.080130
0.149545 0.260152 0.078166
0.229663 0.247434 0.076296
0.305166 0.244974 0.075577
0.376770 0.242985 0.075272
0.445146 0.241417 0.075345
0.510736 0.240237 0.075770
0.573851 0.239418 0.076527
0.634726 0.238942 0.077601
0.693542 0.238791 0.078978
0.750444 0.238953 0.080647
0.805553 0.239415 0.082600
0.858967 0.240169 0.084828
0.910773 0.241206 0.087324
0.961043 0.242518 0.090082
0.997666 0.244073 0.093134
0.000000 0.351283 0.078794
0.059693 0.349898 0.072457
0.142510 0.337633 0.070428
0.221377 0.326111 0.068499
0.297872 0.315028 0.066623
0.370145 0.312772 0.066987
0.439173 0.310945 0.067712
0.505400 0.309511 0.068775
0.569141 0.308443 0.070158
0.630632 0.307721 0.071847
0.690054 0.307329 0.073831
0.747556 0.307252 0.076099
0.803256 0.307479 0.078644
0.857256 0.308000 0.081458
0.909642 0.308806 0.084533
0.960486 0.309889 0.087865
0.998619 0.311219 0.091484
0.000000 0.422159 0.073748
0.055155 0.421446 0.066734
0.137308 0.410390 0.064680
0.215145 0.400004 0.062729
0.290572 0.390013 0.060833
0.363734 0.380295 0.058971
0.433393 0.378217 0.060327
0.500237 0.376537 0.062007
0.564584 0.375228 0.063995
0.626670 0.374269 0.066280
0.686680 0.373643 0.068851
0.744761 0.373335 0.071699
0.801034 0.373334 0.074816
0.855601 0.373629 0.078196
0.908547 0.374212 0.081833
0.959947 0.375074 0.085720
0.999540 0.376187 0.089887
0.000000 0.488850 0.070352
0.052163 0.488778 0.062693
0.133696 0.479208 0.060633
0.210667 0.469909 0.058693
0.285106 0.460964 0.056809
0.357293 0.452263 0.054959
0.427763 0.443744 0.053133
0.495209 0.441825 0.055414
0.560145 0.440281 0.057992
0.622812 0.439091 0.060857
0.683394 0.438237 0.064000
0.742039 0.437705 0.067413
0.798870 0.437482 0.071088
0.853989 0.437557 0.075020
0.907475 0.437922 0.079203
0.959232 0.438569 0.083631
1.000000 0.439469 0.088332
0.000000 0.546885 0.068490
0.050611 0.547376 0.060261
0.131491 0.544612 0.058068
0.207720 0.536358 0.056169
0.281241 0.528419 0.054325
0.352522 0.520696 0.052517
0.422091 0.513136 0.050732
0.490288 0.505702 0.048963
0.555802 0.503929 0.052119
0.619037 0.502513 0.055552
0.680178 0.501436 0.059254
0.739376 0.500683 0.063219
0.796753 0.500243 0.067440
0.852296 0.500103 0.071912
0.906017 0.500256 0.076629
0.958051 0.500691 0.081588
1.000000 0.501385 0.086810
0.000000 0.603440 0.067676
0.050075 0.604487 0.058885
0.130575 0.602856 0.056859
0.206127 0.599737 0.054982
0.278794 0.592769 0.053206
0.349230 0.585991 0.051465
0.417960 0.579355 0.049747
0.485319 0.572831 0.048045
0.551540 0.566397 0.046354
0.615331 0.564759 0.050345
0.677022 0.563463 0.054596
0.736762 0.562495 0.059103
0.794674 0.561841 0.063860
0.850617 0.561491 0.068862
0.904603 0.561434 0.074103
0.956905 0.561663 0.079582
1.000000 0.562153 0.085316
0.000000 0.658686 0.067855
0.050514 0.660282 0.058507
0.130659 0.658844 0.056675
0.205735 0.657501 0.054963
0.277612 0.654312 0.053305
0.347260 0.648448 0.051654
0.415206 0.642707 0.050026
0.481781 0.637063 0.048414
0.547218 0.631497 0.046814
0.611686 0.625996 0.045222
0.673917 0.624485 0.050014
0.734190 0.623304 0.055054
0.792630 0.622441 0.060338
0.848987 0.621883 0.065861
0.903230 0.621620 0.071619
0.955790 0.621645 0.077608
1.000000 0.621936 0.083847
0.000069 0.712756 0.068983
0.052116 0.714895 0.059084
0.131857 0.713647 0.057441
0.206320 0.712481 0.055907
0.277552 0.711366 0.054439
0.346479 0.708307 0.052957
0.413691 0.703434 0.051441
0.479534 0.698643 0.049941
0.544237 0.693919 0.048452
0.607969 0.689249 0.046972
0.670857 0.684627 0.045498
0.731656 0.683237 0.051063
0.790615 0.682166 0.056867
0.847402 0.681404 0.062903
0.901894 0.680939 0.069170
0.954704 0.680763 0.075663
1.000000 0.680856 0.082399
0.000826 0.765755 0.071021
0.054959 0.768432 0.060575
0.134005 0.767371 0.059120
0.207821 0.766380 0.057760
0.278432 0.765432 0.056460
0.346753 0.764515 0.055202
0.413297 0.761733 0.053880
0.478454 0.757771 0.052511
0.542471 0.753864 0.051154
0.605512 0.750003 0.049805
0.667707 0.746181 0.048463
0.729154 0.742391 0.047125
0.788626 0.741116 0.053440
0.845859 0.740152 0.059984
0.900592 0.739487 0.066753
0.953643 0.739114 0.073743
1.000000 0.739012 0.080970
0.001569 0.817768 0.073940
0.058668 0.820978 0.062950
0.137029 0.820102 0.061679
0.210204 0.819284 0.060493
0.280203 0.818502 0.059358
0.347931 0.817745 0.058260
0.413903 0.817008 0.057191
0.478434 0.814613 0.056025
0.541807 0.811502 0.054818
0.604202 0.808427 0.053619
0.665746 0.805383 0.052427
0.726539 0.802365 0.051239
0.786660 0.799371 0.050054
0.844354 0.798207 0.057099
0.899321 0.797344 0.064364
0.952607 0.796775 0.071846
1.000000 0.796481 0.079557
0.002301 0.865930 0.077710
0.063219 0.869318 0.066179
0.140901 0.868671 0.065092
0.213443 0.868068 0.064077
0.282836 0.867493 0.063106
0.349978 0.866937 0.062166
0.415378 0.866397 0.061251
0.479365 0.865870 0.060355
0.542146 0.864126 0.059353
0.603936 0.862032 0.058321
0.664870 0.859962 0.057296
0.725049 0.857913 0.056275
0.784551 0.855883 0.055259
0.842887 0.853870 0.054246
0.898079 0.852917 0.062001
0.951594 0.852232 0.069970
1.000000 0.851798 0.078160
0.003022 0.911530 0.082308
0.068586 0.915342 0.070239
0.145597 0.914817 0.069333
0.217512 0.914328 0.068488
0.286305 0.913861 0.067678
0.352866 0.913411 0.066895
0.417702 0.912972 0.066133
0.481135 0.912544 0.065387
0.543394 0.912125 0.064654
0.604622 0.910845 0.063827
0.664986 0.909412 0.062985
0.724588 0.907993 0.062149
0.783510 0.906588 0.061316
0.841266 0.905194 0.060488
0.896866 0.903812 0.059662
0.950601 0.902919 0.068112
1.000000 0.902284 0.076777
0.003733 0.956204 0.087713
0.074751 0.960428 0.075109
0.151097 0.960024 0.074382
0.222390 0.959647 0.073704
0.290589 0.959287 0.073055
0.356575 0.958939 0.072428
0.420850 0.958601 0.071816
0.483736 0.958271 0.071218
0.545457 0.957948 0.070631
0.606177 0.957630 0.070053
0.666007 0.956863 0.069418
0.725070 0.956054 0.068780
0.783446 0.955254 0.068147
0.840641 0.954460 0.067519
0.895456 0.953673 0.066893
0.949629 0.952892 0.066271
1.000000 0.952056 0.075407
0.004434 1.000000 0.093905
0.081621 1.000000 0.080822
0.157311 1.000000 0.080271
0.227993 1.000000 0.079756
0.295607 1.000000 0.079263
0.361027 1.000000 0.078786
0.424750 1.000000 0.078322
0.487096 1.000000 0.077868
0.548288 1.000000 0.077422
0.608487 1.000000 0.076983
0.667817 1.000000 0.076551
0.726378 1.000000 0.076124
0.784247 1.000000 0.075703
0.840892 1.000000 0.075286
0.894976 1.000000 0.074873
0.948410 1.000000 0.074464
1.000000 1.000000 0.074062
0.000000 0.010139 0.206717
0.095353 0.010350 0.202892
0.176571 0.010528 0.199722
0.253614 0.010688 0.195208
0.325750 0.010838 0.191316
0.394090 0.010981 0.187945
0.459282 0.011117 0.185036
0.521751 0.011248 0.182547
0.581799 0.011373 0.180448
0.639651 0.011495 0.178715
0.695483 0.011612 0.177329
0.749436 0.011726 0.176275
0.801626 0.011836 0.175540
0.852150 0.011942 0.175112
0.901089 0.012046 0.174982
0.948514 0.012147 0.175140
0.994489 0.012244 0.175581
0.000000 0.103043 0.193937
0.084651 0.099590 0.191546
0.167202 0.096534 0.188095
0.246049 0.094227 0.184289
0.320133 0.092441 0.181068
0.390364 0.091104 0.178343
0.457403 0.090172 0.176058
0.521684 0.089614 0.174177
0.583515 0.089406 0.172670
0.643126 0.089530 0.171516
0.700697 0.089970 0.170698
0.756370 0.090716 0.170201
0.810265 0.091756 0.170013
0.862478 0.093081 0.170123
0.913094 0.094683 0.170522
0.962186 0.096555 0.171203
0.995713 0.098661 0.172202
0.000000 0.181700 0.183346
0.074786 0.178643 0.179938
0.157826 0.175587 0.176488
0.238000 0.172717 0.173250
0.313711 0.170393 0.170573
0.385515 0.168535 0.168375
0.454087 0.167096 0.166603
0.519868 0.166041 0.165223
0.583171 0.165345 0.164209
0.644231 0.164990 0.163540
0.703229 0.164958 0.163199
0.760311 0.165237 0.163173
0.815597 0.165816 0.163450
0.869187 0.166685 0.164021
0.921167 0.167836 0.164876
0.971609 0.169261 0.166009
0.996733 0.170903 0.167487
0.000000 0.264287 0.172476
0.066089 0.261989 0.168308
0.147777 0.259574 0.164211
0.228843 0.246560 0.162358
0.305276 0.243948 0.160404
0.377780 0.241811 0.158905
0.447033 0.240101 0.157814
0.513481 0.238780 0.157101
0.577438 0.237824 0.156741
0.639141 0.237212 0.156715
0.698774 0.236928 0.157009
0.756482 0.236958 0.157609
0.812387 0.237291 0.158506
0.866590 0.237916 0.159688
0.919175 0.238825 0.161150
0.970218 0.240011 0.162882
0.997732 0.241420 0.164950
0.000000 0.340884 0.164080
0.059567 0.339301 0.159196
0.139971 0.337485 0.154492
0.219773 0.325672 0.152557
0.297207 0.314310 0.150676
0.370380 0.311907 0.149846
0.440286 0.309936 0.149407
0.507371 0.308362 0.149332
0.571954 0.307157 0.149597
0.634273 0.306300 0.150188
0.694512 0.305774 0.151088
0.752820 0.305566 0.152287
0.809317 0.305662 0.153775
0.864104 0.306055 0.155544
0.917270 0.306733 0.157585
0.968886 0.307690 0.159892
0.998687 0.308876 0.162523
0.000000 0.412801 0.157715
0.054860 0.411898 0.152146
0.134031 0.410650 0.146869
0.212798 0.399977 0.144890
0.289156 0.389712 0.142968
0.363221 0.379728 0.141080
0.433757 0.377507 0.141273
0.501459 0.375687 0.141814
0.566648 0.374240 0.142685
0.629563 0.373146 0.143871
0.690389 0.372386 0.145359
0.749276 0.371947 0.147138
0.806346 0.371816 0.149199
0.861700 0.371983 0.151534
0.915426 0.372438 0.154135
0.967598 0.373174 0.156998
0.999612 0.374143 0.160175
0.000000 0.480814 0.153082
0.051728 0.480562 0.146857
0.129707 0.479856 0.141032
0.207611 0.470275 0.139044
0.282974 0.461060 0.137113
0.356056 0.452098 0.135219
0.427397 0.443325 0.133349
0.495701 0.441265 0.134492
0.561479 0.439584 0.135953
0.624974 0.438259 0.137719
0.686373 0.437271 0.139779
0.745824 0.436607 0.142122
0.803452 0.436254 0.144741
0.859358 0.436201 0.147627
0.913568 0.436439 0.150775
0.966058 0.436959 0.154179
1.000000 0.437718 0.157887
0.000000 0.545445 0.149961
0.049991 0.545820 0.143102
0.126815 0.545633 0.136753
0.203986 0.537101 0.134786
0.278423 0.528896 0.132876
0.350591 0.520916 0.131004
0.421025 0.513106 0.129157
0.490067 0.505427 0.127327
0.556423 0.503516 0.129366
0.620485 0.501964 0.131700
0.682443 0.500754 0.134319
0.742447 0.499870 0.137215
0.800620 0.499299 0.140379
0.856914 0.499031 0.143806
0.911372 0.499056 0.147488
0.964135 0.499366 0.151421
1.000000 0.499919 0.155649
0.000000 0.602993 0.148257
0.049501 0.603933 0.140827
0.125277 0.604211 0.134008
0.201740 0.600843 0.131932
0.275316 0.593613 0.130071
0.346632 0.586581 0.128247
0.416219 0.579699 0.126449
0.484416 0.572934 0.124668
0.551459 0.566263 0.122901
0.616079 0.564490 0.125792
0.678586 0.563061 0.128960
0.739132 0.561961 0.132398
0.797841 0.561177 0.136098
0.854519 0.560698 0.140055
0.909240 0.560514 0.144262
0.962268 0.560616 0.148715
1.000000 0.560968 0.153453
0.000000 0.658304 0.147596
0.050004 0.659794 0.139609
0.124755 0.660522 0.132335
0.200749 0.658939 0.130383
0.273499 0.655509 0.128544
0.344019 0.649396 0.126793
0.412814 0.643412 0.125067
0.480221 0.637531 0.123359
0.546474 0.631731 0.121665
0.611745 0.626001 0.119980
0.674792 0.624357 0.123689
0.735871 0.623045 0.127660
0.795107 0.622051 0.131887
0.852193 0.621364 0.136364
0.907168 0.620974 0.141088
0.960451 0.620873 0.146052
1.000000 0.621027 0.151292
0.000178 0.712439 0.147896
0.051746 0.714471 0.139357
0.125406 0.715644 0.131633
0.200760 0.714238 0.129859
0.272844 0.712892 0.128161
0.342617 0.709600 0.126509
0.410672 0.704488 0.124878
0.477340 0.699463 0.123264
0.542852 0.694509 0.121664
0.607380 0.689614 0.120075
0.671053 0.684769 0.118493
0.732658 0.683248 0.122989
0.792413 0.682047 0.127736
0.849928 0.681156 0.132727
0.905148 0.680563 0.137959
0.958678 0.680262 0.143428
1.000000 0.680219 0.149163
0.000934 0.765502 0.149117
0.054652 0.768072 0.140031
0.126988 0.769683 0.131864
0.201694 0.768452 0.130265
0.273158 0.767274 0.128734
0.342304 0.766134 0.127254
0.409671 0.763124 0.125765
0.475646 0.758932 0.124266
0.540465 0.754799 0.122781
0.604297 0.750716 0.121307
0.667270 0.746674 0.119840
0.729485 0.742669 0.118380
0.789753 0.741264 0.123639
0.847720 0.740171 0.129138
0.903178 0.739379 0.134872
0.956947 0.738879 0.140837
1.000000 0.738643 0.147061
0.001677 0.817577 0.151227
0.058424 0.820681 0.141597
0.129452 0.822725 0.132993
0.203518 0.821667 0.131566
0.274369 0.820654 0.130201
0.342922 0.819674 0.128881
0.409697 0.818720 0.127594
0.475031 0.816104 0.126262
0.539200 0.812770 0.124910
0.602379 0.809477 0.123570
0.664696 0.806217 0.122237
0.726251 0.802987 0.120911
0.787125 0.799782 0.119591
0.845564 0.798490 0.125590
0.901253 0.797500 0.131820
0.955254 0.796804 0.138278
1.000000 0.796378 0.144984
0.002409 0.865808 0.154198
0.063037 0.869098 0.144027
0.132770 0.871327 0.134990
0.206203 0.870504 0.133735
0.276448 0.869718 0.132533
0.344414 0.868959 0.131371
0.410618 0.868221 0.130239
0.475391 0.867501 0.129131
0.538958 0.865561 0.127957
0.601525 0.863272 0.126767
0.663225 0.861011 0.125587
0.724160 0.858773 0.124413
0.784410 0.856557 0.123245
0.843458 0.854360 0.122081
0.899370 0.853293 0.128802
0.953596 0.852494 0.135746
1.000000 0.851942 0.142929
0.003130 0.911449 0.158005
0.068466 0.915164 0.147296
0.136917 0.917728 0.137831
0.209723 0.917019 0.136744
0.279369 0.916342 0.135705
0.346755 0.915688 0.134699
0.412393 0.915052 0.133720
0.476613 0.914431 0.132761
0.539643 0.913822 0.131821
0.601640 0.912352 0.130815
0.662764 0.910730 0.129802
0.723116 0.909126 0.128796
0.782779 0.907538 0.127797
0.841263 0.905963 0.126803
0.897528 0.904401 0.125814
0.951972 0.903396 0.133239
1.000000 0.902645 0.140895
0.003840 0.956164 0.162626
0.074692 0.960291 0.151382
0.141873 0.963186 0.141491
0.214058 0.962589 0.140573
0.283109 0.962019 0.139694
0.349920 0.961468 0.138843
0.414998 0.960933 0.138015
0.478670 0.960410 0.137205
0.541162 0.959898 0.136409
0.602641 0.959395 0.135627
0.663225 0.958442 0.134803
0.723032 0.957451 0.133981
0.782143 0.956470 0.133166
0.840085 0.955498 0.132358
0.895557 0.954536 0.131554
0.950379 0.953580 0.130755
1.000000 0.952631 0.138880
0.004541 1.000000 0.168042
0.081623 1.000000 0.156317
0.147495 1.000000 0.146044
0.219072 1.000000 0.145286
0.287541 1.000000 0.144561
0.353789 1.000000 0.143859
0.418319 1.000000 0.143175
0.481454 1.000000 0.142507
0.543420 1.000000 0.141850
0.604380 1.000000 0.141205
0.664462 1.000000 0.140568
0.723764 1.000000 0.139940
0.782365 1.000000 0.139319
0.839784 1.000000 0.138705
0.894525 1.000000 0.138097
0.948607 1.000000 0.137495
1.000000 1.000000 0.136905
0.000000 0.010195 0.284466
0.093760 0.010403 0.280937
0.174041 0.010579 0.278010
0.252882 0.010744 0.275277
0.325090 0.010894 0.270447
0.393499 0.011036 0.266170
0.458759 0.011171 0.262378
0.521295 0.011302 0.259025
0.581408 0.011427 0.256077
0.639324 0.011548 0.253510
0.695219 0.011665 0.251302
0.749235 0.011778 0.249436
0.801486 0.011887 0.247899
0.852070 0.011994 0.246677
0.901070 0.012097 0.245762
0.948555 0.012197 0.245142
0.994589 0.012294 0.244811
0.000000 0.102039 0.272674
