library/luts/fresh_nature.cube
# CrabbyCut preset LUT — sinh bởi scripts/generate_preset_luts.js
TITLE "Xanh tươi"
LUT_3D_SIZE 5
0.000000 0.010000 0.015000
0.327325 0.010714 0.013929
0.582741 0.011255 0.013118
0.801969 0.011719 0.012422
0.994252 0.012126 0.011811
0.000000 0.363836 0.011231
0.298503 0.315693 0.010785
0.565554 0.309788 0.010005
0.795722 0.309455 0.009283
0.998537 0.313819 0.008597
0.000000 0.604008 0.008673
0.282829 0.591547 0.007908
0.551476 0.566362 0.007328
0.790651 0.562430 0.006616
1.000000 0.563352 0.005939
0.001476 0.818018 0.006393
0.287065 0.815687 0.005517
0.544770 0.809757 0.004768
0.785915 0.798665 0.004125
1.000000 0.796373 0.003457
0.004304 1.000000 0.004272
0.305128 1.000000 0.003317
0.553943 1.000000 0.002527
0.786292 1.000000 0.001789
1.000000 1.000000 0.001083
0.000000 0.010247 0.357007
0.324458 0.010947 0.346143
0.581033 0.011478 0.328423
0.801352 0.011937 0.317116
0.994685 0.012342 0.311037
0.000000 0.321800 0.320710
0.295541 0.312546 0.310057
0.576642 0.304355 0.300550
0.819937 0.301892 0.296856
0.998815 0.304144 0.298125
0.000000 0.595183 0.295833
0.268510 0.594702 0.276319
0.550861 0.565566 0.268567
0.803176 0.559511 0.273893
1.000000 0.558352 0.283753
0.001875 0.817228 0.292440
0.263258 0.824134 0.265447
0.533987 0.814636 0.258784
0.787523 0.800082 0.252449
1.000000 0.795738 0.270331
0.004737 1.000000 0.303498
0.272358 1.000000 0.269670
0.534080 1.000000 0.265371
0.778481 1.000000 0.261357
1.000000 1.000000 0.257528
0.000000 0.010432 0.612236
0.311316 0.011106 0.604883
0.579635 0.011670 0.598791
0.800851 0.012122 0.575793
0.995042 0.012521 0.558530
0.000000 0.316702 0.587661
0.292939 0.309764 0.595592
0.574039 0.301574 0.586085
0.818245 0.300021 0.570691
0.999178 0.303146 0.560764
0.000000 0.573301 0.567299
0.267157 0.570975 0.563609
0.548258 0.562785 0.554102
0.811414 0.554959 0.545047
1.000000 0.552068 0.541207
0.002180 0.812612 0.550577
0.261556 0.818204 0.538872
0.522952 0.816536 0.522774
0.786742 0.799122 0.514583
1.000000 0.793065 0.518737
0.005094 1.000000 0.550991
0.271554 1.000000 0.532299
0.515527 1.000000 0.510428
0.769897 1.000000 0.503704
1.000000 1.000000 0.497285
0.000000 0.010588 0.827973
0.300779 0.011241 0.823893
0.559130 0.011786 0.820510
0.800384 0.012295 0.817352
0.995376 0.012688 0.789645
0.000000 0.313699 0.814324
0.292269 0.308928 0.839072
0.563439 0.303418 0.832596
0.816665 0.298274 0.826405
0.999516 0.302215 0.806022
0.000000 0.566687 0.803011
0.275507 0.566547 0.816642
0.545767 0.560127 0.821516
0.808923 0.552301 0.812461
1.000000 0.550228 0.798163
0.002390 0.802933 0.792446
0.259855 0.807118 0.795198
0.521095 0.804290 0.791053
0.784251 0.796464 0.781997
1.000000 0.788811 0.773326
0.005428 1.000000 0.782106
0.270803 1.000000 0.777549
0.513879 1.000000 0.767369
0.760146 1.000000 0.752622
1.000000 1.000000 0.743778
0.000000 0.010722 1.000000
0.292268 0.011359 1.000000
0.541083 0.011886 1.000000
0.773432 0.012377 1.000000
0.995696 0.012848 1.000000
0.000000 0.312415 1.000000
0.293158 0.309688 1.000000
0.554835 0.306746 1.000000
0.799194 0.303998 1.000000
0.999793 0.301300 1.000000
0.000000 0.561948 1.000000
0.285041 0.563880 1.000000
0.544903 0.559140 1.000000
0.799197 0.553713 1.000000
1.000000 0.548439 1.000000
0.002582 0.794969 1.000000
0.277462 0.801251 1.000000
0.528317 0.800109 1.000000
0.781782 0.793861 1.000000
1.000000 0.786219 1.000000
0.005748 1.000000 1.000000
0.270071 1.000000 1.000000
0.512285 1.000000 1.000000
0.757756 1.000000 1.000000
1.000000 1.000000 1.000000
