library/luts/honey_light.cube
# CrabbyCut preset LUT — sinh bởi scripts/generate_preset_luts.js
TITLE "Mật nhạt"
LUT_3D_SIZE 5
0.144828 0.126828 0.073639
0.385809 0.152809 0.092340
0.613717 0.165717 0.100673
0.837530 0.174530 0.105758
0.937336 0.176768 0.106419
0.195071 0.392071 0.107081
0.415674 0.397674 0.109627
0.658133 0.397833 0.085221
0.895375 0.394751 0.080748
0.990080 0.389292 0.075075
0.208111 0.620111 0.111070
0.424453 0.621453 0.110267
0.639960 0.621960 0.108813
0.880180 0.619880 0.060466
0.993362 0.612421 0.053010
0.209498 0.836498 0.105936
0.423422 0.835422 0.103257
0.636793 0.833793 0.100154
0.849663 0.831663 0.096668
0.996170 0.829038 0.026008
0.201551 0.975722 0.093990
0.415441 0.980456 0.091010
0.627988 0.980348 0.092896
0.839632 0.977602 0.097486
0.979187 0.974780 0.102031
0.157562 0.139562 0.284554
0.390836 0.157836 0.299654
0.617058 0.169058 0.308051
0.839909 0.176909 0.313244
0.939257 0.178546 0.313442
0.197183 0.394183 0.314579
0.417190 0.399190 0.317070
0.635720 0.402720 0.318156
0.853066 0.405066 0.318119
0.956525 0.403362 0.314928
0.208668 0.620668 0.317865
0.424713 0.621713 0.316590
0.639963 0.621963 0.314559
0.877984 0.617684 0.280735
0.993666 0.610085 0.271404
0.209198 0.836198 0.310739
0.422928 0.834928 0.307264
0.636124 0.833124 0.303281
0.848834 0.830834 0.298837
0.996430 0.826161 0.237483
0.201216 0.977351 0.295903
0.414982 0.982020 0.292087
0.626719 0.979343 0.286713
0.838066 0.976482 0.280974
0.978196 0.973549 0.274907
0.165143 0.147143 0.505989
0.395150 0.162150 0.517983
0.620024 0.172024 0.525099
0.842038 0.179038 0.529497
0.941140 0.180146 0.529176
0.199073 0.396073 0.530605
0.418537 0.400537 0.532580
0.636638 0.403638 0.533259
0.853632 0.405632 0.532886
0.958114 0.403748 0.529497
0.209119 0.621119 0.532524
0.424881 0.621881 0.530980
0.639885 0.621885 0.528715
0.854222 0.621222 0.525817
0.972569 0.618364 0.521197
0.208830 0.835830 0.524619
0.422372 0.834372 0.520965
0.635398 0.832398 0.516821
0.847954 0.829954 0.512230
0.996685 0.823237 0.476094
0.200837 0.978959 0.509647
0.413930 0.981181 0.505313
0.625518 0.978381 0.499802
0.836746 0.975493 0.493949
0.977395 0.972541 0.487776
0.171110 0.153110 0.725889
0.398913 0.165913 0.735789
0.622669 0.174669 0.741843
0.843944 0.180944 0.745538
0.942989 0.181582 0.744754
0.200763 0.397763 0.746441
0.419728 0.401728 0.747941
0.637429 0.404429 0.748240
0.854090 0.406090 0.747551
0.959678 0.404046 0.743982
0.209470 0.621470 0.747086
0.424963 0.621963 0.745287
0.639731 0.621731 0.742798
0.853859 0.620859 0.739702
0.973907 0.617964 0.735011
0.208396 0.835396 0.738436
0.421757 0.833757 0.734611
0.634619 0.831619 0.730310
0.847024 0.829024 0.725576
0.984384 0.826009 0.720443
0.200417 0.980543 0.723349
0.412814 0.980241 0.718481
0.624276 0.977408 0.712851
0.835387 0.974497 0.706887
0.976593 0.971528 0.700610
0.174661 0.156661 0.853126
0.400786 0.167786 0.860492
0.623616 0.175616 0.867457
0.844286 0.181286 0.874158
0.944052 0.181584 0.877931
0.200934 0.397934 0.876547
0.419523 0.401523 0.882994
0.636949 0.403949 0.889300
0.853408 0.405408 0.895487
0.960737 0.403342 0.899621
0.208728 0.620728 0.897714
0.424091 0.621091 0.903768
0.638768 0.620768 0.909738
0.852838 0.619838 0.915634
0.975020 0.617065 0.920525
0.207361 0.834361 0.917764
0.420700 0.832700 0.923571
0.633562 0.830562 0.929320
0.845985 0.827985 0.935015
0.983623 0.824896 0.933614
0.200019 0.982059 0.937006
0.411653 0.979290 0.931608
0.622994 0.976427 0.925862
0.833991 0.973494 0.919790
0.975790 0.970510 0.913411
