library/luts/honey_light.cube
# CrabbyCut preset LUT — sinh bởi scripts/generate_preset_luts.js
TITLE "Mật nhạt"
LUT_3D_SIZE 9
0.144828 0.126828 0.073639
0.268914 0.143414 0.085840
0.385809 0.152809 0.092340
0.500451 0.159951 0.097052
0.613717 0.165717 0.100673
0.726002 0.170502 0.103516
0.837530 0.174530 0.105758
0.925547 0.177944 0.107515
0.937336 0.176768 0.106419
0.180183 0.269683 0.098476
0.293059 0.275059 0.101787
0.410548 0.278649 0.098354
0.533199 0.279724 0.094991
0.651977 0.280765 0.094801
0.770270 0.281320 0.094229
0.888143 0.281455 0.093328
0.960721 0.281222 0.092139
0.977800 0.278575 0.089800
0.195071 0.392071 0.107081
0.305602 0.395102 0.108535
0.415674 0.397674 0.109627
0.533296 0.399265 0.095840
0.658133 0.397833 0.085221
0.777885 0.396435 0.083095
0.895375 0.394751 0.080748
0.966301 0.392808 0.078201
0.990080 0.389292 0.075075
0.203548 0.508048 0.110616
0.312748 0.509748 0.111021
0.421645 0.511145 0.111187
0.530266 0.512266 0.111138
0.647201 0.513170 0.089851
0.771227 0.510927 0.074433
0.889900 0.508450 0.071475
0.960707 0.505773 0.068364
0.991786 0.501831 0.064790
0.208111 0.620111 0.111070
0.316394 0.620894 0.110756
0.424453 0.621453 0.110267
0.532304 0.621804 0.109615
0.639960 0.621960 0.108813
0.756617 0.622586 0.080386
0.880180 0.619880 0.060466
0.954425 0.616623 0.056915
0.993362 0.612421 0.053010
0.209882 0.729382 0.109340
0.317472 0.729472 0.108486
0.424884 0.729384 0.107494
0.532130 0.729130 0.106374
0.639220 0.728720 0.105133
0.746161 0.728161 0.103777
0.862758 0.728727 0.068417
0.947761 0.725752 0.044168
0.994821 0.721407 0.040016
0.209498 0.836498 0.105936
0.316533 0.836033 0.104652
0.423422 0.835422 0.103257
0.530173 0.834673 0.101755
0.636793 0.833793 0.100154
0.743288 0.832788 0.098456
0.849663 0.831663 0.096668
0.937719 0.832307 0.054513
0.996170 0.829038 0.026008
0.207367 0.921370 0.101184
0.313941 0.920847 0.099547
0.420392 0.920268 0.097816
0.526725 0.919639 0.095996
0.632946 0.918964 0.094090
0.739060 0.918248 0.092103
0.845069 0.917495 0.090037
0.930724 0.916760 0.092055
0.988340 0.917439 0.048360
0.201551 0.975722 0.093990
0.308542 0.978113 0.092536
0.415441 0.980456 0.091010
0.522027 0.981684 0.090583
0.627988 0.980348 0.092896
0.733855 0.978986 0.095197
0.839632 0.977602 0.097486
0.928975 0.976199 0.099764
0.979187 0.974780 0.102031
0.152612 0.134612 0.172735
0.272459 0.146959 0.183335
0.388426 0.155426 0.190248
0.502538 0.162038 0.195398
0.615439 0.167439 0.199397
0.727447 0.171947 0.202547
0.838753 0.175753 0.205030
0.926211 0.178983 0.206966
0.938301 0.177680 0.205512
0.182124 0.271624 0.196967
0.294671 0.276671 0.200630
0.406406 0.280906 0.203521
0.517490 0.284490 0.205793
0.628034 0.287534 0.207552
0.738116 0.290116 0.208872
0.847798 0.292298 0.209811
0.931024 0.294125 0.210414
0.947386 0.291988 0.208077
0.196156 0.393156 0.206488
0.306524 0.396024 0.208080
0.416454 0.398454 0.209256
0.531502 0.399604 0.202771
0.652071 0.398596 0.196706
0.769036 0.397824 0.194730
0.885725 0.396775 0.192491
0.957714 0.395474 0.190013
0.981624 0.392177 0.186415
0.204161 0.508661 0.210281
0.313255 0.510255 0.210662
0.422055 0.511555 0.210764
0.530589 0.512589 0.210612
0.646827 0.512796 0.192584
0.770409 0.510109 0.178497
0.889012 0.507562 0.174799
0.960098 0.504822 0.170916
0.991950 0.500847 0.166503
0.208403 0.620403 0.210498
0.316608 0.621108 0.210034
0.424595 0.621595 0.209362
0.532378 0.621878 0.208498
0.639972 0.621972 0.207453
0.755954 0.621923 0.180680
0.879091 0.618791 0.161071
0.953765 0.615482 0.156648
0.993515 0.611261 0.151824
0.209933 0.729433 0.208138
0.317461 0.729461 0.207030
0.424816 0.729316 0.205758
0.532008 0.729008 0.204331
0.639046 0.728546 0.202758
0.745939 0.727939 0.201047
0.861874 0.727843 0.165729
0.947077 0.724454 0.141961
0.994962 0.720101 0.137746
0.209357 0.836357 0.203775
0.316341 0.835841 0.202151
0.423183 0.835183 0.200391
0.529888 0.834388 0.198502
0.636465 0.833465 0.196491
0.742919 0.832419 0.194362
0.849255 0.831255 0.192122
0.937228 0.831245 0.148385
0.996301 0.827605 0.123447
0.207067 0.921199 0.197784
0.313598 0.920656 0.195729
0.420009 0.920060 0.193560
0.526303 0.919415 0.191280
0.632487 0.918725 0.188895
0.738565 0.917996 0.186409
0.844540 0.917231 0.183827
0.930494 0.916435 0.181150
0.987594 0.916718 0.132336
0.201389 0.976539 0.189015
0.308349 0.978914 0.187182
0.415217 0.981241 0.185260
0.521461 0.981207 0.182863
0.627303 0.979820 0.180154
0.733052 0.978407 0.177355
0.838711 0.976973 0.174472
0.928560 0.975520 0.171505
0.978595 0.974051 0.168459
0.157562 0.139562 0.284554
0.275611 0.150111 0.293445
0.390836 0.157836 0.299654
0.504488 0.163988 0.304366
0.617058 0.169058 0.308051
0.728811 0.173311 0.310958
0.839909 0.176909 0.313244
0.926837 0.179965 0.315014
0.939257 0.178546 0.313442
0.183942 0.273442 0.305811
0.296191 0.278191 0.309190
0.407690 0.282190 0.311856
0.518580 0.285580 0.313944
0.628959 0.288459 0.315546
0.738899 0.290899 0.316731
0.848456 0.292956 0.317552
0.931365 0.294672 0.318049
0.948259 0.292482 0.315651
0.197183 0.394183 0.314579
0.307395 0.396895 0.316023
0.417190 0.399190 0.317070
0.526618 0.401118 0.317768
0.635720 0.402720 0.318156
0.744527 0.404027 0.318265
0.853066 0.405066 0.318119
0.933678 0.405861 0.317740
0.956525 0.403362 0.314928
0.204737 0.509237 0.317944
0.313728 0.510728 0.318227
0.422435 0.511935 0.318240
0.530883 0.512883 0.318007
0.644594 0.512695 0.310251
0.763946 0.510471 0.303030
0.879795 0.508583 0.299993
0.953242 0.506505 0.296776
0.985124 0.502869 0.292687
0.208668 0.620668 0.317865
0.316797 0.621297 0.317329
0.424713 0.621713 0.316590
0.532430 0.621930 0.315662
0.639963 0.621963 0.314559
0.755271 0.621240 0.295647
0.877984 0.617684 0.280735
0.953102 0.614324 0.276264
0.993666 0.610085 0.271404
0.209963 0.729463 0.315281
0.317431 0.729431 0.314116
0.424729 0.729229 0.312791
0.531868 0.728868 0.311313
0.638856 0.728356 0.309692
0.745700 0.727700 0.307936
0.860975 0.726944 0.280490
0.946390 0.723142 0.260244
0.995102 0.718780 0.255075
0.209198 0.836198 0.310739
0.316133 0.835633 0.309068
0.422928 0.834928 0.307264
0.529589 0.834089 0.305333
0.636124 0.833124 0.303281
0.742537 0.832037 0.301114
0.848834 0.830834 0.298837
0.936736 0.830171 0.262980
0.996430 0.826161 0.237483
0.206752 0.921021 0.304599
0.313242 0.920459 0.302505
0.419612 0.919846 0.300298
0.525869 0.919185 0.297982
0.632016 0.918482 0.295562
0.738058 0.917740 0.293043
0.844000 0.916964 0.290428
0.930307 0.916157 0.287721
0.986887 0.916066 0.243535
0.201216 0.977351 0.295903
0.308144 0.979710 0.294039
0.414982 0.982020 0.292087
0.520909 0.980739 0.289453
0.626719 0.979343 0.286713
0.732437 0.977923 0.283886
0.838066 0.976482 0.280974
0.928356 0.975023 0.277980
0.978196 0.973549 0.274907
0.161623 0.143623 0.395529
0.278460 0.152960 0.403268
0.393070 0.160070 0.408891
0.506315 0.165815 0.413217
0.618585 0.170585 0.416616
0.730100 0.174600 0.419298
0.841003 0.178003 0.421399
0.927427 0.180894 0.423012
0.940203 0.179367 0.421330
0.185651 0.275151 0.414549
0.297625 0.279625 0.417667
0.408904 0.283404 0.420125
0.519611 0.286611 0.422038
0.629834 0.289334 0.423492
0.739638 0.291638 0.424549
0.849075 0.293575 0.425255
0.931683 0.295184 0.425650
0.949125 0.292946 0.423196
0.198154 0.395154 0.422617
0.308218 0.397718 0.423920
0.417884 0.399884 0.424844
0.527197 0.401697 0.425433
0.636195 0.403195 0.425723
0.744909 0.404409 0.425742
0.853363 0.405363 0.425515
0.933821 0.406079 0.425062
0.957323 0.403566 0.422223
0.205277 0.509777 0.425572
0.314168 0.511168 0.425760
0.422785 0.512285 0.425687
0.531150 0.513150 0.425375
0.639284 0.513784 0.424844
0.747205 0.514205 0.424110
0.854927 0.514427 0.423187
0.934544 0.514464 0.422088
0.964891 0.511949 0.419104
0.208907 0.620907 0.425207
0.316961 0.621461 0.424600
0.424808 0.621808 0.423795
0.532462 0.621962 0.422807
0.639934 0.621934 0.421647
0.752736 0.620838 0.413028
0.871240 0.617765 0.405000
0.947897 0.615080 0.401206
0.988335 0.611306 0.396794
0.209972 0.729472 0.422404
0.317381 0.729381 0.421184
0.424624 0.729124 0.419805
0.531710 0.728710 0.418278
0.638649 0.728149 0.416611
0.745447 0.727447 0.414809
0.860061 0.726029 0.395237
0.945703 0.721816 0.379699
0.995241 0.717447 0.374503
0.209023 0.836023 0.417687
0.315909 0.835409 0.415970
0.422658 0.834658 0.414122
0.529275 0.833775 0.412149
0.635768 0.832768 0.410058
0.742141 0.831641 0.407853
0.848400 0.830400 0.405540
0.936243 0.829084 0.377563
0.996558 0.824705 0.356794
0.206423 0.920836 0.411401
0.312871 0.920257 0.409268
0.419202 0.919627 0.407023
0.525421 0.918951 0.404672
0.631533 0.918234 0.402218
0.737540 0.917481 0.399665
0.843449 0.916693 0.397019
0.930118 0.915877 0.394281
0.986179 0.915414 0.357981
0.201032 0.978158 0.402780
0.307929 0.980500 0.400886
0.414472 0.981646 0.398713
0.520345 0.980268 0.396032
0.626124 0.978863 0.393263
0.731811 0.977435 0.390406
0.837411 0.975988 0.387466
0.928152 0.974524 0.384445
0.977796 0.973046 0.381346
0.165143 0.147143 0.505989
0.281065 0.155565 0.512858
0.395150 0.162150 0.517983
0.508031 0.167531 0.521963
0.620024 0.172024 0.525099
0.731319 0.175819 0.527571
0.842038 0.179038 0.529497
0.927983 0.181772 0.530962
0.941140 0.180146 0.529176
0.187258 0.276758 0.523191
0.298979 0.280979 0.526069
0.410052 0.284552 0.528331
0.520586 0.287586 0.530080
0.630661 0.290161 0.531393
0.740335 0.292335 0.532326
0.849657 0.294157 0.532923
0.931980 0.295662 0.533219
0.949983 0.293380 0.530712
0.199073 0.396073 0.530605
0.308996 0.398496 0.531774
0.418537 0.400537 0.532580
0.527739 0.402239 0.533064
0.636638 0.403638 0.533259
0.745261 0.404761 0.533192
0.853632 0.405632 0.532886
0.933950 0.406271 0.532360
0.958114 0.403748 0.529497
0.205782 0.510282 0.533167
0.314577 0.511577 0.533263
0.423106 0.512606 0.533107
0.531390 0.513390 0.532719
0.639450 0.513950 0.532117
0.747302 0.514302 0.531317
0.854960 0.514460 0.530333
0.934557 0.514437 0.529177
0.965623 0.511933 0.526188
0.209119 0.621119 0.532524
0.317102 0.621602 0.531848
0.424881 0.621881 0.530980
0.532472 0.621972 0.529932
0.639885 0.621885 0.528715
0.747132 0.621632 0.527341
0.854222 0.621222 0.525817
0.934213 0.620664 0.524153
0.972569 0.618364 0.521197
0.209960 0.729460 0.529508
0.317312 0.729312 0.528233
0.424501 0.729001 0.526803
0.531536 0.728536 0.525227
0.638426 0.727926 0.523513
0.745178 0.727178 0.521668
0.857298 0.725400 0.512402
0.942060 0.721680 0.503759
0.991283 0.717909 0.499140
0.208830 0.835830 0.524619
0.315669 0.835169 0.522857
0.422372 0.834372 0.520965
0.528947 0.833447 0.518952
0.635398 0.832398 0.516821
0.741732 0.831232 0.514579
0.847954 0.829954 0.512230
0.935749 0.827986 0.492135
0.996685 0.823237 0.476094
0.206079 0.920645 0.518189
0.312487 0.920048 0.516018
0.418780 0.919402 0.513736
0.524962 0.918712 0.511349
0.631037 0.917982 0.508862
0.737011 0.917217 0.506277
0.842886 0.916419 0.503599
0.929927 0.915593 0.500831
0.985473 0.914762 0.472417
0.200837 0.978959 0.509647
0.307704 0.981284 0.507723
0.413930 0.981181 0.505313
0.519771 0.979793 0.502602
0.625518 0.978381 0.499802
0.731176 0.976946 0.496917
0.836746 0.975493 0.493949
0.927946 0.974024 0.490901
0.977395 0.972541 0.487776
0.168276 0.150276 0.616081
0.283465 0.157965 0.622254
0.397092 0.164092 0.626944
0.509645 0.169145 0.630612
0.621384 0.173384 0.633507
0.732471 0.176971 0.635782
0.843018 0.180018 0.637543
0.928507 0.182603 0.638866
0.942069 0.180884 0.636984
0.188773 0.278273 0.631746
0.300259 0.282259 0.634400
0.411138 0.285638 0.636478
0.521509 0.288509 0.638072
0.631441 0.290941 0.639250
0.740991 0.292991 0.640064
0.850202 0.294702 0.640556
0.932257 0.296107 0.640757
0.950835 0.293786 0.638200
0.199942 0.396942 0.638546
0.309730 0.399230 0.639586
0.419151 0.401151 0.640278
0.528247 0.402747 0.640661
0.637049 0.404049 0.640764
0.745584 0.405084 0.640614
0.853874 0.405874 0.640231
0.934065 0.406439 0.639634
0.958899 0.403908 0.636750
0.206253 0.510753 0.640729
0.314955 0.511955 0.640738
0.423399 0.512899 0.640500
0.531605 0.513605 0.640038
0.639592 0.514092 0.639367
0.747377 0.514377 0.638503
0.854972 0.514472 0.637459
0.934560 0.514389 0.636247
0.966349 0.511899 0.633255
0.209307 0.621307 0.639817
0.317219 0.621719 0.639074
0.424933 0.621933 0.638143
0.532462 0.621962 0.637037
0.639817 0.621817 0.635766
0.747010 0.621510 0.634340
0.854049 0.621049 0.632768
0.934137 0.620442 0.631057
0.973241 0.618171 0.628111
0.209929 0.729429 0.636593
0.317224 0.729224 0.635264
0.424360 0.728860 0.633784
0.531345 0.728345 0.632160
0.638187 0.727687 0.630401
0.744893 0.726893 0.628513
0.851471 0.725971 0.626502
0.933068 0.724925 0.624375
0.979616 0.723008 0.621590
0.208621 0.835621 0.631535
0.315413 0.834913 0.629728
0.422072 0.834072 0.627795
0.528604 0.833104 0.625741
0.635015 0.832015 0.623572
0.741311 0.830811 0.621293
0.847495 0.829495 0.618909
0.934328 0.827175 0.609127
0.993189 0.822935 0.599990
0.205721 0.920448 0.624965
0.312090 0.919834 0.622755
0.418344 0.919172 0.620437
0.524489 0.918468 0.618016
0.630530 0.917726 0.615495
0.736470 0.916949 0.612878
0.842313 0.916142 0.610169
0.929734 0.915307 0.607371
0.984768 0.914109 0.586844
0.200632 0.979754 0.616503
0.307469 0.982063 0.614550
0.413378 0.980713 0.611902
0.519186 0.979316 0.609161
0.624903 0.977896 0.606332
0.730530 0.976455 0.603418
0.836072 0.974996 0.600423
0.927740 0.973522 0.597348
0.976994 0.972035 0.594197
0.171110 0.153110 0.725889
0.285689 0.160189 0.731483
0.398913 0.165913 0.735789
0.511167 0.170667 0.739173
0.622669 0.174669 0.741843
0.733562 0.178062 0.743933
0.843944 0.180944 0.745538
0.929000 0.183387 0.746726
0.942989 0.181582 0.744754
0.190202 0.279702 0.740219
0.301469 0.283469 0.742665
0.412166 0.286666 0.744570
0.522381 0.289381 0.746016
0.632178 0.291678 0.747065
0.741608 0.293608 0.747765
0.850711 0.295211 0.748155
0.932514 0.296520 0.748265
0.951679 0.294163 0.745662
0.200763 0.397763 0.746441
0.310421 0.399921 0.747358
0.419728 0.401728 0.747941
0.528720 0.403220 0.748226
0.637429 0.404429 0.748240
0.745878 0.405378 0.748009
0.854090 0.406090 0.747551
0.934166 0.406583 0.746886
0.959678 0.404046 0.743982
0.206692 0.511192 0.748261
0.315303 0.512303 0.748183
0.423664 0.513164 0.747867
0.531794 0.513794 0.747332
0.639711 0.514211 0.746594
0.747430 0.514430 0.745668
0.854963 0.514463 0.744566
0.934554 0.514323 0.743299
0.967069 0.511848 0.740305
0.209470 0.621470 0.747086
0.317313 0.621813 0.746278
0.424963 0.621963 0.745287
0.532432 0.621932 0.744123
0.639731 0.621731 0.742798
0.746870 0.621370 0.741322
0.853859 0.620859 0.739702
0.934055 0.620205 0.737946
0.973907 0.617964 0.735011
0.209878 0.729378 0.743659
0.317118 0.729118 0.742278
0.424201 0.728701 0.740748
0.531137 0.728137 0.739078
0.637932 0.727432 0.737274
0.744594 0.726594 0.735344
0.851129 0.725629 0.733293
0.932932 0.724543 0.731127
0.980232 0.722668 0.728363
0.208396 0.835396 0.738436
0.315142 0.834642 0.736586
0.421757 0.833757 0.734611
0.528248 0.832748 0.732517
0.634619 0.831619 0.730310
0.740876 0.830376 0.727995
0.847024 0.829024 0.725576
0.931377 0.827567 0.723057
0.984384 0.826009 0.720443
0.205350 0.920245 0.731727
0.311679 0.919614 0.729480
0.417896 0.918938 0.727126
0.524005 0.918220 0.724671
0.630011 0.917466 0.722117
0.735918 0.916678 0.719468
0.841729 0.915861 0.716729
0.929539 0.915018 0.713902
0.983184 0.913630 0.703693
0.200417 0.980543 0.723349
0.306942 0.981621 0.721163
0.412814 0.980241 0.718481
0.518591 0.978836 0.715710
0.624276 0.977408 0.712851
0.729874 0.975961 0.709910
0.835387 0.974497 0.706887
0.927532 0.973018 0.703787
0.976593 0.971528 0.700610
0.173703 0.155703 0.835468
0.287761 0.162261 0.840567
0.400623 0.167623 0.844529
0.512602 0.172102 0.847652
0.623884 0.175884 0.850112
0.734594 0.179094 0.852029
0.844820 0.181820 0.853485
0.929464 0.184126 0.854544
0.943901 0.182243 0.852487
0.191552 0.281052 0.848617
0.302614 0.284614 0.850868
0.413139 0.287639 0.852609
0.523205 0.290205 0.853914
0.632873 0.292373 0.854840
0.742188 0.294188 0.855431
0.851187 0.295687 0.855722
0.932753 0.296902 0.855743
0.952516 0.294513 0.853097
0.201538 0.398538 0.854292
0.311072 0.400572 0.855092
0.420268 0.402268 0.855570
0.529161 0.403661 0.855760
0.637779 0.404779 0.855688
0.746146 0.405646 0.855378
0.854281 0.406281 0.854848
0.934255 0.406703 0.854115
0.960451 0.404163 0.851194
0.207099 0.511599 0.855763
0.315623 0.512623 0.855602
0.423903 0.513403 0.855209
0.531959 0.513959 0.854604
0.639807 0.514307 0.853800
0.747461 0.514461 0.852813
0.854934 0.514434 0.851654
0.934538 0.514238 0.850333
0.967784 0.511779 0.847339
0.209609 0.621609 0.854333
0.317385 0.621885 0.853462
0.424972 0.621972 0.852410
0.532382 0.621882 0.851191
0.639626 0.621626 0.849814
0.746713 0.621213 0.848287
0.853652 0.620652 0.846620
0.933966 0.619951 0.844820
0.974569 0.617742 0.841898
0.209807 0.729307 0.850707
0.316993 0.728993 0.849275
0.424026 0.728526 0.847696
0.530913 0.727913 0.845980
0.637662 0.727162 0.844132
0.744280 0.726280 0.842160
0.850774 0.725274 0.840070
0.932792 0.724148 0.837866
0.980843 0.722316 0.835125
0.208155 0.835155 0.845322
0.314856 0.834356 0.843429
0.421428 0.833428 0.841413
0.527877 0.832377 0.839280
0.634209 0.831209 0.837036
0.740429 0.829929 0.834685
0.846541 0.828541 0.832232
0.931202 0.827049 0.829680
0.984005 0.825458 0.827034
0.204965 0.920036 0.838476
0.311256 0.919389 0.836192
0.417436 0.918699 0.833804
0.523509 0.917968 0.831314
0.629481 0.917202 0.828728
0.735355 0.916404 0.826048
0.841134 0.915578 0.823278
0.929342 0.914726 0.820422
0.980149 0.913852 0.817483
0.200191 0.981327 0.830186
0.306400 0.981155 0.827763
0.412239 0.979767 0.825050
0.517985 0.978354 0.822248
0.623640 0.976919 0.819362
0.729209 0.975465 0.816392
0.834694 0.973996 0.813343
0.927324 0.972513 0.810216
0.976192 0.971019 0.807015
0.174661 0.156661 0.853126
0.288251 0.162751 0.856873
0.400786 0.167786 0.860492
0.512521 0.172021 0.864014
0.623616 0.175616 0.867457
0.734178 0.178678 0.870835
0.844286 0.181286 0.874158
0.929077 0.183499 0.877433
0.944052 0.181584 0.877931
0.191397 0.280897 0.865276
0.302287 0.284287 0.868694
0.412677 0.287177 0.872051
0.522635 0.289635 0.875356
0.632216 0.291716 0.878614
0.741463 0.293463 0.881832
0.850410 0.294910 0.885013
0.932266 0.296084 0.888161
0.952726 0.293720 0.888899
0.200934 0.397934 0.876547
0.310389 0.399889 0.879790
0.419523 0.401523 0.882994
0.528367 0.402867 0.886163
0.636949 0.403949 0.889300
0.745289 0.404789 0.892407
0.853408 0.405408 0.895487
0.933753 0.405821 0.898543
0.960737 0.403342 0.899621
0.206290 0.510790 0.887309
0.314782 0.511782 0.890434
0.423039 0.512539 0.893532
0.531081 0.513081 0.896603
0.638923 0.513423 0.899649
0.746578 0.513578 0.902673
0.854058 0.513558 0.905675
0.934072 0.513374 0.908657
0.968153 0.511004 0.910151
0.208728 0.620728 0.897714
0.316501 0.621001 0.900752
0.424091 0.621091 0.903768
0.531510 0.621010 0.906763
0.638768 0.620768 0.909738
0.745875 0.620375 0.912695
0.852838 0.619838 0.915634
0.933574 0.619165 0.918557
0.975020 0.617065 0.920525
0.208940 0.728440 0.907848
0.316142 0.728142 0.910817
0.423196 0.727696 0.913767
0.530109 0.727109 0.916700
0.636888 0.726388 0.919617
0.743540 0.725540 0.922518
0.850070 0.724570 0.925405
0.932502 0.723485 0.928277
0.981375 0.721778 0.930767
0.207361 0.834361 0.917764
0.314093 0.833593 0.920675
0.420700 0.832700 0.923571
0.527188 0.831688 0.926452
0.633562 0.830562 0.929320
0.739826 0.829326 0.932174
0.845985 0.827985 0.935015
0.931025 0.826520 0.936292
0.983623 0.824896 0.933614
0.204291 0.919643 0.927498
0.310624 0.919034 0.930360
0.416850 0.918382 0.933210
0.522972 0.917693 0.936046
0.628940 0.916934 0.935328
0.734781 0.916126 0.932617
0.840529 0.915291 0.929818
0.929144 0.914431 0.926933
0.979752 0.913551 0.923966
0.200019 0.982059 0.937006
0.305847 0.980687 0.934351
0.411653 0.979290 0.931608
0.517368 0.977869 0.928778
0.622994 0.976427 0.925862
0.728534 0.974968 0.922865
0.833991 0.973494 0.919790
0.927116 0.972007 0.916637
0.975790 0.970510 0.913411
