library/luts/honey_light.cube
# CrabbyCut preset LUT — sinh bởi scripts/generate_preset_luts.js
TITLE "Mật nhạt"
LUT_3D_SIZE 17
0.144828 0.126828 0.073639
0.208850 0.137100 0.081307
0.268914 0.143414 0.085840
0.327740 0.148490 0.089390
0.385809 0.152809 0.092340
0.443338 0.156588 0.094861
0.500451 0.159951 0.097052
0.557225 0.162975 0.098975
0.613717 0.165717 0.100673
0.669966 0.168216 0.102178
0.726002 0.170502 0.103516
0.781851 0.172601 0.104704
0.837530 0.174530 0.105758
0.890250 0.176307 0.106692
0.925547 0.177944 0.107515
0.937432 0.177833 0.107265
0.937336 0.176768 0.106419
0.168136 0.203886 0.090522
0.225989 0.207989 0.093301
0.284043 0.211493 0.094937
0.342972 0.214273 0.095986
0.402845 0.216397 0.096503
0.461649 0.218411 0.097471
0.519832 0.220286 0.098464
0.577813 0.221957 0.099296
0.635613 0.223448 0.099985
0.693251 0.224776 0.100546
0.750741 0.225956 0.100990
0.808095 0.227002 0.101328
0.865325 0.227922 0.101567
0.909304 0.228728 0.101716
0.944915 0.229426 0.101780
0.959069 0.228880 0.101150
0.958983 0.227473 0.100035
0.180183 0.269683 0.098476
0.236747 0.272497 0.100231
0.293059 0.275059 0.101787
0.350641 0.277291 0.100428
0.410548 0.278649 0.098354
0.472800 0.279154 0.095583
0.533199 0.279724 0.094991
0.592654 0.280310 0.094947
0.651977 0.280765 0.094801
0.711180 0.281098 0.094559
0.770270 0.281320 0.094229
0.829255 0.281437 0.093817
0.888143 0.281455 0.093328
0.924744 0.281382 0.092767
0.960721 0.281222 0.092139
0.977858 0.280267 0.091141
0.977800 0.278575 0.089800
0.188703 0.331953 0.103631
0.244535 0.334035 0.104806
0.300200 0.335950 0.105849
0.355714 0.337714 0.106772
0.413230 0.339347 0.102302
0.473978 0.339947 0.096986
0.537967 0.339521 0.090831
0.599461 0.339161 0.088966
0.659754 0.338879 0.088228
0.719951 0.338501 0.087415
0.780058 0.338033 0.086532
0.840079 0.337479 0.085582
0.896319 0.336846 0.084570
0.932716 0.336136 0.083499
0.968704 0.335354 0.082372
0.989209 0.334071 0.081064
0.989175 0.332138 0.079533
0.195071 0.392071 0.107081
0.250398 0.393648 0.107857
0.305602 0.395102 0.108535
0.360691 0.396441 0.109123
0.415674 0.397674 0.109627
0.472852 0.398970 0.103142
0.533296 0.399265 0.095840
0.597010 0.398565 0.087724
0.658133 0.397833 0.085221
0.718046 0.397171 0.084187
0.777885 0.396435 0.083095
0.837652 0.395627 0.081948
0.895375 0.394751 0.080748
0.931035 0.393811 0.079498
0.966301 0.392808 0.078201
0.990117 0.391424 0.076762
0.990080 0.389292 0.075075
0.199902 0.450652 0.109316
0.254848 0.451848 0.109791
0.309696 0.452946 0.110188
0.364453 0.453953 0.110514
0.419123 0.454873 0.110772
0.473712 0.455712 0.110965
0.530673 0.456790 0.102566
0.590919 0.456888 0.093367
0.654454 0.456009 0.083372
0.715291 0.454991 0.080299
0.774903 0.454028 0.079031
0.834453 0.453003 0.077717
0.893945 0.451920 0.076357
0.929038 0.450780 0.074954
0.963614 0.449587 0.073509
0.990988 0.448139 0.071965
0.990950 0.445833 0.070141
0.203548 0.508048 0.110616
0.258188 0.508938 0.110850
0.312748 0.509748 0.111021
0.367233 0.510483 0.111132
0.421645 0.511145 0.111187
0.475988 0.511738 0.111188
0.530266 0.512266 0.111138
0.587084 0.513202 0.100888
0.647201 0.513170 0.089851
0.710619 0.512174 0.078029
0.771227 0.510927 0.074433
0.830589 0.509714 0.072973
0.889900 0.508450 0.071475
0.926793 0.507136 0.069938
0.960707 0.505773 0.068364
0.991826 0.504292 0.066734
0.991786 0.501831 0.064790
0.206232 0.564482 0.111159
0.260619 0.565119 0.111194
0.314938 0.565688 0.111176
0.369193 0.566193 0.111107
0.423385 0.566635 0.110990
0.477519 0.567019 0.110827
0.531595 0.567345 0.110619
0.585617 0.567617 0.110368
0.642344 0.568461 0.098313
0.702378 0.568347 0.085479
0.765722 0.567277 0.071870
0.826141 0.565841 0.067783
0.885291 0.564416 0.066161
0.924356 0.562947 0.064506
0.957630 0.561434 0.062819
0.990543 0.559880 0.061099
0.992589 0.557345 0.059067
0.208111 0.620111 0.111070
0.262282 0.620532 0.110936
0.316394 0.620894 0.110756
0.370451 0.621201 0.110532
0.424453 0.621453 0.110267
0.478403 0.621653 0.109961
0.532304 0.621804 0.109615
0.586155 0.621905 0.109232
0.639960 0.621960 0.108813
0.696631 0.622749 0.094985
0.756617 0.622586 0.080386
0.819919 0.621474 0.065018
0.880180 0.619880 0.060466
0.921772 0.618271 0.058705
0.954425 0.616623 0.056915
0.986723 0.614937 0.055096
0.993362 0.612421 0.053010
0.209299 0.675049 0.110440
0.263282 0.675282 0.110160
0.317214 0.675464 0.109839
0.371096 0.675596 0.109480
0.424931 0.675681 0.109084
0.478719 0.675719 0.108652
0.532463 0.675713 0.108185
0.586163 0.675663 0.107684
0.639821 0.675571 0.107152
0.693438 0.675438 0.106587
0.750082 0.676199 0.091012
0.810045 0.676014 0.074673
0.873330 0.674884 0.057570
0.919078 0.673154 0.052571
0.951126 0.671383 0.050688
0.982826 0.669578 0.048779
0.994106 0.667097 0.046651
0.209882 0.729382 0.109340
0.263700 0.729450 0.108931
0.317472 0.729472 0.108486
0.371199 0.729449 0.108007
0.424884 0.729384 0.107494
0.478527 0.729277 0.106950
0.532130 0.729130 0.106374
0.585694 0.728944 0.105768
0.639220 0.728720 0.105133
0.692708 0.728458 0.104469
0.746161 0.728161 0.103777
0.802797 0.728914 0.086477
0.862758 0.728727 0.068417
0.915599 0.727600 0.049598
0.947761 0.725752 0.044168
0.978877 0.723836 0.042177
0.994821 0.721407 0.040016
0.209931 0.783181 0.107824
0.263600 0.783100 0.107300
0.317228 0.782978 0.106744
0.370817 0.782817 0.106157
0.424367 0.782617 0.105540
0.477879 0.782379 0.104894
0.531354 0.782104 0.104220
0.584794 0.781794 0.103519
0.638198 0.781448 0.102790
0.691569 0.781069 0.102036
0.744907 0.780657 0.101257
0.798213 0.780213 0.100452
0.854860 0.780977 0.081444
0.910285 0.780804 0.061680
0.943652 0.779694 0.041162
0.974900 0.777743 0.035314
0.995509 0.775379 0.033128
0.209498 0.836498 0.105936
0.263034 0.836284 0.105308
0.316533 0.836033 0.104652
0.369995 0.835745 0.103968
0.423422 0.835422 0.103257
0.476814 0.835064 0.102519
0.530173 0.834673 0.101755
0.583499 0.834249 0.100967
0.636793 0.833793 0.100154
0.690056 0.833306 0.099317
0.743288 0.832788 0.098456
0.796490 0.832240 0.097573
0.849663 0.831663 0.096668
0.906335 0.832452 0.075966
0.937719 0.832307 0.054513
0.970210 0.831227 0.032310
0.996170 0.829038 0.026008
0.208631 0.887489 0.103712
0.262046 0.887440 0.102991
0.315426 0.887375 0.102244
0.368772 0.887292 0.101471
0.422087 0.887194 0.100673
0.475369 0.887080 0.099852
0.528621 0.886871 0.099006
0.581842 0.886342 0.098138
0.635034 0.885784 0.097246
0.688196 0.885196 0.096333
0.741331 0.884581 0.095399
0.794437 0.883937 0.094443
0.847517 0.883267 0.093467
0.900570 0.882570 0.092470
0.933417 0.883395 0.070088
0.963706 0.883288 0.046959
0.995340 0.882259 0.024315
0.207367 0.921370 0.101184
0.260670 0.921116 0.100377
0.313941 0.920847 0.099547
0.367182 0.920564 0.098693
0.420392 0.920268 0.097816
0.473573 0.919959 0.096917
0.526725 0.919639 0.095996
0.579850 0.919307 0.095053
0.632946 0.918964 0.094090
0.686016 0.918611 0.093106
0.739060 0.918248 0.092103
0.792077 0.917876 0.091080
0.845069 0.917495 0.090037
0.898073 0.917129 0.090898
0.930724 0.916760 0.092055
0.958873 0.917380 0.070490
0.988340 0.917439 0.048360
0.205739 0.954066 0.098376
0.258938 0.953616 0.097491
0.312109 0.953155 0.096584
0.365251 0.952682 0.095655
0.418365 0.952199 0.094705
0.471452 0.951705 0.093734
0.524512 0.951201 0.092743
0.577546 0.950689 0.091733
0.630554 0.950167 0.090702
0.683547 0.949643 0.090161
0.736548 0.949129 0.091320
0.789525 0.948608 0.092476
0.842479 0.948081 0.093629
0.895409 0.947547 0.094779
0.929871 0.947007 0.095926
0.955628 0.946461 0.097070
0.982980 0.946957 0.074273
0.201551 0.975722 0.093990
0.255059 0.976924 0.093272
0.308542 0.978113 0.092536
0.362003 0.979291 0.091782
0.415441 0.980456 0.091010
0.468857 0.981609 0.090221
0.522027 0.981684 0.090583
0.575019 0.981020 0.091741
0.627988 0.980348 0.092896
0.680933 0.979670 0.094048
0.733855 0.978986 0.095197
0.786755 0.978297 0.096343
0.839632 0.977602 0.097486
0.892488 0.976903 0.098627
0.928975 0.976199 0.099764
0.954228 0.975491 0.100899
0.979187 0.974780 0.102031
0.149500 0.131500 0.121857
0.211189 0.139439 0.127655
0.270744 0.145244 0.131764
0.329278 0.150028 0.135064
0.387145 0.154145 0.137837
0.444522 0.157772 0.140220
0.501513 0.161013 0.142297
0.558186 0.163936 0.144123
0.614591 0.166591 0.145736
0.670765 0.169015 0.147166
0.726735 0.171235 0.148436
0.782524 0.173274 0.149684
0.838150 0.175150 0.150900
0.890679 0.176878 0.151975
0.925884 0.178471 0.152922
0.937919 0.178332 0.152588
0.937820 0.177230 0.151530
0.169593 0.205343 0.136126
0.227266 0.209266 0.138744
0.284492 0.212742 0.141008
0.341361 0.215861 0.142988
0.397931 0.218681 0.144733
0.454249 0.221249 0.146277
0.510345 0.223595 0.147646
0.566247 0.225747 0.148861
0.621975 0.227725 0.150144
0.677546 0.229546 0.151307
0.732973 0.231223 0.152334
0.788269 0.232769 0.153236
0.843444 0.234194 0.154023
0.894382 0.235506 0.154704
0.928734 0.236713 0.155284
0.942611 0.236379 0.154727
0.942487 0.234955 0.153360
0.181169 0.270669 0.143649
0.237644 0.273394 0.145317
0.293877 0.275877 0.146794
0.350588 0.278038 0.147350
0.408371 0.279672 0.147477
0.467246 0.280798 0.147191
0.525168 0.281931 0.147446
0.582561 0.283015 0.147799
0.639827 0.283971 0.148051
0.696976 0.284810 0.148210
0.754014 0.285539 0.148284
0.810950 0.286166 0.148277
0.867791 0.286697 0.148195
0.911000 0.287138 0.148043
0.945737 0.287493 0.147823
0.962566 0.286798 0.147028
0.962464 0.285096 0.145681
0.189430 0.332680 0.148545
0.245204 0.334704 0.149802
0.300815 0.336565 0.151005
0.356280 0.338280 0.152068
0.413102 0.339752 0.149695
0.472318 0.340419 0.146913
0.533939 0.340292 0.143633
0.593756 0.340281 0.142570
0.652672 0.340328 0.142088
0.711494 0.340282 0.141533
0.770228 0.340147 0.140908
0.828879 0.339929 0.140219
0.887450 0.339632 0.139469
0.924303 0.339260 0.138660
0.959451 0.338816 0.137796
0.979821 0.337738 0.136643
0.979755 0.335795 0.135106
0.195621 0.392621 0.152422
0.250905 0.394155 0.153314
0.306069 0.395569 0.154090
0.361121 0.396871 0.154761
0.416070 0.398070 0.155333
0.473062 0.399179 0.149422
0.533321 0.399289 0.143572
0.596852 0.398407 0.137053
0.657917 0.397617 0.134839
0.717804 0.396929 0.133770
0.777618 0.396168 0.132643
0.837362 0.395337 0.131462
0.895259 0.394439 0.130230
0.930847 0.393477 0.128948
0.966041 0.392454 0.127620
0.990207 0.391062 0.126159
0.990170 0.388911 0.124460
0.200319 0.451069 0.154980
0.255231 0.452231 0.155518
0.310048 0.453298 0.155964
0.364775 0.454275 0.156326
0.419417 0.455167 0.156607
0.473979 0.455979 0.156812
0.530761 0.456878 0.148576
0.590829 0.456798 0.140945
0.654187 0.455742 0.132548
0.714971 0.454671 0.129769
0.774562 0.453687 0.128470
0.834092 0.452642 0.127125
0.893564 0.451539 0.125735
0.928821 0.450381 0.124303
0.963329 0.449169 0.122829
0.991074 0.447717 0.121263
0.991036 0.445394 0.119430
0.203859 0.508359 0.156437
0.258472 0.509222 0.156690
0.313006 0.510006 0.156868
0.367465 0.510715 0.156975
0.421854 0.511354 0.157015
0.476175 0.511925 0.156991
0.530431 0.512431 0.156905
0.587075 0.513192 0.146729
0.647018 0.512986 0.137292
0.710262 0.511817 0.127070
0.770821 0.510521 0.123771
0.830165 0.509290 0.122283
0.889459 0.508009 0.120756
0.926555 0.506678 0.119192
0.960403 0.505300 0.117592
0.991908 0.503817 0.115940
0.991868 0.501342 0.113987
0.206456 0.564706 0.156998
0.260819 0.565319 0.157014
0.315116 0.565866 0.156966
0.369350 0.566350 0.156859
0.423522 0.566772 0.156693
0.477636 0.567136 0.156472
0.531694 0.567444 0.156197
0.585697 0.567697 0.155872
0.642252 0.568370 0.144030
0.702116 0.568085 0.132797
0.765290 0.566844 0.120788
0.825662 0.565362 0.117000
0.884797 0.563922 0.115353
0.924101 0.562438 0.113672
0.957311 0.560911 0.111959
0.990161 0.559343 0.110214
0.992669 0.556809 0.108177
0.208260 0.620260 0.156805
0.262411 0.620661 0.156619
0.316504 0.621004 0.156378
0.370542 0.621292 0.156085
0.424527 0.621527 0.155741
0.478460 0.621710 0.155348
0.532343 0.621843 0.154908
0.586179 0.621929 0.154422
0.639969 0.621969 0.153893
0.696471 0.622588 0.140589
0.756288 0.622257 0.127591
0.819422 0.620977 0.113824
0.879638 0.619338 0.109572
0.921504 0.617715 0.107786
0.954095 0.616055 0.105972
0.986333 0.614356 0.104129
0.993439 0.611843 0.102037
0.209384 0.675134 0.155965
0.263349 0.675349 0.155603
0.317264 0.675514 0.155193
0.371130 0.675630 0.154736
0.424949 0.675699 0.154234
0.478722 0.675722 0.153689
0.532451 0.675701 0.153102
0.586136 0.675636 0.152474
0.639781 0.675531 0.151806
0.693384 0.675384 0.151100
0.749860 0.675978 0.136511
0.809657 0.675626 0.121772
0.872775 0.674330 0.106270
0.918801 0.672557 0.101572
0.950788 0.670774 0.099666
0.982429 0.668957 0.097735
0.994180 0.666481 0.095599
0.209911 0.729411 0.154558
0.263712 0.729462 0.154041
0.317469 0.729469 0.153480
0.371182 0.729432 0.152878
0.424853 0.729353 0.152235
0.478482 0.729232 0.151554
0.532071 0.729071 0.150834
0.585622 0.728872 0.150078
0.639135 0.728635 0.149285
0.692611 0.728361 0.148458
0.746052 0.728052 0.147597
0.802523 0.728640 0.131877
0.862318 0.728287 0.115417
0.915333 0.726994 0.098199
0.947419 0.725105 0.093070
0.978476 0.723179 0.091058
0.994892 0.720756 0.088887
0.209908 0.783158 0.152649
0.263563 0.783063 0.151992
0.317178 0.782928 0.151296
0.370753 0.782753 0.150563
0.424290 0.782540 0.149793
0.477789 0.782289 0.148988
0.531253 0.782003 0.148148
0.584680 0.781680 0.147310
0.638073 0.781323 0.146560
0.691433 0.780933 0.145785
0.744760 0.780510 0.144984
0.798054 0.780054 0.144159
0.854537 0.780654 0.126751
0.910100 0.780317 0.108586
0.943324 0.779043 0.089668
0.974497 0.777052 0.084122
0.995577 0.774695 0.081926
0.209430 0.836430 0.150287
0.262953 0.836203 0.149504
0.316439 0.835939 0.148686
0.369889 0.835639 0.147834
0.423304 0.835304 0.147040
0.476685 0.834935 0.146281
0.530033 0.834533 0.145496
0.583348 0.834098 0.144687
0.636631 0.833631 0.143853
0.689883 0.833133 0.142996
0.743105 0.832605 0.142115
0.796298 0.832048 0.141212
0.849461 0.831461 0.140287
0.905969 0.832087 0.121185
0.937474 0.831777 0.101330
0.969825 0.830534 0.080725
0.996236 0.828323 0.074734
0.208521 0.887474 0.147516
0.261924 0.887420 0.146767
0.315292 0.887349 0.145998
0.368628 0.887261 0.145204
0.421931 0.887157 0.144386
0.475203 0.887038 0.143544
0.528444 0.886694 0.142678
0.581656 0.886156 0.141789
0.634837 0.885587 0.140878
0.687990 0.884990 0.139945
0.741115 0.884365 0.138991
0.794213 0.883713 0.138016
0.847283 0.883033 0.137021
0.900327 0.882327 0.136005
0.933251 0.882990 0.115221
0.963404 0.882720 0.093689
0.994899 0.881519 0.071410
0.207219 0.921285 0.144909
0.260511 0.921026 0.144082
0.313772 0.920752 0.143231
0.367002 0.920465 0.142357
0.420202 0.920165 0.141460
0.473373 0.919852 0.140541
0.526516 0.919527 0.139600
0.579631 0.919192 0.138639
0.632718 0.918845 0.137656
0.685779 0.918489 0.136653
0.738814 0.918123 0.135631
0.791823 0.917748 0.134589
0.844806 0.917364 0.133528
0.897765 0.916972 0.132449
0.930587 0.916572 0.131351
0.958602 0.917083 0.108898
0.987949 0.917043 0.085699
0.205555 0.953915 0.142033
0.258745 0.953461 0.141128
0.311905 0.952996 0.140201
0.365038 0.952519 0.139253
0.418143 0.952032 0.138283
0.471221 0.951535 0.137293
0.524272 0.951028 0.136283
0.577297 0.950512 0.135254
0.630297 0.949988 0.134205
0.683271 0.949455 0.133137
0.736221 0.948915 0.132051
0.789147 0.948368 0.130947
0.842050 0.947813 0.129826
0.894929 0.947253 0.128686
0.929646 0.946686 0.127530
0.955348 0.946114 0.126357
0.982604 0.946525 0.102244
0.201471 0.976131 0.137675
0.254971 0.977329 0.136936
0.308447 0.978515 0.136179
0.361900 0.979688 0.135404
0.415330 0.980849 0.134612
0.468739 0.981998 0.133802
0.521733 0.981440 0.132744
0.574674 0.980752 0.131652
0.627591 0.980057 0.130541
0.680485 0.979356 0.129413
0.733356 0.978649 0.128267
0.786204 0.977936 0.127105
0.839030 0.977218 0.125926
0.891834 0.976495 0.124731
0.928661 0.975768 0.123519
0.953872 0.975037 0.122292
0.978795 0.974302 0.121050
0.152612 0.134612 0.172735
0.213312 0.141562 0.178773
0.272459 0.146959 0.183335
0.330740 0.151490 0.187074
0.388426 0.155426 0.190248
0.445662 0.158912 0.192994
0.502538 0.162038 0.195398
0.559116 0.164866 0.197518
0.615439 0.167439 0.199397
0.671540 0.169790 0.201065
0.727447 0.171947 0.202547
0.783179 0.173929 0.203864
0.838753 0.175753 0.205030
0.891096 0.177434 0.206060
0.926211 0.178983 0.206966
0.938403 0.178818 0.206604
0.938301 0.177680 0.205512
0.170983 0.206733 0.188286
0.228492 0.210492 0.191292
0.285588 0.213838 0.193905
0.342349 0.216849 0.196200
0.398830 0.219580 0.198228
0.455069 0.222069 0.200027
0.511097 0.224347 0.201625
0.566938 0.226438 0.203045
0.622610 0.228360 0.204305
0.678131 0.230131 0.205420
0.733512 0.231762 0.206404
0.788766 0.233266 0.207266
0.843902 0.234652 0.208016
0.894707 0.235927 0.208661
0.928978 0.237101 0.209210
0.943072 0.236753 0.208636
0.942946 0.235300 0.207242
0.182124 0.271624 0.196967
0.238512 0.274262 0.198908
0.294671 0.276671 0.200630
0.350629 0.278879 0.202161
0.406406 0.280906 0.203521
0.462022 0.282772 0.204727
0.517490 0.284490 0.205793
0.572824 0.286074 0.206731
0.628034 0.287534 0.207552
0.683128 0.288878 0.208263
0.738116 0.290116 0.208872
0.793004 0.291254 0.209386
0.847798 0.292298 0.209811
0.897524 0.293253 0.210152
0.931024 0.294125 0.210414
0.947530 0.293700 0.209720
0.947386 0.291988 0.208077
0.190137 0.333387 0.202675
0.245853 0.335353 0.203977
0.301414 0.337164 0.205131
0.356832 0.338832 0.206149
0.412807 0.340257 0.206131
0.469921 0.341221 0.205658
0.528182 0.341734 0.204739
0.585537 0.342300 0.204519
0.642405 0.342859 0.204456
0.699182 0.343326 0.204306
0.755872 0.343706 0.204073
0.812480 0.344005 0.203763
0.869010 0.344226 0.203379
0.911977 0.344373 0.202926
0.945906 0.344451 0.202405
0.965897 0.343695 0.201326
0.965785 0.341748 0.199457
0.196156 0.393156 0.206488
0.251398 0.394648 0.207340
0.306524 0.396024 0.208080
0.361540 0.397290 0.208716
0.416454 0.398454 0.209256
0.472763 0.399414 0.206396
0.531502 0.399604 0.202771
0.592675 0.399028 0.198385
0.652071 0.398596 0.196706
0.710590 0.398246 0.195752
0.769036 0.397824 0.194730
0.827414 0.397332 0.193642
0.885725 0.396775 0.192491
0.923345 0.396155 0.191281
0.957714 0.395474 0.190013
0.981694 0.394334 0.188485
0.981624 0.392177 0.186415
0.200725 0.451475 0.208923
0.255604 0.452604 0.209429
0.310389 0.453639 0.209846
0.365087 0.454587 0.210180
0.419702 0.455452 0.210435
0.474238 0.456238 0.210615
0.530840 0.456957 0.204334
0.590731 0.456699 0.197078
0.653912 0.455467 0.188852
0.714644 0.454344 0.185857
0.774213 0.453338 0.184263
0.833724 0.452274 0.182612
0.893177 0.451152 0.180907
0.928602 0.449975 0.179150
0.963043 0.448746 0.177342
0.991160 0.447289 0.175426
0.991121 0.444951 0.173181
0.204161 0.508661 0.210281
0.258747 0.509497 0.210509
0.313255 0.510255 0.210662
0.367690 0.510940 0.210746
0.422055 0.511555 0.210764
0.476354 0.512104 0.210718
0.530589 0.512589 0.210612
0.587058 0.513175 0.202079
0.646827 0.512796 0.192584
0.709899 0.511454 0.182128
0.770409 0.510109 0.178497
0.829736 0.508861 0.176672
0.889012 0.507562 0.174799
0.926315 0.506216 0.172880
0.960098 0.504822 0.170916
0.991991 0.503337 0.168894
0.991950 0.500847 0.166503
0.206672 0.564922 0.210760
0.261013 0.565513 0.210755
0.315288 0.566038 0.210687
0.369500 0.566500 0.210559
0.423652 0.566902 0.210374
0.477747 0.567247 0.210135
0.531786 0.567536 0.209842
0.585772 0.567772 0.209500
0.642155 0.568273 0.198760
0.701848 0.567817 0.187067
0.764852 0.566407 0.174421
0.825178 0.564878 0.170191
0.884298 0.563423 0.168169
0.923845 0.561924 0.166105
0.956992 0.560383 0.164002
0.989779 0.558802 0.161860
0.992748 0.556269 0.159370
0.208403 0.620403 0.210498
0.262534 0.620784 0.210293
0.316608 0.621108 0.210034
0.370628 0.621378 0.209723
0.424595 0.621595 0.209362
0.478511 0.621761 0.208953
0.532378 0.621878 0.208498
0.586198 0.621948 0.207997
0.639972 0.621972 0.207453
0.696305 0.622422 0.194540
0.755954 0.621923 0.180680
0.818920 0.620475 0.165873
0.879091 0.618791 0.161071
0.921236 0.617156 0.158877
0.953765 0.615482 0.156648
0.985942 0.613771 0.154383
0.993515 0.611261 0.151824
0.209463 0.675213 0.209598
0.263411 0.675411 0.209219
0.317309 0.675559 0.208793
0.371159 0.675659 0.208321
0.424962 0.675712 0.207804
0.478719 0.675719 0.207244
0.532433 0.675683 0.206643
0.586105 0.675605 0.206002
0.639735 0.675485 0.205321
0.693326 0.675326 0.204602
0.749635 0.675752 0.189541
0.809265 0.675233 0.173538
0.872216 0.673771 0.156593
0.918523 0.671955 0.151239
0.950451 0.670160 0.148894
0.982032 0.668332 0.146678
0.994253 0.665861 0.144534
0.209933 0.729433 0.208138
0.263720 0.729470 0.207605
0.317461 0.729461 0.207030
0.371160 0.729410 0.206414
0.424816 0.729316 0.205758
0.478432 0.729182 0.205064
0.532008 0.729008 0.204331
0.585546 0.728796 0.203563
0.639046 0.728546 0.202758
0.692510 0.728260 0.201919
0.745939 0.727939 0.201047
0.802244 0.728361 0.183858
0.861874 0.727843 0.165729
0.915067 0.726385 0.146787
0.947077 0.724454 0.141961
0.978076 0.722517 0.139926
0.994962 0.720101 0.137746
0.209880 0.783130 0.206180
0.263522 0.783022 0.205510
0.317123 0.782873 0.204801
0.370685 0.782685 0.204056
0.424209 0.782459 0.203274
0.477696 0.782196 0.202457
0.531147 0.781897 0.201606
0.584563 0.781563 0.200721
0.637945 0.781195 0.199804
0.691293 0.780793 0.198855
0.744609 0.780359 0.197876
0.797893 0.779893 0.196866
0.854211 0.780328 0.177564
0.909915 0.779827 0.157326
0.942996 0.778388 0.138161
0.974095 0.776357 0.132918
0.995645 0.774008 0.130711
0.209357 0.836357 0.203775
0.262868 0.836118 0.202980
0.316341 0.835841 0.202151
0.369779 0.835529 0.201287
0.423183 0.835183 0.200391
0.476552 0.834802 0.199462
0.529888 0.834388 0.198502
0.583193 0.833943 0.197511
0.636465 0.833465 0.196491
0.689707 0.832957 0.195441
0.742919 0.832419 0.194362
0.796102 0.831852 0.193256
0.849255 0.831255 0.192122
0.905600 0.831717 0.170720
0.937228 0.831245 0.148385
0.969440 0.829839 0.129128
0.996301 0.827605 0.123447
0.208407 0.887458 0.200965
0.261798 0.887398 0.200056
0.315155 0.887321 0.199116
0.368480 0.887227 0.198145
0.421772 0.887118 0.197143
0.475034 0.886994 0.196112
0.528265 0.886515 0.195052
0.581466 0.885966 0.193963
0.634638 0.885388 0.192846
0.687781 0.884781 0.191703
0.740897 0.884147 0.190533
0.793985 0.883485 0.189337
0.847046 0.882796 0.188116
0.900082 0.882082 0.186869
0.933084 0.882581 0.163378
0.963102 0.882149 0.140409
0.994461 0.880786 0.119726
0.207067 0.921199 0.197784
0.260348 0.920934 0.196771
0.313598 0.920656 0.195729
0.366818 0.920364 0.194658
0.420009 0.920060 0.193560
0.473170 0.919743 0.192433
0.526303 0.919415 0.191280
0.579409 0.919075 0.190101
0.632487 0.918725 0.188895
0.685539 0.918366 0.187665
0.738565 0.917996 0.186409
0.791565 0.917618 0.185130
0.844540 0.917231 0.183827
0.897491 0.916837 0.182500
0.930494 0.916435 0.181150
0.958379 0.916850 0.155579
0.987594 0.916718 0.132336
0.205368 0.953762 0.194262
0.258548 0.953304 0.193153
0.311699 0.952835 0.192017
0.364822 0.952355 0.190854
0.417918 0.951864 0.189665
0.470986 0.951364 0.188450
0.524028 0.950854 0.187211
0.577045 0.950335 0.185946
0.630036 0.949808 0.184658
0.683002 0.949273 0.183346
0.735944 0.948730 0.182011
0.788862 0.948180 0.180653
0.841756 0.947624 0.179273
0.894628 0.947061 0.177871
0.929548 0.946492 0.176448
0.955200 0.945918 0.175003
0.982330 0.946237 0.147359
0.201389 0.976539 0.189015
0.254880 0.977733 0.188110
0.308349 0.978914 0.187182
0.361794 0.980084 0.186232
0.415217 0.981241 0.185260
0.468503 0.981891 0.184183
0.521461 0.981207 0.182863
0.574394 0.980517 0.181519
0.627303 0.979820 0.180154
0.680189 0.979116 0.178765
0.733052 0.978407 0.177355
0.785893 0.977693 0.175924
0.838711 0.976973 0.174472
0.891508 0.976249 0.172999
0.928560 0.975520 0.171505
0.953721 0.974788 0.169992
0.978595 0.974051 0.168459
0.155236 0.137236 0.228786
0.215269 0.143519 0.234190
0.274077 0.148577 0.238431
0.332135 0.152885 0.241957
0.389655 0.156655 0.244973
0.446760 0.160010 0.247595
0.503529 0.163029 0.249897
0.560016 0.165766 0.251931
0.616261 0.168261 0.253735
0.672294 0.170544 0.255338
0.728139 0.172639 0.256762
0.783815 0.174565 0.258026
0.839339 0.176339 0.259145
0.891503 0.177974 0.260131
0.926528 0.179481 0.260996
0.938885 0.179292 0.260608
0.938780 0.178119 0.259483
0.172312 0.208062 0.243107
