library/luts/linen.cube
# CrabbyCut preset LUT — sinh bởi scripts/generate_preset_luts.js
TITLE "Vải lanh"
LUT_3D_SIZE 9
0.220810 0.206300 0.180810
0.318752 0.219334 0.193752
0.411940 0.227600 0.201940
0.503590 0.234322 0.208590
0.594291 0.240093 0.214291
0.684310 0.245181 0.219310
0.773801 0.249738 0.223801
0.845344 0.252188 0.226200
0.843991 0.247336 0.221360
0.250757 0.321516 0.210757
0.341187 0.327015 0.216187
0.443572 0.329842 0.204322
0.558864 0.328026 0.193664
0.666211 0.327037 0.192611
0.773215 0.325706 0.191215
0.879923 0.324077 0.189523
0.947728 0.322028 0.187415
0.947280 0.316089 0.181490
0.266795 0.422780 0.226795
0.355586 0.426636 0.230586
0.444052 0.430166 0.234052
0.550406 0.432083 0.196906
0.673809 0.427648 0.169009
0.786085 0.423785 0.165085
0.892543 0.419719 0.160958
0.965903 0.415467 0.156646
0.975643 0.409123 0.150308
0.278332 0.519531 0.238332
0.366181 0.522442 0.241181
0.453814 0.525136 0.243814
0.541251 0.527634 0.246251
0.648086 0.530029 0.190086
0.771492 0.525594 0.150492
0.882931 0.520959 0.145797
0.955357 0.516180 0.140960
0.979104 0.509788 0.134559
0.287093 0.613497 0.247093
0.374288 0.615753 0.249288
0.461323 0.617847 0.251323
0.548208 0.619791 0.253208
0.634955 0.621596 0.254955
0.742556 0.624756 0.180056
0.866209 0.620566 0.129009
0.944020 0.615369 0.123754
0.982454 0.609049 0.117411
0.293860 0.705464 0.253860
0.380558 0.707220 0.255558
0.467128 0.708849 0.257128
0.553579 0.710358 0.258579
0.639917 0.711753 0.259917
0.726148 0.713041 0.261148
0.834671 0.717121 0.167671
0.932089 0.713313 0.105307
0.985704 0.707153 0.099108
0.299079 0.795878 0.259079
0.385377 0.797234 0.260377
0.471570 0.798484 0.261570
0.557664 0.799634 0.262664
0.643663 0.800689 0.263663
0.729571 0.801654 0.264571
0.815393 0.802531 0.265393
0.910653 0.807627 0.153433
0.988863 0.804274 0.079825
0.303038 0.881253 0.263038
0.389004 0.882052 0.264004
0.474880 0.882784 0.264880
0.560671 0.883453 0.265671
0.646381 0.884063 0.266381
0.732063 0.884653 0.268500
0.817818 0.885293 0.274846
0.897337 0.885883 0.281171
0.966676 0.890187 0.160591
0.303260 0.936383 0.263260
0.390882 0.942065 0.265882
0.477346 0.944512 0.270813
0.563075 0.944973 0.277151
0.648734 0.945384 0.283468
0.734326 0.945747 0.289764
0.819853 0.946064 0.296039
0.898737 0.946337 0.302294
0.951888 0.946567 0.308531
0.226599 0.212124 0.271599
0.321773 0.222382 0.281773
0.414330 0.230015 0.289330
0.505615 0.236372 0.295615
0.596063 0.241889 0.301063
0.685889 0.246782 0.305889
0.775224 0.251184 0.310224
0.847918 0.253626 0.312615
0.846536 0.248671 0.307672
0.252681 0.323464 0.297681
0.342883 0.328734 0.302883
0.432519 0.333437 0.307519
0.521698 0.337682 0.311698
0.610497 0.341545 0.315497
0.698971 0.345083 0.318971
0.787162 0.348336 0.322162
0.872929 0.351130 0.324895
0.871320 0.345362 0.319141
0.268122 0.424129 0.313122
0.356797 0.427869 0.316797
0.445164 0.431299 0.320164
0.545831 0.432403 0.306581
0.659654 0.429113 0.294454
0.765717 0.426838 0.292117
0.871584 0.424365 0.289584
0.944417 0.421712 0.286870
0.954723 0.415689 0.280852
0.279325 0.520545 0.324325
0.367098 0.523380 0.327098
0.454663 0.526006 0.329663
0.542037 0.528440 0.332037
0.647406 0.529370 0.293906
0.769914 0.524036 0.265114
0.881370 0.519351 0.260370
0.954244 0.514526 0.255486
0.979447 0.508137 0.249087
0.287857 0.614282 0.332857
0.374996 0.616481 0.334996
0.461979 0.618523 0.336979
0.548816 0.620419 0.338816
0.635518 0.622179 0.340518
0.741669 0.623889 0.283669
0.864437 0.618814 0.243437
0.942840 0.613579 0.238144
0.982787 0.607272 0.231813
0.294451 0.706075 0.339451
0.381105 0.707787 0.341105
0.467634 0.709374 0.342634
0.554046 0.710844 0.344046
0.640347 0.712202 0.345347
0.726542 0.713455 0.346542
0.833624 0.716093 0.271124
0.930857 0.711409 0.219584
0.986027 0.705269 0.213404
0.299532 0.796351 0.344532
0.385794 0.797670 0.345794
0.471953 0.798886 0.346953
0.558014 0.800003 0.348014
0.643981 0.801027 0.348981
0.729860 0.801961 0.349860
0.815653 0.802810 0.350653
0.909924 0.806471 0.256758
0.988036 0.802263 0.193994
0.303376 0.881532 0.348376
0.389311 0.882308 0.349311
0.475158 0.883018 0.350158
0.560921 0.883667 0.350921
0.646604 0.884257 0.351604
0.732209 0.884791 0.352209
0.817740 0.885271 0.352740
0.897167 0.885700 0.353200
0.965633 0.889074 0.240892
0.304157 0.938317 0.349157
0.391758 0.943985 0.351758
0.477411 0.944542 0.352411
0.562916 0.944848 0.352916
0.648350 0.945104 0.353350
0.733716 0.945312 0.353716
0.819017 0.945475 0.354017
0.898086 0.945594 0.354254
0.951079 0.945670 0.354430
0.230559 0.216114 0.360559
0.324528 0.225163 0.369528
0.416578 0.232288 0.376578
0.507546 0.238326 0.382546
0.597763 0.243613 0.387763
0.687411 0.248327 0.392411
0.776600 0.252583 0.396600
0.850481 0.255027 0.398993
0.849073 0.249974 0.393952
0.254521 0.325326 0.384521
0.344515 0.330388 0.389515
0.433985 0.334925 0.393985
0.523028 0.339033 0.398028
0.611711 0.342781 0.401711
0.700085 0.346218 0.405085
0.788186 0.349383 0.408186
0.875412 0.352244 0.410987
0.873785 0.346409 0.405166
0.269407 0.425437 0.399407
0.357973 0.429066 0.402973
0.446244 0.432400 0.406244
0.534254 0.435473 0.409254
0.622033 0.438313 0.412033
0.709602 0.440944 0.414602
0.796981 0.443383 0.416981
0.883535 0.445646 0.419185
0.892506 0.440735 0.414276
0.280292 0.521533 0.410292
0.367992 0.524294 0.412992
0.455490 0.526853 0.415490
0.542803 0.529226 0.417803
0.642518 0.529376 0.403268
0.755472 0.525215 0.390272
0.860738 0.522140 0.387138
0.936831 0.518928 0.383868
0.961875 0.513220 0.378149
0.288602 0.615047 0.418602
0.375687 0.617192 0.420687
0.462619 0.619183 0.422619
0.549409 0.621032 0.424409
0.636066 0.622747 0.426066
0.740768 0.623007 0.387268
0.862652 0.617048 0.357852
0.941654 0.611776 0.352522
0.983118 0.605482 0.346203
0.295027 0.706671 0.425027
0.381638 0.708340 0.426638
0.468126 0.709886 0.428126
0.554500 0.711317 0.429500
0.640764 0.712639 0.430764
0.726926 0.713857 0.431926
0.832567 0.715055 0.374567
0.929621 0.709495 0.333850
0.986349 0.703375 0.327689
0.299972 0.796811 0.429972
0.386199 0.798094 0.431199
0.472324 0.799276 0.432324
0.558352 0.800361 0.433352
0.644289 0.801354 0.434289
0.730138 0.802259 0.435138
0.815903 0.803080 0.435903
0.909190 0.805306 0.360074
0.986690 0.800226 0.308139
0.303704 0.881803 0.433704
0.389608 0.882556 0.434608
0.475426 0.883245 0.435426
0.561162 0.883874 0.436162
0.646818 0.884445 0.436818
0.732398 0.884960 0.437398
0.817904 0.885422 0.437904
0.897281 0.885835 0.438340
0.964796 0.888211 0.344102
0.305047 0.940247 0.435047
0.392037 0.944312 0.437037
0.477590 0.944652 0.437590
0.563071 0.944941 0.438071
0.648482 0.945180 0.438482
0.733825 0.945373 0.438825
0.819104 0.945520 0.439104
0.898154 0.945624 0.439320
0.951091 0.945687 0.439476
0.233928 0.219511 0.448928
0.327077 0.227738 0.457077
0.418705 0.234439 0.463705
0.509391 0.240195 0.469391
0.599399 0.245271 0.474399
0.688881 0.249820 0.478881
0.777933 0.253937 0.482933
0.853035 0.256393 0.485336
0.851600 0.251246 0.480202
0.256283 0.327112 0.471283
0.346086 0.331982 0.476086
0.435402 0.336364 0.480402
0.524316 0.340344 0.484316
0.612889 0.343981 0.487889
0.701167 0.347322 0.491167
0.789184 0.350401 0.494184
0.876968 0.353247 0.496968
0.876244 0.347436 0.491171
0.270654 0.426705 0.485654
0.359115 0.430230 0.489115
0.447294 0.433471 0.492294
0.535223 0.436463 0.495223
0.622928 0.439229 0.497928
0.710431 0.441793 0.500431
0.797748 0.444170 0.502748
0.884034 0.446377 0.504896
0.894107 0.441581 0.500101
0.281233 0.522495 0.496233
0.368862 0.525185 0.498862
0.456295 0.527679 0.501295
0.543549 0.529993 0.503549
0.630638 0.532141 0.505638
0.717573 0.534136 0.507573
0.804367 0.535988 0.509367
0.888340 0.537707 0.511027
0.909681 0.534172 0.507480
0.289328 0.615794 0.504328
0.376360 0.617885 0.506360
0.463242 0.619826 0.508242
0.549986 0.621629 0.509986
0.636600 0.623301 0.511600
0.735663 0.622797 0.496413
0.848007 0.618023 0.482807
0.928264 0.614373 0.479100
0.968778 0.609140 0.473839
0.295588 0.707252 0.510588
0.382157 0.708879 0.512157
0.468605 0.710385 0.513605
0.554941 0.711778 0.514941
0.641170 0.713064 0.516170
0.727297 0.714248 0.517297
0.831499 0.714006 0.477999
0.928380 0.707570 0.448106
0.986670 0.701472 0.441965
0.300401 0.797258 0.515401
0.386592 0.798507 0.516592
0.472684 0.799655 0.517684
0.558681 0.800708 0.518681
0.644587 0.801671 0.519587
0.730407 0.802547 0.520407
0.816145 0.803340 0.521145
0.908451 0.804131 0.463381
0.985341 0.798182 0.422276
0.304021 0.882066 0.519021
0.389896 0.882797 0.519896
0.475685 0.883466 0.520685
0.561393 0.884074 0.521393
0.647023 0.884626 0.522023
0.732578 0.885123 0.522578
0.818060 0.885568 0.523060
0.897391 0.885963 0.523472
0.963956 0.887344 0.447304
0.305930 0.942171 0.520930
0.392233 0.944433 0.522233
0.477761 0.944756 0.522761
0.563218 0.945027 0.523218
0.648606 0.945251 0.523606
0.733927 0.945428 0.523927
0.819185 0.945560 0.524185
0.898217 0.945650 0.524380
0.951099 0.945699 0.524515
0.236932 0.222542 0.536932
0.329458 0.230144 0.544458
0.420725 0.236483 0.550725
0.511159 0.241986 0.556159
0.600974 0.246869 0.560974
0.690301 0.251262 0.565301
0.779225 0.255251 0.569225
0.855580 0.257726 0.571646
0.854120 0.252489 0.566422
0.257975 0.328828 0.557975
0.347601 0.333520 0.562601
0.436773 0.337758 0.566773
0.525565 0.341615 0.570565
0.614034 0.345147 0.574034
0.702219 0.348395 0.577219
0.790154 0.351392 0.580154
0.877864 0.354164 0.582864
0.878698 0.348441 0.577154
0.271863 0.427936 0.571863
0.360224 0.431360 0.575224
0.448315 0.434514 0.578315
0.536166 0.437426 0.581166
0.623800 0.440122 0.583800
0.711238 0.442620 0.586238
0.798496 0.444938 0.588496
0.884520 0.447091 0.590588
0.895704 0.442412 0.585910
0.282149 0.523432 0.582149
0.369709 0.526053 0.584709
0.457080 0.528484 0.587080
0.544276 0.530740 0.589276
0.631312 0.532835 0.591312
0.718198 0.534781 0.593198
0.804945 0.536586 0.594945
0.888717 0.538261 0.596562
0.911225 0.534865 0.593152
0.290035 0.616521 0.590035
0.377015 0.618560 0.592015
0.463850 0.620454 0.593850
0.550548 0.622211 0.595548
0.637120 0.623840 0.597120
0.723571 0.625349 0.598571
0.809910 0.626745 0.599910
0.891959 0.628034 0.601141
0.926264 0.626094 0.599172
0.296135 0.707818 0.596135
0.382662 0.709403 0.597662
0.469071 0.710870 0.599071
0.555370 0.712227 0.600370
0.641564 0.713477 0.601564
0.727658 0.714628 0.602658
0.826229 0.713630 0.586979
0.918957 0.708388 0.572906
0.975459 0.703744 0.568217
0.300817 0.797694 0.600817
0.386974 0.798908 0.601974
0.473033 0.800023 0.603033
0.558999 0.801045 0.603999
0.644875 0.801978 0.604875
0.730667 0.802825 0.605667
0.816377 0.803591 0.606377
0.907708 0.802948 0.566679
0.983990 0.796128 0.536404
0.304328 0.882322 0.604328
0.390173 0.883031 0.605173
0.475935 0.883679 0.605935
0.561616 0.884268 0.606616
0.647220 0.884800 0.607220
0.732749 0.885280 0.607749
0.818208 0.885708 0.608208
0.897495 0.886087 0.608597
0.963112 0.886473 0.550498
0.306807 0.944091 0.606807
0.392421 0.944549 0.607421
0.477924 0.944853 0.607924
0.563357 0.945108 0.608357
0.648722 0.945316 0.608722
0.734022 0.945477 0.609022
0.819258 0.945595 0.609258
0.898276 0.945671 0.609432
0.951103 0.945707 0.609547
0.239674 0.225311 0.624674
0.331699 0.232410 0.631699
0.422650 0.238432 0.637650
0.512856 0.243706 0.642856
0.602494 0.248411 0.647494
0.691675 0.252659 0.651675
0.780476 0.256525 0.655476
0.858115 0.259027 0.657925
0.856631 0.253704 0.652615
0.259603 0.330478 0.644603
0.349064 0.335006 0.649064
0.438100 0.339107 0.653100
0.526777 0.342848 0.656777
0.615145 0.346280 0.660145
0.703242 0.349440 0.663242
0.791099 0.352358 0.666099
0.878738 0.355058 0.668738
0.881145 0.349427 0.663118
0.273037 0.429131 0.658037
0.361303 0.432460 0.661303
0.449309 0.435529 0.664309
0.537083 0.438365 0.667083
0.624649 0.440991 0.669649
0.712024 0.443427 0.672024
0.799224 0.445687 0.674224
0.884993 0.447786 0.676264
0.897294 0.443227 0.671704
0.283041 0.524344 0.668041
0.370535 0.526899 0.670535
0.457845 0.529269 0.672845
0.544985 0.531469 0.674985
0.631968 0.533512 0.676968
0.718806 0.535409 0.678806
0.805508 0.537169 0.680508
0.889084 0.538802 0.682083
0.912765 0.535546 0.678811
0.290725 0.617231 0.675725
0.377654 0.619219 0.677654
0.464441 0.621065 0.679441
0.551096 0.622778 0.681096
0.637626 0.624366 0.682626
0.724038 0.625836 0.684038
0.810340 0.627195 0.685340
0.892241 0.628448 0.686536
0.927757 0.626663 0.684721
0.296667 0.708370 0.681667
0.383153 0.709914 0.683153
0.469524 0.711343 0.684524
0.555787 0.712663 0.685787
0.641947 0.713879 0.686947
0.728008 0.714997 0.688008
0.813976 0.716021 0.688976
0.894633 0.716956 0.689855
0.942317 0.716774 0.689626
0.301221 0.798117 0.686221
0.387344 0.799297 0.687344
0.473371 0.800381 0.688371
0.559306 0.801372 0.689306
0.645153 0.802275 0.690153
0.730917 0.803094 0.690917
0.816600 0.803833 0.691600
0.904318 0.802440 0.675527
0.974550 0.796820 0.661077
0.304624 0.882570 0.689624
0.390441 0.883258 0.690441
0.476175 0.883885 0.691175
0.561829 0.884455 0.691829
0.647408 0.884969 0.692408
0.732913 0.885431 0.692913
0.818348 0.885842 0.693348
0.897594 0.886205 0.693714
0.962265 0.885599 0.653685
0.309018 0.944448 0.692235
0.392600 0.944658 0.692600
0.478079 0.944945 0.693079
0.563489 0.945184 0.693489
0.648831 0.945376 0.693831
0.734109 0.945522 0.694109
0.819324 0.945626 0.694324
0.898331 0.945688 0.694478
0.951102 0.945710 0.694573
0.242213 0.227875 0.712213
0.333819 0.234554 0.718819
0.424491 0.240296 0.724491
0.514488 0.245361 0.729488
0.603961 0.249901 0.733961
0.693006 0.254011 0.738006
0.781691 0.257761 0.741691
0.860643 0.260298 0.744173
0.859135 0.254892 0.738781
0.261171 0.332069 0.731171
0.350479 0.336443 0.735479
0.439386 0.340415 0.739386
0.527954 0.344046 0.742954
0.616226 0.347382 0.746226
0.704238 0.350456 0.749238
0.792018 0.353298 0.752018
0.879588 0.355929 0.754588
0.882925 0.350394 0.749063
0.274177 0.430293 0.744177
0.362351 0.433530 0.747351
0.450276 0.436517 0.750276
0.537977 0.439279 0.752977
0.625476 0.441839 0.755476
0.712790 0.444213 0.757790
0.799934 0.446417 0.759934
0.885455 0.448464 0.761922
0.898879 0.444028 0.757483
0.283909 0.525234 0.753909
0.371339 0.527724 0.756339
0.458590 0.530035 0.758590
0.545675 0.532180 0.760675
0.632608 0.534172 0.762608
0.719399 0.536022 0.764399
0.806057 0.537738 0.766057
0.889442 0.539328 0.767590
0.914299 0.536214 0.764458
0.291396 0.617923 0.761396
0.378276 0.619862 0.763276
0.465018 0.621661 0.765018
0.551629 0.623331 0.766629
0.638118 0.624878 0.768118
0.724492 0.626309 0.769492
0.810757 0.627632 0.770757
0.892514 0.628851 0.771919
0.929246 0.627222 0.770259
0.297185 0.708908 0.767185
0.383631 0.710412 0.768631
0.469965 0.711803 0.769965
0.556192 0.713087 0.771192
0.642318 0.714270 0.772318
0.728347 0.715355 0.773347
0.814284 0.716349 0.774284
0.894838 0.717254 0.775134
0.943764 0.717240 0.775072
0.301613 0.798529 0.771613
0.387703 0.799676 0.772703
0.473699 0.800727 0.773699
0.559603 0.801688 0.774603
0.645422 0.802563 0.775422
0.731158 0.803354 0.776158
0.816814 0.804066 0.776814
0.896532 0.804701 0.777394
0.950380 0.805263 0.777901
0.304911 0.882810 0.774911
0.390699 0.883478 0.775699
0.476406 0.884085 0.776406
0.562034 0.884635 0.777034
0.647587 0.885132 0.777587
0.733068 0.885576 0.778068
0.818480 0.885970 0.778480
0.897689 0.886317 0.778824
0.958801 0.885196 0.762424
0.311306 0.944707 0.777629
0.392771 0.944761 0.777771
0.478226 0.945032 0.778226
0.563613 0.945254 0.778613
0.648933 0.945430 0.778933
0.734189 0.945562 0.779189
0.819383 0.945651 0.779383
0.898381 0.945700 0.779517
0.951098 0.945708 0.779593
0.243596 0.229274 0.770761
0.334907 0.235658 0.778851
0.425411 0.241232 0.786687
0.515314 0.246203 0.794335
0.604742 0.250698 0.801834
0.693777 0.254800 0.809210
0.782479 0.258567 0.816481
0.862904 0.261280 0.822904
0.861515 0.255936 0.821515
0.261976 0.332890 0.797081
0.351253 0.337233 0.804533
0.440161 0.341207 0.811868
0.528753 0.344864 0.819105
0.617070 0.348245 0.826256
0.705143 0.351381 0.833329
0.792913 0.354214 0.837913
0.880417 0.356779 0.840417
0.884562 0.351341 0.834989
0.274990 0.431125 0.821718
0.363215 0.434414 0.828839
0.451206 0.437467 0.835887
0.538847 0.440170 0.838847
0.626282 0.442665 0.841282
0.713537 0.444980 0.843374
0.800626 0.447130 0.845237
0.885905 0.449125 0.846961
0.900459 0.444813 0.843194
0.284755 0.526101 0.839755
0.372123 0.528528 0.842111
0.459316 0.530781 0.844069
0.546349 0.532873 0.845880
0.633232 0.534816 0.847556
0.719977 0.536619 0.849104
0.806591 0.538292 0.850535
0.889790 0.539842 0.851855
0.915829 0.536870 0.849270
0.292051 0.618597 0.846505
0.378883 0.620488 0.848134
0.465579 0.622243 0.849638
0.552148 0.623870 0.851028
0.638597 0.625377 0.852310
0.724934 0.626771 0.853489
0.811163 0.628057 0.854574
0.892781 0.629242 0.855567
0.930730 0.627771 0.854282
0.297689 0.709432 0.851507
0.384097 0.710897 0.852751
0.470394 0.712251 0.853895
0.556585 0.713500 0.854946
0.642678 0.714649 0.855907
0.728675 0.715703 0.856785
0.814582 0.716666 0.857582
0.895035 0.717542 0.858303
0.945207 0.717698 0.858409
0.301994 0.798930 0.855306
0.388052 0.800043 0.856236
0.474016 0.801064 0.857084
0.559891 0.801995 0.857853
0.645681 0.802841 0.858548
0.731389 0.803605 0.859171
0.817020 0.804290 0.859726
0.896672 0.804900 0.860216
0.950460 0.805438 0.860643
0.305188 0.883044 0.858115
0.390948 0.883690 0.858783
0.476628 0.884278 0.859381
0.562230 0.884810 0.859912
0.647759 0.885288 0.860378
0.733216 0.885715 0.860783
0.818604 0.886094 0.861130
0.897779 0.886425 0.861419
0.950992 0.886711 0.861654
0.313592 0.944959 0.860588
0.392933 0.944859 0.860533
0.478365 0.945113 0.860916
0.563729 0.945319 0.861241
0.649027 0.945480 0.861511
0.734262 0.945597 0.861726
0.819435 0.945672 0.861890
0.898428 0.945707 0.862005
0.951089 0.945703 0.862071
0.242825 0.228501 0.770519
0.333830 0.234578 0.778513
0.424112 0.239930 0.786280
0.513843 0.244728 0.793874
0.603129 0.249081 0.801328
0.692045 0.253063 0.808667
0.780645 0.256728 0.815906
0.862439 0.259490 0.822439
0.861031 0.254072 0.821031
0.260450 0.331360 0.796602
0.349595 0.335571 0.804013
0.438390 0.339432 0.811313
0.526885 0.342991 0.818519
0.615116 0.346286 0.825643
0.703112 0.349345 0.832692
0.790897 0.352192 0.839676
0.878489 0.354847 0.846017
0.884465 0.349671 0.845382
0.273090 0.429220 0.821122
0.361232 0.432425 0.828217
0.449149 0.435405 0.835242
0.536862 0.438180 0.842130
0.624389 0.440769 0.848229
0.711746 0.443188 0.854259
0.798946 0.445449 0.860223
0.884888 0.447563 0.866126
0.900704 0.443550 0.866800
0.282803 0.524143 0.844359
0.370266 0.526669 0.850432
0.457565 0.529028 0.856438
0.544710 0.531235 0.862379
0.631714 0.533299 0.868260
0.718585 0.535230 0.874083
0.805332 0.537036 0.879851
0.889074 0.538725 0.885567
0.916432 0.536081 0.887634
0.290456 0.617002 0.864527
0.377410 0.619017 0.870387
0.464235 0.620902 0.876190
0.550938 0.622664 0.881938
0.637527 0.624312 0.887635
0.724008 0.625852 0.893282
0.810386 0.627289 0.898881
0.892396 0.628628 0.904434
0.931703 0.627506 0.907950
0.296530 0.708277 0.884018
0.383079 0.709885 0.889697
0.469521 0.711387 0.895326
0.555863 0.712787 0.900908
0.642110 0.714092 0.906444
0.728265 0.715305 0.911936
0.814334 0.716432 0.917385
0.895005 0.717474 0.922792
0.946553 0.717997 0.927793
0.301328 0.798273 0.902928
0.387541 0.799544 0.908448
0.473664 0.800725 0.913924
0.559702 0.801821 0.919358
0.645658 0.802834 0.924750
0.731535 0.803769 0.930102
0.817216 0.804506 0.932411
0.896806 0.805091 0.932750
0.950536 0.805604 0.933027
0.305059 0.882983 0.921326
0.390986 0.883751 0.926703
0.476836 0.884461 0.932041
0.562418 0.884978 0.932542
0.647922 0.885439 0.932857
0.733355 0.885849 0.933113
0.818720 0.886211 0.933311
0.897864 0.886527 0.933454
0.951021 0.886798 0.933543
0.315876 0.945206 0.933317
0.393088 0.944950 0.932957
0.478496 0.945188 0.933192
0.563837 0.945379 0.933369
0.649113 0.945525 0.933492
0.734327 0.945627 0.933563
0.819480 0.945688 0.933582
0.898470 0.945710 0.933553
0.951077 0.945693 0.933477
