library/luts/linen.cube
# CrabbyCut preset LUT — sinh bởi scripts/generate_preset_luts.js
TITLE "Vải lanh"
LUT_3D_SIZE 5
0.220810 0.206300 0.180810
0.411940 0.227600 0.201940
0.594291 0.240093 0.214291
0.773801 0.249738 0.223801
0.843991 0.247336 0.221360
0.266795 0.422780 0.226795
0.444052 0.430166 0.234052
0.673809 0.427648 0.169009
0.892543 0.419719 0.160958
0.975643 0.409123 0.150308
0.287093 0.613497 0.247093
0.461323 0.617847 0.251323
0.634955 0.621596 0.254955
0.866209 0.620566 0.129009
0.982454 0.609049 0.117411
0.299079 0.795878 0.259079
0.471570 0.798484 0.261570
0.643663 0.800689 0.263663
0.815393 0.802531 0.265393
0.988863 0.804274 0.079825
0.303260 0.936383 0.263260
0.477346 0.944512 0.270813
0.648734 0.945384 0.283468
0.819853 0.946064 0.296039
0.951888 0.946567 0.308531
0.230559 0.216114 0.360559
0.416578 0.232288 0.376578
0.597763 0.243613 0.387763
0.776600 0.252583 0.396600
0.849073 0.249974 0.393952
0.269407 0.425437 0.399407
0.446244 0.432400 0.406244
0.622033 0.438313 0.412033
0.796981 0.443383 0.416981
0.892506 0.440735 0.414276
0.288602 0.615047 0.418602
0.462619 0.619183 0.422619
0.636066 0.622747 0.426066
0.862652 0.617048 0.357852
0.983118 0.605482 0.346203
0.299972 0.796811 0.429972
0.472324 0.799276 0.432324
0.644289 0.801354 0.434289
0.815903 0.803080 0.435903
0.986690 0.800226 0.308139
0.305047 0.940247 0.435047
0.477590 0.944652 0.437590
0.648482 0.945180 0.438482
0.819104 0.945520 0.439104
0.951091 0.945687 0.439476
0.236932 0.222542 0.536932
0.420725 0.236483 0.550725
0.600974 0.246869 0.560974
0.779225 0.255251 0.569225
0.854120 0.252489 0.566422
0.271863 0.427936 0.571863
0.448315 0.434514 0.578315
0.623800 0.440122 0.583800
0.798496 0.444938 0.588496
0.895704 0.442412 0.585910
0.290035 0.616521 0.590035
0.463850 0.620454 0.593850
0.637120 0.623840 0.597120
0.809910 0.626745 0.599910
0.926264 0.626094 0.599172
0.300817 0.797694 0.600817
0.473033 0.800023 0.603033
0.644875 0.801978 0.604875
0.816377 0.803591 0.606377
0.983990 0.796128 0.536404
0.306807 0.944091 0.606807
0.477924 0.944853 0.607924
0.648722 0.945316 0.608722
0.819258 0.945595 0.609258
0.951103 0.945707 0.609547
0.242213 0.227875 0.712213
0.424491 0.240296 0.724491
0.603961 0.249901 0.733961
0.781691 0.257761 0.741691
0.859135 0.254892 0.738781
0.274177 0.430293 0.744177
0.450276 0.436517 0.750276
0.625476 0.441839 0.755476
0.799934 0.446417 0.759934
0.898879 0.444028 0.757483
0.291396 0.617923 0.761396
0.465018 0.621661 0.765018
0.638118 0.624878 0.768118
0.810757 0.627632 0.770757
0.929246 0.627222 0.770259
0.301613 0.798529 0.771613
0.473699 0.800727 0.773699
0.645422 0.802563 0.775422
0.816814 0.804066 0.776814
0.950380 0.805263 0.777901
0.311306 0.944707 0.777629
0.478226 0.945032 0.778226
0.648933 0.945430 0.778933
0.819383 0.945651 0.779383
0.951098 0.945708 0.779593
0.242825 0.228501 0.770519
0.424112 0.239930 0.786280
0.603129 0.249081 0.801328
0.780645 0.256728 0.815906
0.861031 0.254072 0.821031
0.273090 0.429220 0.821122
0.449149 0.435405 0.835242
0.624389 0.440769 0.848229
0.798946 0.445449 0.860223
0.900704 0.443550 0.866800
0.290456 0.617002 0.864527
0.464235 0.620902 0.876190
0.637527 0.624312 0.887635
0.810386 0.627289 0.898881
0.931703 0.627506 0.907950
0.301328 0.798273 0.902928
0.473664 0.800725 0.913924
0.645658 0.802834 0.924750
0.817216 0.804506 0.932411
0.950536 0.805604 0.933027
0.315876 0.945206 0.933317
0.478496 0.945188 0.933192
0.649113 0.945525 0.933492
0.819480 0.945688 0.933582
0.951077 0.945693 0.933477
