library/luts/linen.cube
# CrabbyCut preset LUT — sinh bởi scripts/generate_preset_luts.js
TITLE "Vải lanh"
LUT_3D_SIZE 17
0.220810 0.206300 0.180810
0.271069 0.214108 0.188569
0.318752 0.219334 0.193752
0.365603 0.223724 0.198103
0.411940 0.227600 0.201940
0.457908 0.231105 0.205408
0.503590 0.234322 0.208590
0.549038 0.237306 0.211538
0.594291 0.240093 0.214291
0.639374 0.242711 0.216874
0.684310 0.245181 0.219310
0.729114 0.247519 0.221614
0.773801 0.249738 0.223801
0.818380 0.251850 0.225880
0.845344 0.252188 0.226200
0.844679 0.249801 0.223819
0.843991 0.247336 0.221360
0.239550 0.267685 0.199550
0.285740 0.271413 0.203240
0.333168 0.274549 0.204512
0.383210 0.276643 0.204741
0.435913 0.277740 0.203975
0.486597 0.279012 0.204847
0.536231 0.280331 0.206131
0.585724 0.281507 0.207274
0.635090 0.282556 0.208290
0.684342 0.283492 0.209192
0.733491 0.284323 0.209991
0.782544 0.285059 0.210694
0.831510 0.285707 0.211310
0.880394 0.286273 0.211844
0.904886 0.286010 0.211558
0.904531 0.283326 0.208881
0.904168 0.280579 0.206140
0.250757 0.321516 0.210757
0.296060 0.324353 0.213560
0.341187 0.327015 0.216187
0.389568 0.329274 0.211100
0.443572 0.329842 0.204322
0.503212 0.328734 0.195868
0.558864 0.328026 0.193664
0.612583 0.327578 0.193183
0.666211 0.327037 0.192611
0.719752 0.326411 0.191952
0.773215 0.325706 0.191215
0.826604 0.324926 0.190404
0.879923 0.324077 0.189523
0.915491 0.323162 0.188577
0.947728 0.322028 0.187415
0.947506 0.319085 0.184479
0.947280 0.316089 0.181490
0.259528 0.372902 0.219528
0.304321 0.375228 0.221821
0.348997 0.377437 0.223997
0.393566 0.379540 0.226066
0.442933 0.381564 0.213433
0.499887 0.381426 0.198637
0.564436 0.379131 0.181686
0.623456 0.377158 0.176756
0.679890 0.375524 0.175090
0.736256 0.373821 0.173356
0.792558 0.372054 0.171558
0.848800 0.370227 0.169700
0.896917 0.368343 0.167785
0.933919 0.366404 0.165815
0.970792 0.364413 0.163794
0.973990 0.361359 0.160743
0.973865 0.358157 0.157549
0.266795 0.422780 0.226795
0.311234 0.424752 0.228734
0.355586 0.426636 0.230586
0.399857 0.428439 0.232357
0.444052 0.430166 0.234052
0.493424 0.432194 0.216549
0.550406 0.432083 0.196906
0.615004 0.429836 0.175129
0.673809 0.427648 0.169009
0.729974 0.425743 0.167074
0.786085 0.423785 0.165085
0.842146 0.421776 0.163046
0.892543 0.419719 0.160958
0.929284 0.417615 0.158824
0.965903 0.415467 0.156646
0.975772 0.412467 0.153643
0.975643 0.409123 0.150308
0.272982 0.471576 0.232982
0.317152 0.473277 0.234652
0.361252 0.474909 0.236252
0.405288 0.476476 0.237788
0.449263 0.477981 0.239263
0.493179 0.479429 0.240679
0.542639 0.481545 0.218389
0.599724 0.481535 0.193974
0.664436 0.479403 0.167436
0.723087 0.477058 0.160187
0.779036 0.474938 0.158036
0.834942 0.472774 0.155842
0.887865 0.470568 0.153606
0.924363 0.468322 0.151330
0.960744 0.466036 0.149015
0.977522 0.463119 0.146088
0.977388 0.459650 0.142628
0.278332 0.519531 0.238332
0.322285 0.521015 0.239785
0.366181 0.522442 0.241181
0.410023 0.523815 0.242523
0.453814 0.525136 0.243814
0.497556 0.526408 0.245056
0.541251 0.527634 0.246251
0.590851 0.529889 0.219226
0.648086 0.530029 0.190086
0.712957 0.528054 0.158832
0.771492 0.525594 0.150492
0.827263 0.523295 0.148163
0.882931 0.520959 0.145797
0.919200 0.518587 0.143396
0.955357 0.516180 0.140960
0.979241 0.513367 0.138131
0.979104 0.509788 0.134559
0.282999 0.566802 0.242999
0.326772 0.568105 0.244272
0.370496 0.569360 0.245496
0.414175 0.570568 0.246675
0.457809 0.571733 0.247809
0.501401 0.572855 0.248901
0.544952 0.573935 0.249952
0.588464 0.574977 0.250964
0.638240 0.577408 0.219240
0.695658 0.577730 0.185408
0.760717 0.575943 0.149467
0.819165 0.573396 0.140065
0.874784 0.570944 0.137584
0.913831 0.568460 0.135071
0.949773 0.565945 0.132527
0.980931 0.563256 0.129814
0.980792 0.559577 0.126143
0.287093 0.613497 0.247093
0.330711 0.614646 0.248211
0.374288 0.615753 0.249288
0.417825 0.616819 0.250325
0.461323 0.617847 0.251323
0.504783 0.618837 0.252283
0.548208 0.619791 0.253208
0.591598 0.620711 0.254098
0.634955 0.621596 0.254955
0.684933 0.624228 0.218558
0.742556 0.624756 0.180056
0.807827 0.623181 0.139452
0.866209 0.620566 0.129009
0.908283 0.617982 0.126395
0.944020 0.615369 0.123754
0.979652 0.612729 0.121085
0.982454 0.609049 0.117411
0.290692 0.659698 0.250692
0.334177 0.660712 0.251677
0.377624 0.661689 0.252624
0.421036 0.662630 0.253536
0.464414 0.663537 0.254414
0.507758 0.664410 0.255258
0.551070 0.665252 0.256070
0.594351 0.666062 0.256851
0.637602 0.666841 0.257602
0.680824 0.667592 0.258324
0.731023 0.670445 0.217273
0.788871 0.671197 0.174121
0.854370 0.669849 0.128870
0.902579 0.667185 0.117402
0.938119 0.664483 0.114672
0.973557 0.661756 0.111916
0.984091 0.658234 0.108392
0.293860 0.705464 0.253860
0.337225 0.706359 0.254725
0.380558 0.707220 0.255558
0.423858 0.708050 0.256358
0.467128 0.708849 0.257128
0.510368 0.709618 0.257868
0.553579 0.710358 0.258579
0.596762 0.711069 0.259262
0.639917 0.711753 0.259917
0.683045 0.712410 0.260545
0.726148 0.713041 0.261148
0.776583 0.716130 0.215458
0.834671 0.717121 0.167671
0.894816 0.716015 0.117787
0.932089 0.713313 0.105307
0.967338 0.710506 0.102472
0.985704 0.707153 0.099108
0.296642 0.750845 0.256642
0.339901 0.751632 0.257401
0.383130 0.752391 0.258130
0.426331 0.753120 0.258831
0.469503 0.753821 0.259503
0.512649 0.754495 0.260149
0.555768 0.755143 0.260768
0.598861 0.755764 0.261361
0.641929 0.756360 0.261929
0.684972 0.756932 0.262472
0.727992 0.757480 0.262992
0.770988 0.758004 0.263488
0.821671 0.761341 0.213171
0.880010 0.762583 0.160760
0.923987 0.761729 0.106254
0.961011 0.759001 0.092773
0.987295 0.755827 0.089580
0.299079 0.795878 0.259079
0.342241 0.796570 0.259741
0.385377 0.797234 0.260377
0.428487 0.797872 0.260987
0.471570 0.798484 0.261570
0.514629 0.799071 0.262129
0.557664 0.799634 0.262664
0.600675 0.800174 0.263175
0.643663 0.800689 0.263663
0.686628 0.801183 0.264128
0.729571 0.801654 0.264571
0.772492 0.802103 0.264992
0.815393 0.802531 0.265393
0.866335 0.806126 0.210460
0.910653 0.807627 0.153433
0.952596 0.807036 0.094314
0.988863 0.804274 0.079825
0.301202 0.840598 0.261202
0.344277 0.841201 0.261777
0.387327 0.841779 0.262327
0.430353 0.842333 0.262853
0.473355 0.842864 0.263355
0.516335 0.843372 0.263835
0.559292 0.843857 0.264292
0.602227 0.844320 0.264727
0.645141 0.844761 0.265141
0.688033 0.845182 0.265533
0.730905 0.845582 0.265905
0.773757 0.845962 0.266257
0.816590 0.846322 0.266590
0.859418 0.846677 0.267342
0.901745 0.850612 0.211026
0.938886 0.852409 0.153227
0.980726 0.852068 0.093949
0.303038 0.881253 0.263038
0.346032 0.881661 0.263532
0.389004 0.882052 0.264004
0.431953 0.882426 0.264453
0.474880 0.882784 0.264880
0.517786 0.883126 0.265286
0.560671 0.883453 0.265671
0.603536 0.883766 0.266036
0.646381 0.884063 0.266381
0.689206 0.884346 0.266706
0.732063 0.884653 0.268500
0.774949 0.884980 0.271676
0.817818 0.885293 0.274846
0.860669 0.885594 0.278011
0.897337 0.885883 0.281171
0.929661 0.888783 0.221617
0.966676 0.890187 0.160591
0.304611 0.912659 0.264611
0.347530 0.912972 0.265030
0.390429 0.913269 0.265429
0.433306 0.913552 0.265806
0.476164 0.913819 0.266164
0.519001 0.914072 0.266501
0.561819 0.914311 0.266819
0.604706 0.914598 0.269656
0.647586 0.914880 0.272831
0.690448 0.915149 0.275999
0.733292 0.915405 0.279162
0.776119 0.915649 0.282320
0.818930 0.915880 0.285472
0.861723 0.916100 0.288619
0.898095 0.916308 0.291761
0.924853 0.916505 0.294898
0.957079 0.919471 0.232131
0.303260 0.936383 0.263260
0.347079 0.939229 0.264579
0.390882 0.942065 0.265882
0.434455 0.944262 0.267635
0.477346 0.944512 0.270813
0.520219 0.944749 0.273985
0.563075 0.944973 0.277151
0.605913 0.945185 0.280312
0.648734 0.945384 0.283468
0.691538 0.945571 0.286618
0.734326 0.945747 0.289764
0.777098 0.945911 0.292904
0.819853 0.946064 0.296039
0.862593 0.946206 0.299169
0.898737 0.946337 0.302294
0.925350 0.946457 0.305415
0.951888 0.946567 0.308531
0.224200 0.209709 0.226700
0.272959 0.216013 0.232959
0.320301 0.220897 0.237801
0.366955 0.225089 0.241955
0.413154 0.228826 0.245654
0.459018 0.232226 0.249018
0.504615 0.235360 0.252115
0.549994 0.238273 0.254994
0.595186 0.241000 0.257686
0.640217 0.243566 0.260217
0.685107 0.245989 0.262607
0.729870 0.248285 0.264870
0.774518 0.250467 0.267018
0.819063 0.252544 0.269063
0.846632 0.252912 0.269412
0.845959 0.250498 0.267004
0.845265 0.248008 0.264520
0.240847 0.268995 0.243347
0.286913 0.272599 0.246913
0.332673 0.275895 0.250173
0.378187 0.278944 0.253187
0.423494 0.281786 0.255994
0.468625 0.284452 0.258625
0.513603 0.286964 0.261103
0.558444 0.289339 0.263444
0.603164 0.291592 0.265664
0.647774 0.293735 0.267774
0.692283 0.295777 0.269783
0.736700 0.297726 0.271700
0.781031 0.299589 0.273531
0.825283 0.301373 0.275283
0.859261 0.302107 0.275994
0.858522 0.299456 0.273350
0.857766 0.296746 0.270646
0.251731 0.322501 0.254231
0.296971 0.325276 0.256971
0.342044 0.327883 0.259544
0.388542 0.330087 0.259885
0.437788 0.331382 0.259319
0.489796 0.331783 0.257858
0.539864 0.332437 0.258114
0.588945 0.333200 0.258845
0.637936 0.333874 0.259486
0.686844 0.334464 0.260044
0.735675 0.334976 0.260525
0.784433 0.335416 0.260933
0.833124 0.335788 0.261274
0.881488 0.336096 0.261550
0.911483 0.336140 0.261566
0.911103 0.333238 0.258671
0.910716 0.330285 0.255725
0.260320 0.373706 0.262820
0.305072 0.375991 0.265072
0.349711 0.378163 0.267211
0.394246 0.380231 0.269246
0.442094 0.381955 0.263626
0.495613 0.382037 0.256363
0.554809 0.380483 0.247465
0.610051 0.379364 0.244851
0.663391 0.378535 0.243991
0.716664 0.377640 0.243064
0.769874 0.376681 0.242074
0.823026 0.375663 0.241026
0.876121 0.374589 0.239921
0.912878 0.373462 0.238763
0.947732 0.372283 0.237554
0.951278 0.369360 0.234633
0.951041 0.366186 0.231467
0.267464 0.423460 0.269964
0.311872 0.425401 0.271872
0.356196 0.427257 0.273696
0.400441 0.429033 0.275441
0.444612 0.430736 0.277112
0.493609 0.432389 0.264109
0.550217 0.431904 0.248967
0.614442 0.429285 0.231692
0.673158 0.427007 0.226458
0.729304 0.425084 0.224504
0.785398 0.423108 0.222498
0.841442 0.421083 0.220442
0.892083 0.419010 0.218339
0.928799 0.416890 0.216189
0.965393 0.414728 0.213996
0.975950 0.411735 0.211000
0.975820 0.408378 0.207651
0.273557 0.472162 0.276057
0.317703 0.473839 0.277703
0.361781 0.475448 0.279281
0.405796 0.476994 0.280796
0.449750 0.478479 0.282250
0.493648 0.479908 0.283648
0.542738 0.481653 0.265863
0.599453 0.481275 0.245953
0.663797 0.478774 0.223922
0.722361 0.476343 0.217561
0.778296 0.474208 0.215396
0.834187 0.472030 0.213187
0.887378 0.469810 0.210938
0.923852 0.467550 0.208648
0.960210 0.465251 0.206320
0.977696 0.462343 0.203402
0.977563 0.458863 0.199930
0.278832 0.520042 0.281332
0.322765 0.521506 0.282765
0.366643 0.522914 0.284143
0.410467 0.524269 0.285467
0.454241 0.525574 0.286741
0.497967 0.526830 0.287967
0.541646 0.528039 0.289146
0.590880 0.529928 0.266630
0.647749 0.529702 0.241999
0.712253 0.527361 0.215253
0.770705 0.524817 0.207805
0.826463 0.522505 0.205463
0.882185 0.520157 0.203085
0.918667 0.517773 0.200672
0.954801 0.515355 0.198225
0.979413 0.512554 0.195407
0.979276 0.508964 0.191825
0.283437 0.567250 0.285937
0.327193 0.568536 0.287193
0.370902 0.569775 0.288402
0.414565 0.570969 0.289565
0.458184 0.572118 0.290684
0.501762 0.573226 0.291762
0.545300 0.574294 0.292800
0.588799 0.575322 0.293799
0.638211 0.577389 0.266586
0.695264 0.577346 0.237264
0.759960 0.575196 0.205835
0.818326 0.572567 0.197326
0.873934 0.570104 0.194834
0.913278 0.567609 0.192310
0.949200 0.565084 0.189756
0.981101 0.562409 0.187056
0.980961 0.558719 0.183375
0.287477 0.613892 0.289977
0.331082 0.615026 0.291082
0.374645 0.616119 0.292145
0.418168 0.617172 0.293168
0.461653 0.618187 0.294153
0.505101 0.619165 0.295101
0.548514 0.620107 0.296014
0.591893 0.621015 0.296893
0.635238 0.621889 0.297738
0.684853 0.624159 0.265853
0.742115 0.624324 0.231865
0.807023 0.622386 0.195773
0.865324 0.619692 0.186224
0.907713 0.617097 0.183601
0.943431 0.614475 0.180950
0.979043 0.611826 0.178273
0.982621 0.608162 0.174614
0.291031 0.660046 0.293531
0.334503 0.661047 0.294503
0.377938 0.662012 0.295438
0.421338 0.662942 0.296338
0.464704 0.663837 0.297204
0.508038 0.664700 0.298038
0.551339 0.665530 0.298839
0.594610 0.666330 0.299610
0.637850 0.667099 0.300350
0.681062 0.667840 0.301062
0.730900 0.670331 0.264525
0.788387 0.670722 0.225887
0.853525 0.669014 0.185150
0.901995 0.666270 0.174578
0.937516 0.663559 0.171839
0.972934 0.660824 0.169075
0.984255 0.657319 0.165567
0.294157 0.705772 0.296657
0.337511 0.706655 0.297511
0.380833 0.707506 0.298333
0.424123 0.708325 0.299123
0.467383 0.709113 0.299883
0.510613 0.709872 0.300613
0.553814 0.710602 0.301314
0.596987 0.711304 0.301987
0.640133 0.711979 0.302633
0.683253 0.712627 0.303253
0.726347 0.713249 0.303847
0.776421 0.715978 0.262671
0.834149 0.716608 0.219399
0.894266 0.715142 0.174030
0.931474 0.712362 0.162447
0.966704 0.709548 0.159604
0.985866 0.706212 0.156257
0.296903 0.751115 0.299403
0.340152 0.751893 0.300152
0.383371 0.752641 0.300871
0.426562 0.753361 0.301562
0.469726 0.754053 0.302226
0.512862 0.754718 0.302862
0.555972 0.755357 0.303472
0.599056 0.755969 0.304056
0.642116 0.756557 0.304616
0.685151 0.757121 0.305151
0.728163 0.757661 0.305663
0.771151 0.758177 0.306151
0.821475 0.761154 0.260350
0.879454 0.762036 0.212454
0.923407 0.760824 0.162464
0.960366 0.758018 0.149880
0.987454 0.754863 0.146705
0.299307 0.796116 0.301807
0.342460 0.796798 0.302460
0.385587 0.797453 0.303087
0.428688 0.798083 0.303688
0.471763 0.798686 0.304263
0.514814 0.799265 0.304814
0.557840 0.799820 0.305340
0.600843 0.800351 0.305843
0.643823 0.800860 0.306323
0.686781 0.801345 0.306781
0.729717 0.801809 0.307217
0.772631 0.802251 0.307631
0.815524 0.802672 0.308024
0.866107 0.805908 0.257607
0.910289 0.807050 0.205097
0.951988 0.806100 0.150494
0.988708 0.803277 0.136918
0.301400 0.840805 0.303900
0.344466 0.841400 0.304466
0.387508 0.841970 0.305008
0.430526 0.842516 0.305526
0.473521 0.843039 0.306021
0.516492 0.843539 0.306492
0.559442 0.844016 0.306942
0.602370 0.844472 0.307370
0.645276 0.844907 0.307776
0.688162 0.845320 0.308162
0.731027 0.845713 0.308527
0.773872 0.846086 0.308872
0.816698 0.846439 0.309198
0.859505 0.846774 0.309505
0.901538 0.850276 0.254480
0.938424 0.851687 0.197363
0.980040 0.851007 0.138156
0.303209 0.881394 0.305709
0.346195 0.881796 0.306195
0.389159 0.882181 0.306659
0.432100 0.882549 0.307100
0.475020 0.882902 0.307520
0.517919 0.883239 0.307919
0.560797 0.883561 0.308297
0.603655 0.883868 0.308655
0.646493 0.884161 0.308993
0.689312 0.884439 0.309312
0.732111 0.884704 0.309611
0.774892 0.884955 0.309892
0.817655 0.885193 0.310155
0.860400 0.885418 0.310400
0.897108 0.885631 0.310627
0.929218 0.888299 0.251000
0.966051 0.889505 0.189285
0.304756 0.912767 0.307256
0.347668 0.913075 0.307668
0.390559 0.913367 0.308059
0.433430 0.913644 0.308430
0.476280 0.913907 0.308780
0.519111 0.914155 0.309111
0.561923 0.914389 0.309423
0.604716 0.914610 0.309716
0.647490 0.914817 0.309990
0.690246 0.915012 0.310246
0.732984 0.915193 0.310484
0.775705 0.915362 0.310705
0.818408 0.915519 0.310908
0.861095 0.915664 0.311095
0.897638 0.915798 0.311265
0.924326 0.915920 0.311418
0.956410 0.918728 0.247197
0.303710 0.937351 0.306210
0.347523 0.940193 0.307523
0.391321 0.943025 0.308821
0.434532 0.944309 0.309532
0.477318 0.944485 0.309818
0.520085 0.944649 0.310085
0.562835 0.944800 0.310335
0.605567 0.944938 0.310567
0.648281 0.945064 0.310781
0.690978 0.945178 0.310978
0.733659 0.945280 0.311159
0.776322 0.945371 0.311322
0.818970 0.945450 0.311470
0.861602 0.945519 0.311602
0.898051 0.945576 0.311718
0.924598 0.945623 0.311819
0.951072 0.945660 0.311904
0.226599 0.212124 0.271599
0.274706 0.217774 0.277206
0.321773 0.222382 0.281773
0.368255 0.226402 0.285755
0.414330 0.230015 0.289330
0.460097 0.233318 0.292597
0.505615 0.236372 0.295615
0.550927 0.239219 0.298427
0.596063 0.241889 0.301063
0.641044 0.244404 0.303544
0.685889 0.246782 0.305889
0.730611 0.249038 0.308111
0.775224 0.251184 0.310224
0.819735 0.253228 0.312235
0.847918 0.253626 0.312615
0.847237 0.251185 0.310180
0.846536 0.248671 0.307672
0.242097 0.270258 0.287097
0.288051 0.273749 0.290551
0.333722 0.276956 0.293722
0.379161 0.279931 0.296661
0.424406 0.282710 0.299406
0.469483 0.285321 0.301983
0.514412 0.287785 0.304412
0.559211 0.290117 0.306711
0.603893 0.292332 0.308893
0.648467 0.294439 0.310967
0.692944 0.296449 0.312944
0.737331 0.298368 0.314831
0.781635 0.300203 0.316635
0.825861 0.301961 0.318361
0.860524 0.302739 0.319115
0.859779 0.300068 0.316450
0.859018 0.297337 0.313726
0.252681 0.323464 0.297681
0.297862 0.326179 0.300362
0.342883 0.328734 0.302883
0.387764 0.331148 0.305264
0.432519 0.333437 0.307519
0.477160 0.335611 0.309660
0.521698 0.337682 0.311698
0.566141 0.339657 0.313641
0.610497 0.341545 0.315497
0.654772 0.343352 0.317272
0.698971 0.345083 0.318971
0.743100 0.346743 0.320600
0.787162 0.348336 0.322162
0.831161 0.349867 0.323661
0.872929 0.351130 0.324895
0.872131 0.348271 0.322043
0.871320 0.345362 0.319141
0.261099 0.374495 0.306099
0.305811 0.376741 0.308311
0.350413 0.378876 0.310413
0.394916 0.380911 0.312416
0.440898 0.382598 0.312242
0.489674 0.383422 0.311205
0.541250 0.383389 0.309313
0.590919 0.383643 0.309169
0.639629 0.384035 0.309529
0.688275 0.384361 0.309825
0.736858 0.384626 0.310058
0.785384 0.384832 0.310234
0.833854 0.384983 0.310354
0.882025 0.385082 0.310422
0.913865 0.385130 0.310440
0.917521 0.382438 0.307751
0.917115 0.379313 0.304634
0.268122 0.424129 0.313122
0.312501 0.426040 0.315001
0.356797 0.427869 0.316797
0.401016 0.429620 0.318516
0.445164 0.431299 0.320164
0.492650 0.432660 0.314181
0.545831 0.432403 0.306581
0.604709 0.430532 0.297366
0.659654 0.429113 0.294454
0.712711 0.428001 0.293311
0.765717 0.426838 0.292117
0.818674 0.425625 0.290874
0.871584 0.424365 0.289584
0.909834 0.423060 0.288248
0.944417 0.421712 0.286870
0.954969 0.419014 0.284169
0.954723 0.415689 0.280852
0.274124 0.472739 0.319124
0.318246 0.474393 0.320746
0.362302 0.475980 0.322302
0.406296 0.477505 0.323796
0.450231 0.478971 0.325231
0.494110 0.480380 0.326610
0.542830 0.481756 0.313330
0.599177 0.481009 0.297927
0.663152 0.478140 0.280402
0.721631 0.475623 0.274931
0.777551 0.473473 0.272751
0.833428 0.471280 0.270528
0.886888 0.469047 0.268264
0.923339 0.466773 0.265962
0.959673 0.464462 0.263621
0.977871 0.461564 0.260712
0.977737 0.458072 0.257228
0.279325 0.520545 0.324325
0.323239 0.521990 0.325739
0.367098 0.523380 0.327098
0.410905 0.524718 0.328405
0.454663 0.526006 0.329663
0.498373 0.527246 0.330873
0.542037 0.528440 0.332037
0.590904 0.529962 0.314029
0.647406 0.529370 0.293906
0.711546 0.526664 0.271671
0.769914 0.524036 0.265114
0.825660 0.521712 0.262760
0.881370 0.519351 0.260370
0.918132 0.516956 0.257945
0.954244 0.514526 0.255486
0.979584 0.511737 0.252679
0.979447 0.508137 0.249087
0.283869 0.567692 0.328869
0.327609 0.568962 0.330109
0.371302 0.570186 0.331302
0.414950 0.571364 0.332450
0.458555 0.572499 0.333555
0.502119 0.573593 0.334619
0.545643 0.574647 0.335643
0.589129 0.575663 0.336629
0.638177 0.577365 0.313927
0.694866 0.576959 0.289116
0.759198 0.574445 0.262198
0.817483 0.571734 0.254583
0.873080 0.569260 0.252080
0.912724 0.566755 0.249546
0.948625 0.564220 0.246982
0.981269 0.561558 0.244294
0.981130 0.557859 0.240605
0.287857 0.614282 0.332857
0.331447 0.615402 0.333947
0.374996 0.616481 0.334996
0.418507 0.617521 0.336007
0.461979 0.618523 0.336979
0.505415 0.619489 0.337915
0.548816 0.620419 0.338816
0.592183 0.621316 0.339683
0.635518 0.622179 0.340518
0.684770 0.624086 0.313145
0.741669 0.623889 0.283669
0.806215 0.621589 0.252090
0.864437 0.618814 0.243437
0.907143 0.616210 0.240804
0.942840 0.613579 0.238144
0.978432 0.610920 0.235457
0.982787 0.607272 0.231813
0.291365 0.660390 0.336365
0.334824 0.661379 0.337324
0.378247 0.662332 0.338247
0.421636 0.663250 0.339136
0.464991 0.664134 0.339991
0.508313 0.664985 0.340813
0.551604 0.665805 0.341604
0.594865 0.666595 0.342365
0.638095 0.667354 0.343095
0.681297 0.668085 0.343797
0.730774 0.670215 0.311774
0.787900 0.670245 0.277650
0.852677 0.668175 0.241427
0.901410 0.665352 0.231750
0.936912 0.662633 0.229003
0.972311 0.659890 0.226231
0.984419 0.656401 0.222738
0.294451 0.706075 0.339451
0.337794 0.706947 0.340294
0.381105 0.707787 0.341105
0.424384 0.708596 0.341884
0.467634 0.709374 0.342634
0.510854 0.710123 0.343354
0.554046 0.710844 0.344046
0.597210 0.711536 0.344710
0.640347 0.712202 0.345347
0.683457 0.712841 0.345957
0.726542 0.713455 0.346542
0.776257 0.715823 0.309882
0.833624 0.716093 0.271124
0.893714 0.714267 0.230270
0.930857 0.711409 0.219584
0.966069 0.708587 0.216733
0.986027 0.705269 0.213404
0.297161 0.751383 0.342161
0.340400 0.752151 0.342900
0.383609 0.752889 0.343609
0.426791 0.753599 0.344291
0.469945 0.754282 0.344945
0.513072 0.754938 0.345572
0.556173 0.755568 0.346173
0.599249 0.756172 0.346749
0.642300 0.756751 0.347300
0.685328 0.757307 0.347828
0.728331 0.757839 0.348331
0.771312 0.758347 0.348812
0.821276 0.760965 0.307526
0.878896 0.761488 0.264146
0.922825 0.759916 0.218671
0.959721 0.757033 0.206985
0.987613 0.753896 0.203828
0.299532 0.796351 0.344532
0.342676 0.797024 0.345176
0.385794 0.797670 0.345794
0.428886 0.798290 0.346386
0.471953 0.798886 0.346953
0.514995 0.799456 0.347495
0.558014 0.800003 0.348014
0.601009 0.800526 0.348509
0.643981 0.801027 0.348981
0.686931 0.801505 0.349431
0.729860 0.801961 0.349860
0.772767 0.802396 0.350267
0.815653 0.802810 0.350653
0.865877 0.805687 0.304752
0.909924 0.806471 0.256758
0.951379 0.805162 0.206672
0.988036 0.802263 0.193994
0.301595 0.841010 0.346595
0.344653 0.841596 0.347153
0.387687 0.842158 0.347687
0.430697 0.842696 0.348197
0.473683 0.843211 0.348683
0.516648 0.843704 0.349148
0.559590 0.844174 0.349590
0.602510 0.844622 0.350010
0.645410 0.845049 0.350410
0.688288 0.845456 0.350788
0.731147 0.845842 0.351147
0.773985 0.846208 0.351485
0.816804 0.846555 0.351804
0.859604 0.846883 0.352104
0.901386 0.850027 0.301596
0.938032 0.851080 0.248997
0.979406 0.850042 0.194306
0.303376 0.881532 0.348376
0.346355 0.881928 0.348855
0.389311 0.882308 0.349311
0.432245 0.882671 0.349745
0.475158 0.883018 0.350158
0.518050 0.883350 0.350550
0.560921 0.883667 0.350921
0.603772 0.883969 0.351272
0.646604 0.884257 0.351604
0.689416 0.884531 0.351916
0.732209 0.884791 0.352209
0.774984 0.885038 0.352484
0.817740 0.885271 0.352740
0.860479 0.885492 0.352979
0.897167 0.885700 0.353200
0.929040 0.888117 0.298091
0.965633 0.889074 0.240892
0.304898 0.912874 0.349898
0.347803 0.913176 0.350303
0.390687 0.913463 0.350687
0.433551 0.913735 0.351051
0.476395 0.913992 0.351395
0.519219 0.914236 0.351719
0.562025 0.914466 0.352025
0.604811 0.914682 0.352311
0.647579 0.914885 0.352579
0.690329 0.915075 0.352829
0.733061 0.915252 0.353061
0.775776 0.915417 0.353276
0.818474 0.915570 0.353474
0.861154 0.915711 0.353654
0.897685 0.915841 0.353819
0.924358 0.915959 0.353967
0.956206 0.918518 0.294263
0.304157 0.938317 0.349157
0.347965 0.941156 0.350465
0.391758 0.943985 0.351758
0.434631 0.944370 0.352131
0.477411 0.944542 0.352411
0.520172 0.944702 0.352672
0.562916 0.944848 0.352916
0.605641 0.944982 0.353141
0.648350 0.945104 0.353350
0.691041 0.945214 0.353541
0.733716 0.945312 0.353716
0.776374 0.945399 0.353874
0.819017 0.945475 0.354017
0.861643 0.945540 0.354143
0.898086 0.945594 0.354254
0.924619 0.945637 0.354349
0.951079 0.945670 0.354430
0.228678 0.214218 0.316178
0.276340 0.219423 0.321340
0.323179 0.223802 0.325679
0.369509 0.227669 0.329509
0.415471 0.231168 0.332971
0.461147 0.234380 0.336147
0.506592 0.237360 0.339092
0.551841 0.240144 0.341841
0.596922 0.242759 0.344422
0.641855 0.245226 0.346855
0.686657 0.247562 0.349157
0.731341 0.249779 0.351341
0.775918 0.251889 0.353418
0.820397 0.253900 0.355397
0.849201 0.254331 0.355808
0.848513 0.251865 0.353348
0.847806 0.249326 0.350816
0.243306 0.271480 0.330806
