library/luts/mint_air.cube
# CrabbyCut preset LUT — sinh bởi scripts/generate_preset_luts.js
TITLE "Bạc hà"
LUT_3D_SIZE 9
0.062203 0.176053 0.137854
0.159275 0.192668 0.155204
0.277065 0.200728 0.163839
0.391994 0.206219 0.169856
0.505199 0.210161 0.174296
0.617184 0.213008 0.177620
0.728234 0.215016 0.180088
0.838530 0.216346 0.181867
0.841987 0.214341 0.179847
0.090596 0.314053 0.171624
0.188660 0.317558 0.175619
0.306172 0.319114 0.170790
0.429102 0.317950 0.165968
0.547794 0.316731 0.165194
0.665893 0.314980 0.163878
0.783481 0.312771 0.162095
0.900622 0.310161 0.159902
0.913503 0.306685 0.156427
0.103386 0.428544 0.181445
0.203575 0.429454 0.182795
0.312843 0.429861 0.183633
0.430142 0.429208 0.165122
0.555123 0.425312 0.150673
0.674612 0.421447 0.147218
0.793758 0.417274 0.143448
0.912592 0.412821 0.139393
0.939377 0.408249 0.134859
0.111153 0.535973 0.184071
0.211899 0.535431 0.183942
0.319744 0.534560 0.183478
0.427257 0.533391 0.182711
0.543645 0.531987 0.154282
0.667601 0.527211 0.133444
0.785795 0.522183 0.128803
0.903751 0.516942 0.123946
0.947086 0.511614 0.118710
0.115562 0.639147 0.182361
0.215998 0.637614 0.181223
0.322836 0.635839 0.179838
0.429426 0.633841 0.178226
0.535784 0.631635 0.176403
0.651764 0.629932 0.138516
0.775123 0.624659 0.111681
0.892389 0.618798 0.106192
0.954617 0.612858 0.100408
0.117321 0.739311 0.177586
0.217020 0.737033 0.175689
0.323087 0.734566 0.173599
0.428957 0.731922 0.171329
0.534641 0.729110 0.168888
0.640149 0.726141 0.166286
0.755988 0.724378 0.119186
0.878987 0.718822 0.086571
0.962003 0.712368 0.080347
0.116813 0.837167 0.170459
0.215641 0.834297 0.167959
0.321088 0.831272 0.165301
0.426371 0.828101 0.162494
0.531500 0.824791 0.159545
0.636481 0.821348 0.156462
0.741321 0.817779 0.153249
0.857185 0.816105 0.097086
0.969268 0.810417 0.058802
0.114274 0.915437 0.161437
0.212305 0.913090 0.158438
0.317234 0.910627 0.155307
0.422025 0.908052 0.152049
0.526683 0.905366 0.148670
0.631215 0.902571 0.145175
0.735625 0.899671 0.141569
0.840017 0.896702 0.143178
0.956060 0.895562 0.085316
0.107357 0.970027 0.149027
0.205326 0.972458 0.146244
0.310924 0.974926 0.143358
0.416201 0.976361 0.141566
0.520569 0.973827 0.144099
0.624828 0.971191 0.146620
0.728981 0.968452 0.149129
0.833034 0.965613 0.151626
0.936988 0.962674 0.154113
0.068450 0.184321 0.252671
0.163647 0.195812 0.264801
0.280254 0.202810 0.272353
0.394517 0.207702 0.277761
0.507266 0.211235 0.281784
0.618909 0.213775 0.284795
0.729686 0.215537 0.287013
0.839756 0.216664 0.288586
0.843812 0.214508 0.286414
0.092217 0.315372 0.279362
0.190592 0.318511 0.282983
0.301897 0.320748 0.285685
0.412402 0.322265 0.287654
0.522244 0.323188 0.289018
0.631525 0.323606 0.289868
0.740318 0.323587 0.290272
0.848683 0.323183 0.290284
0.861431 0.319951 0.287055
0.104357 0.428914 0.288216
0.204658 0.429645 0.289383
0.313754 0.429897 0.290064
0.428278 0.428770 0.282501
0.548671 0.425327 0.275359
0.665161 0.422131 0.272570
0.781319 0.418637 0.269478
0.897174 0.414871 0.266109
0.924726 0.410425 0.261706
0.111734 0.535828 0.290317
0.212480 0.535171 0.290070
0.320208 0.534195 0.289500
0.427616 0.532931 0.288636
0.543247 0.530781 0.268599
0.666718 0.525528 0.252768
0.784829 0.520426 0.248052
0.902709 0.515116 0.243124
0.947853 0.509721 0.237827
0.115851 0.638654 0.288254
0.216227 0.637037 0.287029
0.322979 0.635185 0.285566
0.429488 0.633114 0.283880
0.535771 0.630841 0.281988
0.651021 0.628415 0.252517
0.773918 0.622687 0.230711
0.891122 0.616771 0.225165
0.955369 0.610775 0.219333
0.117368 0.738559 0.283214
0.216981 0.736216 0.281250
0.322980 0.733687 0.279098
0.428785 0.730985 0.276768
0.534408 0.728119 0.274272
0.639859 0.725098 0.271618
0.754984 0.722627 0.232948
0.877534 0.716628 0.205374
0.962742 0.710127 0.199110
0.116646 0.836210 0.275878
0.215387 0.833286 0.273324
0.320777 0.830211 0.270614
0.426007 0.826992 0.267758
0.531085 0.823636 0.264763
0.636018 0.820150 0.261635
0.740812 0.816539 0.258380
0.855971 0.814166 0.210657
0.969995 0.808040 0.177428
0.113912 0.914653 0.266683
0.211872 0.912266 0.263639
0.316753 0.909765 0.260464
0.421499 0.907152 0.257165
0.526114 0.904429 0.253746
0.630604 0.901598 0.250213
0.734974 0.898662 0.246570
0.839229 0.895623 0.242822
0.954530 0.893974 0.186145
0.107110 0.970848 0.254344
0.205116 0.973292 0.251525
0.310679 0.975772 0.248605
0.415511 0.975482 0.245218
0.519725 0.972859 0.241432
0.623830 0.970133 0.237547
0.727829 0.967304 0.233565
0.831727 0.964375 0.229490
0.935527 0.961347 0.225325
0.072353 0.189111 0.363944
0.167516 0.198504 0.373937
0.283183 0.204657 0.380629
0.396869 0.209032 0.385510
0.509207 0.212196 0.389157
0.620534 0.214452 0.391878
0.731056 0.215985 0.393864
0.840913 0.216922 0.395241
0.845627 0.214624 0.392929
0.093747 0.316555 0.386960
0.192410 0.319361 0.390243
0.303424 0.321336 0.392679
0.413690 0.322640 0.394430
0.523332 0.323383 0.395611
0.632440 0.323646 0.396302
0.741082 0.323491 0.396568
0.849312 0.322966 0.396456
0.863171 0.319658 0.393155
0.105280 0.429221 0.394921
0.205680 0.429781 0.395915
0.314612 0.429885 0.396445
0.423098 0.429590 0.396569
0.531189 0.428941 0.396330
0.638926 0.427972 0.395767
0.746341 0.426715 0.394910
0.853462 0.425194 0.393785
0.880098 0.421339 0.389977
0.112283 0.535643 0.396522
0.213020 0.534873 0.396161
0.320636 0.533797 0.395488
0.427941 0.532441 0.394530
0.540854 0.529867 0.385494
0.659785 0.525111 0.377013
0.774937 0.520713 0.373001
0.889862 0.516113 0.368782
0.935606 0.510985 0.363758
0.116115 0.638133 0.394116
0.216425 0.636433 0.392808
0.323093 0.634505 0.391267
0.429524 0.632364 0.389510
0.535734 0.630025 0.387551
0.650255 0.626878 0.366498
0.772692 0.620696 0.349721
0.889835 0.614725 0.344119
0.956119 0.608674 0.338240
0.117392 0.737785 0.388819
0.216918 0.735377 0.386790
0.322850 0.732789 0.384576
0.428592 0.730029 0.382189
0.534156 0.727110 0.379638
0.639550 0.724038 0.376932
0.753961 0.720859 0.346694
0.876065 0.714419 0.324162
0.963479 0.707870 0.317859
0.116458 0.835235 0.381279
0.215113 0.832259 0.378670
0.320448 0.829134 0.375910
0.425626 0.825867 0.373006
0.530654 0.822466 0.369965
0.635538 0.818937 0.366793
0.740287 0.815286 0.363497
0.854742 0.812213 0.324215
0.970721 0.805650 0.296042
0.113530 0.913855 0.371915
0.211423 0.911430 0.368825
0.316257 0.908890 0.365607
0.420958 0.906239 0.362267
0.525530 0.903479 0.358809
0.629979 0.900613 0.355238
0.734309 0.897641 0.351559
0.838526 0.894567 0.347776
0.953131 0.892397 0.299546
0.106848 0.971674 0.359648
0.204895 0.974130 0.356795
0.310423 0.976623 0.353840
0.414832 0.974603 0.350194
0.519008 0.971945 0.346374
0.623077 0.969183 0.342455
0.727042 0.966321 0.338441
0.830906 0.963358 0.334336
0.934673 0.960296 0.330141
0.075565 0.192856 0.474154
0.170999 0.200850 0.482721
0.285889 0.206305 0.488702
0.399067 0.210224 0.493118
0.511032 0.213053 0.496424
0.622067 0.215047 0.498878
0.732350 0.216365 0.500645
0.842006 0.217121 0.501838
0.847433 0.214690 0.499393
0.095195 0.317614 0.494433
0.194121 0.320116 0.497406
0.304865 0.321848 0.499594
0.414907 0.322951 0.501141
0.524359 0.323523 0.502147
0.633302 0.323637 0.502688
0.741798 0.323352 0.502820
0.849899 0.322710 0.502590
0.864904 0.319331 0.499220
0.106160 0.429466 0.501565
0.206644 0.429864 0.502394
0.315418 0.429827 0.502780
0.423766 0.429407 0.502776
0.531732 0.428646 0.502424
0.639356 0.427577 0.501758
0.746669 0.426227 0.500807
0.853696 0.424622 0.499595
0.881779 0.420728 0.495754
0.112800 0.535418 0.502686
0.213520 0.534541 0.502216
0.321028 0.533366 0.501443
0.428233 0.531921 0.500395
0.535162 0.530228 0.499093
0.641836 0.528305 0.497558
0.748272 0.526169 0.495805
0.854488 0.523835 0.493851
0.898205 0.519690 0.489817
0.116353 0.637582 0.499949
0.216595 0.635803 0.498560
0.323180 0.633801 0.496944
0.429534 0.631592 0.495116
0.535673 0.629188 0.493092
0.647503 0.625641 0.483064
0.765422 0.619977 0.473659
0.879627 0.614729 0.468780
0.946220 0.609097 0.463325
0.117394 0.736988 0.494402
0.216832 0.734518 0.492308
0.322698 0.731870 0.490034
0.428379 0.729055 0.487590
0.533884 0.726083 0.484986
0.639223 0.722962 0.482230
0.752921 0.719075 0.460424
0.874579 0.712194 0.442934
0.964215 0.705599 0.436593
0.116250 0.834241 0.486660
0.214821 0.831214 0.484000
0.320101 0.828040 0.481190
0.425227 0.824727 0.478239
0.530206 0.821282 0.475152
0.635044 0.817710 0.471937
0.739747 0.814018 0.468600
0.853499 0.810248 0.437759
0.971446 0.803247 0.414642
0.113130 0.913044 0.477130
0.210958 0.910580 0.473996
0.315746 0.908002 0.470736
0.420402 0.905314 0.467355
0.524932 0.902518 0.463858
0.629340 0.899615 0.460250
0.733631 0.896609 0.456536
0.837811 0.893500 0.452718
0.951719 0.890808 0.412936
0.106570 0.972504 0.464941
0.204661 0.974973 0.462053
0.309890 0.976301 0.458910
0.414140 0.973712 0.455158
0.518280 0.971019 0.451304
0.622312 0.968223 0.447353
0.726242 0.965325 0.443307
0.830073 0.962329 0.439171
0.933808 0.959234 0.434947
0.078364 0.195972 0.583722
0.174173 0.202918 0.591221
0.288402 0.207780 0.596598
0.401127 0.211291 0.600599
0.512751 0.213814 0.603593
0.623514 0.215564 0.605798
0.733572 0.216680 0.607360
0.843037 0.217264 0.608378
0.849230 0.214709 0.605810
0.096567 0.318561 0.601792
0.195734 0.320782 0.604478
0.306225 0.322287 0.606435
0.416056 0.323200 0.607789
0.525327 0.323610 0.608630
0.634112 0.323583 0.609026
0.742469 0.323172 0.609031
0.850445 0.322418 0.608686
0.866632 0.318971 0.605252
0.106997 0.429654 0.608150
0.207553 0.429897 0.608822
0.316176 0.429725 0.609070
0.424389 0.429185 0.608944
0.532236 0.428316 0.608481
0.639751 0.427148 0.607716
0.746963 0.425710 0.606674
0.853899 0.424022 0.605378
0.883456 0.420093 0.601507
0.113286 0.535155 0.608812
0.213983 0.534174 0.608236
0.321385 0.532905 0.607367
0.428494 0.531373 0.606230
0.535334 0.529600 0.604847
0.641925 0.527603 0.603236
0.748284 0.525398 0.601414
0.854428 0.522999 0.599394
0.899843 0.518840 0.595351
0.116565 0.637004 0.605754
0.216736 0.635148 0.604286
0.323241 0.633073 0.602596
0.429520 0.630796 0.600700
0.535589 0.628330 0.598612
0.641460 0.625687 0.596342
0.747145 0.622876 0.593902
0.852654 0.619908 0.591302
0.915880 0.615691 0.587270
0.117373 0.736170 0.599962
0.216723 0.733638 0.597806
0.322525 0.730932 0.595473
0.428145 0.728063 0.592974
0.533593 0.725039 0.590317
0.638877 0.721869 0.587510
0.749899 0.717597 0.576744
0.867054 0.711246 0.566639
0.956620 0.705228 0.560883
0.116022 0.833230 0.592024
0.214509 0.830152 0.589312
0.319737 0.826930 0.586453
0.424812 0.823572 0.583455
0.529742 0.820083 0.580325
0.634533 0.816470 0.577068
0.739192 0.812738 0.573689
0.852242 0.808269 0.551291
0.972170 0.800833 0.533231
0.112711 0.912220 0.582331
0.210476 0.909717 0.579153
0.315219 0.907101 0.575851
0.419832 0.904376 0.572430
0.524319 0.901544 0.568895
0.628687 0.898606 0.565251
0.732940 0.895564 0.561501
0.837083 0.892421 0.557649
0.950295 0.889205 0.526315
0.106276 0.973338 0.570221
0.204415 0.975819 0.567299
0.309223 0.975434 0.563897
0.413436 0.972809 0.560110
0.517538 0.970080 0.556223
0.621536 0.967250 0.552239
0.725432 0.964319 0.548163
0.829230 0.961289 0.543996
0.932932 0.958161 0.539743
0.080872 0.198642 0.692836
0.177088 0.204753 0.699485
0.290744 0.209101 0.704338
0.403061 0.212246 0.707966
0.514371 0.214487 0.710672
0.624880 0.216008 0.712645
0.734726 0.216934 0.714012
0.844009 0.217355 0.714865
0.851019 0.214683 0.712181
0.097868 0.319405 0.709046
0.197256 0.321367 0.711468
0.307509 0.322659 0.713208
0.417141 0.323392 0.714378
0.526239 0.323647 0.715061
0.634873 0.323484 0.715319
0.743096 0.322953 0.715201
0.850951 0.322091 0.714746
0.868354 0.318580 0.711253
0.107793 0.429787 0.714679
0.208408 0.429883 0.715201
0.316886 0.429581 0.715317
0.424971 0.428925 0.715073
0.532701 0.427951 0.714504
0.640110 0.426689 0.713642
0.747226 0.425163 0.712511
0.854072 0.423396 0.711134
0.885128 0.419434 0.707235
0.113742 0.534856 0.714901
0.214408 0.533774 0.714223
0.321708 0.532413 0.713260
0.428723 0.530797 0.712037
0.535476 0.528946 0.710575
0.641987 0.526876 0.708890
0.748272 0.524604 0.706999
0.854346 0.522143 0.704915
0.901476 0.517971 0.700867
0.116752 0.636399 0.711531
0.216848 0.634467 0.709986
0.323275 0.632322 0.708225
0.429481 0.629980 0.706262
0.535482 0.627452 0.704111
0.641288 0.624751 0.701782
0.746912 0.621885 0.699287
0.852364 0.618865 0.696633
0.917482 0.614651 0.692611
0.117331 0.735330 0.705500
0.216592 0.732738 0.703283
0.322331 0.729976 0.700892
0.427891 0.727053 0.698338
0.533283 0.723979 0.695630
0.638513 0.720760 0.692775
0.743592 0.717405 0.689780
0.848526 0.713920 0.686653
0.933204 0.709785 0.682788
0.115774 0.832201 0.697370
0.214180 0.829073 0.694607
0.319354 0.825804 0.691700
0.424379 0.822401 0.688657
0.529261 0.818870 0.685482
0.634008 0.815216 0.682184
0.738623 0.811445 0.678765
0.849007 0.806599 0.667415
0.965550 0.799699 0.656750
0.112274 0.911383 0.687516
0.209979 0.908841 0.684296
0.314677 0.906188 0.680953
0.419247 0.903426 0.677492
0.523693 0.900558 0.673920
0.628022 0.897585 0.670239
0.732237 0.894508 0.666454
0.836342 0.891331 0.662569
0.948860 0.887588 0.639683
0.105967 0.974177 0.675490
0.204158 0.976671 0.672534
0.308544 0.974554 0.668873
0.412718 0.971894 0.665051
0.516785 0.969131 0.661131
0.620748 0.966266 0.657115
0.724610 0.963301 0.653008
0.828375 0.960237 0.648811
0.932046 0.957077 0.644529
0.083157 0.200971 0.801603
0.179783 0.206391 0.807548
0.292934 0.210286 0.811939
0.404880 0.213098 0.815227
0.515899 0.215077 0.817667
0.626169 0.216384 0.819422
0.735815 0.217130 0.820606
0.844925 0.217396 0.821300
0.852800 0.214614 0.818509
0.099105 0.320155 0.816204
0.198692 0.321874 0.818379
0.308723 0.322966 0.819914
0.418164 0.323529 0.820911
0.527098 0.323636 0.821444
0.635587 0.323343 0.821569
0.743680 0.322695 0.821333
0.851419 0.321729 0.820772
0.870070 0.318158 0.817222
0.108549 0.429867 0.821155
0.209211 0.429823 0.821534
0.317551 0.429396 0.821523
0.425511 0.428629 0.821164
0.533129 0.427554 0.820493
0.640436 0.426199 0.819537
0.747458 0.424589 0.818320
0.854217 0.422744 0.816863
0.886796 0.418751 0.812940
0.114168 0.534521 0.820954
0.214798 0.533342 0.820176
0.321998 0.531892 0.819123
0.428922 0.530194 0.817816
0.535591 0.528267 0.816277
0.642023 0.526127 0.814520
0.748235 0.523789 0.812562
0.854240 0.521266 0.810415
0.903107 0.517083 0.806363
0.116915 0.635768 0.817282
0.216934 0.633761 0.815661
0.323284 0.631548 0.813830
0.429419 0.629141 0.811802
0.535352 0.626554 0.809589
0.641096 0.623795 0.807203
0.746660 0.620877 0.804653
0.852055 0.617806 0.801948
0.919082 0.613594 0.797937
0.117267 0.734470 0.811017
0.216439 0.731819 0.808740
0.322116 0.729001 0.806293
0.427618 0.726026 0.803686
0.532954 0.722902 0.800926
0.638132 0.719636 0.798023
0.743161 0.716236 0.794983
0.848047 0.712707 0.791812
0.934777 0.708586 0.787969
0.115506 0.831155 0.802698
0.213832 0.827979 0.799886
0.318955 0.824663 0.796932
0.423930 0.821216 0.793843
0.528766 0.817642 0.790626
0.633467 0.813948 0.787286
0.738039 0.810138 0.783828
0.842489 0.806218 0.780258
0.946820 0.802192 0.776580
0.111818 0.910532 0.792686
0.209467 0.907952 0.789424
0.314121 0.905262 0.786041
0.418648 0.902464 0.782542
0.523054 0.899560 0.778932
0.627343 0.896551 0.775215
0.731520 0.893440 0.771396
0.835590 0.890229 0.767478
0.945448 0.886198 0.755646
0.105642 0.975019 0.780747
0.203603 0.976254 0.777591
0.307851 0.973662 0.773836
0.411989 0.970967 0.769980
0.516020 0.968169 0.766027
0.619948 0.965270 0.761980
0.723777 0.962272 0.757842
0.827510 0.959175 0.753617
0.931150 0.955981 0.749306
0.085261 0.203025 0.899276
0.182286 0.207857 0.903639
0.294987 0.211347 0.906935
0.406593 0.213854 0.909445
0.517341 0.215590 0.911335
0.627387 0.216696 0.912715
0.736842 0.217271 0.913661
0.845788 0.217388 0.914231
0.854573 0.214504 0.911851
0.100281 0.320817 0.910198
0.200048 0.322310 0.911892
0.309868 0.323212 0.913106
0.419129 0.323613 0.913910
0.527905 0.323579 0.914354
0.636255 0.323161 0.914478
0.744224 0.322401 0.914315
0.851849 0.321333 0.913889
0.871780 0.317706 0.910901
0.109268 0.429898 0.914111
0.209966 0.429719 0.914434
0.318172 0.429172 0.914450
0.426012 0.428296 0.914189
0.533521 0.427124 0.913674
0.640729 0.425680 0.912924
0.747659 0.423988 0.911959
0.854334 0.422066 0.910791
0.888460 0.418045 0.907495
0.114566 0.534152 0.914029
0.215153 0.532878 0.913427
0.322257 0.531342 0.912597
0.429092 0.529564 0.911556
0.535679 0.527563 0.910318
0.642034 0.525355 0.908894
0.748174 0.522952 0.907295
0.854112 0.520369 0.905530
0.904733 0.516177 0.902121
0.117053 0.635110 0.911128
0.216993 0.633032 0.909820
0.323269 0.630752 0.908332
0.429333 0.628282 0.906671
0.535201 0.625636 0.904848
0.640882 0.622822 0.902869
0.746388 0.619850 0.900743
0.851728 0.616730 0.898474
0.920678 0.612522 0.895089
0.117181 0.733589 0.906026
0.216265 0.730880 0.904145
0.321881 0.728008 0.902112
0.427326 0.724981 0.899933
0.532607 0.721808 0.897614
0.637734 0.718496 0.895162
0.742713 0.715052 0.892579
0.847552 0.711481 0.889873
0.936348 0.707375 0.886614
0.115219 0.830093 0.899105
0.213466 0.826868 0.896737
0.318538 0.823507 0.894236
0.423465 0.820016 0.891608
0.528254 0.816401 0.888857
0.632911 0.812667 0.885987
0.737442 0.808819 0.883001
0.841850 0.804863 0.879903
0.946143 0.800801 0.876696
0.111343 0.909669 0.890621
0.208939 0.907051 0.887826
0.313550 0.904324 0.884913
0.418035 0.901490 0.881886
0.522401 0.898550 0.878748
0.626652 0.895506 0.875502
0.730792 0.892361 0.872152
0.834825 0.889115 0.868699
0.938756 0.885771 0.865147
0.105302 0.975866 0.880515
0.202936 0.975386 0.877579
0.307146 0.972759 0.874295
0.411247 0.970028 0.870907
0.515243 0.967196 0.867417
0.619137 0.964263 0.863829
0.722933 0.961231 0.860145
0.826634 0.958101 0.856365
0.930243 0.954875 0.852494
0.085905 0.203882 0.902172
0.182671 0.208192 0.905122
0.294963 0.211316 0.907977
0.406268 0.213547 0.910764
0.516786 0.215068 0.913500
0.626654 0.216000 0.916196
0.735969 0.216433 0.918861
0.844805 0.216433 0.921500
0.854600 0.213479 0.921497
0.099993 0.320426 0.911765
0.199422 0.321720 0.914486
0.309079 0.322462 0.917170
0.418212 0.322730 0.919825
0.526889 0.322586 0.922455
0.635161 0.322076 0.925066
0.743072 0.321240 0.927661
0.850656 0.320108 0.930242
0.871969 0.316464 0.930468
0.108577 0.428973 0.920785
0.208919 0.428691 0.923408
0.317056 0.428058 0.926013
0.424844 0.427111 0.928602
0.532317 0.425878 0.931178
0.639501 0.424384 0.933744
0.746419 0.422651 0.936301
0.853093 0.420696 0.938850
0.888874 0.416692 0.939421
0.113680 0.532944 0.929541
0.213939 0.531613 0.932114
0.321024 0.530030 0.934676
0.427851 0.528214 0.937230
0.534439 0.526182 0.939776
0.640806 0.523950 0.942317
0.746964 0.521529 0.944853
0.852928 0.518933 0.947386
0.905417 0.514780 0.948394
0.116091 0.633749 0.938158
0.215757 0.631642 0.940702
0.322046 0.629340 0.943241
0.428132 0.626854 0.945776
0.534028 0.624196 0.948307
0.639744 0.621375 0.950835
0.745291 0.618402 0.953362
0.850676 0.615283 0.955887
0.921668 0.611132 0.957411
0.116221 0.732156 0.946698
0.215104 0.729437 0.949228
0.320757 0.726560 0.951755
0.426244 0.723533 0.954281
0.531573 0.720362 0.956806
0.636753 0.717057 0.959329
0.741789 0.713622 0.961853
0.846689 0.710063 0.964377
0.937673 0.706028 0.966490
0.114316 0.828645 0.955200
0.212451 0.825424 0.957724
0.317577 0.822071 0.960248
0.422563 0.818590 0.962772
0.527415 0.814989 0.965296
0.632138 0.811271 0.967820
0.736739 0.807442 0.970346
0.841198 0.803495 0.971765
0.945452 0.799399 0.968772
0.110540 0.908654 0.963691
0.208124 0.906039 0.966215
0.312802 0.903315 0.968740
0.417359 0.900485 0.971266
0.521735 0.897528 0.970688
0.625947 0.894449 0.967656
0.730051 0.891270 0.964519
0.834049 0.887991 0.961279
0.937945 0.884613 0.957939
0.104940 0.976714 0.972141
0.202256 0.974505 0.969596
0.306428 0.971843 0.966526
0.410493 0.969078 0.963351
0.514454 0.966211 0.960075
0.618314 0.963244 0.956699
0.722077 0.960179 0.953226
0.825747 0.957016 0.949658
0.929326 0.953758 0.945997
