library/luts/mint_air.cube
# CrabbyCut preset LUT — sinh bởi scripts/generate_preset_luts.js
TITLE "Bạc hà"
LUT_3D_SIZE 17
0.062203 0.176053 0.137854
0.103905 0.186761 0.148974
0.159275 0.192668 0.155204
0.218654 0.197132 0.159964
0.277065 0.200728 0.163839
0.334792 0.203709 0.167087
0.391994 0.206219 0.169856
0.448773 0.208348 0.172237
0.505199 0.210161 0.174296
0.561323 0.211703 0.176078
0.617184 0.213008 0.177620
0.672813 0.214105 0.178949
0.728234 0.215016 0.180088
0.783468 0.215757 0.181056
0.838530 0.216346 0.181867
0.842193 0.215457 0.180979
0.841987 0.214341 0.179847
0.080759 0.251650 0.161460
0.119435 0.255000 0.165085
0.177693 0.257676 0.167168
0.236817 0.259554 0.168445
0.296896 0.260713 0.168997
0.355783 0.261743 0.170098
0.413967 0.262612 0.171206
0.471899 0.263256 0.172085
0.529609 0.263699 0.172760
0.587119 0.263963 0.173252
0.644448 0.264065 0.173578
0.701611 0.264018 0.173752
0.758622 0.263834 0.173787
0.815492 0.263524 0.173694
0.872232 0.263096 0.173481
0.879815 0.261819 0.172215
0.879597 0.260323 0.170697
0.090596 0.314053 0.171624
0.132458 0.315947 0.173765
0.188660 0.317558 0.175619
0.246186 0.318808 0.173678
0.306172 0.319114 0.170790
0.368642 0.318499 0.166976
0.429102 0.317950 0.165968
0.488528 0.317412 0.165655
0.547794 0.316731 0.165194
0.606912 0.315917 0.164599
0.665893 0.314980 0.163878
0.724746 0.313929 0.163041
0.783481 0.312771 0.162095
0.842104 0.311513 0.161047
0.900622 0.310161 0.159902
0.913699 0.308497 0.158266
0.913503 0.306685 0.156427
0.097809 0.372493 0.177751
0.141783 0.373572 0.179062
0.197186 0.374466 0.180185
0.252403 0.375193 0.181137
0.309745 0.375777 0.175088
0.370530 0.375250 0.167925
0.434770 0.373622 0.159659
0.496322 0.372061 0.156943
0.556571 0.370582 0.155677
0.616703 0.368998 0.154304
0.676727 0.367316 0.152832
0.736648 0.365542 0.151265
0.796472 0.363681 0.149610
0.856204 0.361737 0.147871
0.915848 0.359715 0.146052
0.935616 0.357678 0.144062
0.935442 0.355599 0.141953
0.103386 0.428544 0.181445
0.148736 0.429067 0.182189
0.203575 0.429454 0.182795
0.258273 0.429716 0.183273
0.312843 0.429861 0.183633
0.369750 0.430071 0.174915
0.430142 0.429208 0.165122
0.494026 0.427278 0.154260
0.555123 0.425312 0.150673
0.614913 0.423420 0.148987
0.674612 0.421447 0.147218
0.734226 0.419397 0.145370
0.793758 0.417274 0.143448
0.853212 0.415081 0.141455
0.912592 0.412821 0.139393
0.939569 0.410545 0.137189
0.939377 0.408249 0.134859
0.107756 0.482906 0.183418
0.153963 0.483011 0.183736
0.208369 0.483010 0.183946
0.262663 0.482909 0.184055
0.316854 0.482714 0.184068
0.370946 0.482431 0.183991
0.427568 0.482402 0.172743
0.487701 0.481323 0.160441
0.551349 0.479197 0.147091
0.612096 0.476921 0.142730
0.671523 0.474703 0.140712
0.730876 0.472419 0.138626
0.790159 0.470072 0.136476
0.849375 0.467665 0.134264
0.908525 0.465199 0.131993
0.943464 0.462713 0.129608
0.943256 0.460227 0.127084
0.111153 0.535973 0.184071
0.157842 0.535746 0.184051
0.211899 0.535431 0.183942
0.265865 0.535035 0.183750
0.319744 0.534560 0.183478
0.373540 0.534011 0.183130
0.427257 0.533391 0.182711
0.483688 0.533207 0.169015
0.543645 0.531987 0.154282
0.607132 0.529734 0.138513
0.667601 0.527211 0.133444
0.726729 0.524725 0.131152
0.785795 0.522183 0.128803
0.844802 0.519588 0.126401
0.903751 0.516942 0.123946
0.947307 0.514269 0.121404
0.947086 0.511614 0.118710
0.113721 0.587996 0.183660
0.160622 0.587494 0.183360
0.214389 0.586918 0.182986
0.268078 0.586273 0.182540
0.321693 0.585562 0.182027
0.375237 0.584786 0.181449
0.428713 0.583950 0.180808
0.482123 0.583054 0.180108
0.538425 0.582771 0.164023
0.598264 0.581462 0.146910
0.661643 0.579128 0.128773
0.721883 0.576403 0.123039
0.780758 0.573690 0.120516
0.839580 0.570929 0.117944
0.898351 0.568122 0.115326
0.951105 0.565280 0.112648
0.950871 0.562474 0.109800
0.115562 0.639147 0.182361
0.162479 0.638412 0.181824
0.215998 0.637614 0.181223
0.269449 0.636755 0.180560
0.322836 0.635839 0.179838
0.376161 0.634867 0.179060
0.429426 0.633841 0.178226
0.482633 0.632763 0.177340
0.535784 0.631635 0.176403
0.592001 0.631293 0.157969
0.651764 0.629932 0.138516
0.715076 0.627554 0.118045
0.775123 0.624659 0.111681
0.833779 0.621749 0.108957
0.892389 0.618798 0.106192
0.950954 0.615807 0.103385
0.954617 0.612858 0.100408
0.116744 0.689553 0.180304
0.163541 0.688616 0.179561
0.216844 0.687624 0.178763
0.270087 0.686579 0.177910
0.323274 0.685483 0.177005
0.376406 0.684337 0.176049
0.429484 0.683144 0.175045
0.482511 0.681904 0.173994
0.535487 0.680619 0.172896
0.588416 0.679291 0.171755
0.644581 0.678919 0.151003
0.704300 0.677535 0.129238
0.767573 0.675140 0.106461
0.827455 0.672101 0.099492
0.885919 0.669018 0.096593
0.944342 0.665899 0.093656
0.958327 0.662811 0.090578
0.117321 0.739311 0.177586
0.163908 0.738196 0.176663
0.217020 0.737033 0.175689
0.270079 0.735822 0.174668
0.323087 0.734566 0.173599
0.376046 0.733265 0.172486
0.428957 0.731922 0.171329
0.481822 0.730536 0.170129
0.534641 0.729110 0.168888
0.587417 0.727644 0.167607
0.640149 0.726141 0.166286
0.696290 0.725763 0.143241
0.755988 0.724378 0.119186
0.819246 0.721986 0.094124
0.878987 0.718822 0.086571
0.937280 0.715587 0.083515
0.962003 0.712368 0.080347
0.117333 0.788495 0.174284
0.163657 0.787223 0.173199
0.216599 0.785906 0.172070
0.269493 0.784547 0.170897
0.322341 0.783146 0.169682
0.375144 0.781706 0.168426
0.427904 0.780226 0.167131
0.480621 0.778709 0.165796
0.533298 0.777154 0.164424
0.585934 0.775564 0.163016
0.638531 0.773938 0.161572
0.691090 0.772278 0.160092
0.747226 0.771914 0.134771
0.806925 0.770546 0.108446
0.870186 0.768174 0.081116
0.929802 0.764902 0.072995
0.965649 0.761561 0.069746
0.116813 0.837167 0.170459
0.162854 0.835752 0.169229
0.215641 0.834297 0.167959
0.268385 0.832803 0.166649
0.321088 0.831272 0.165301
0.373749 0.829704 0.163916
0.426371 0.828101 0.162494
0.478954 0.826463 0.161037
0.531500 0.824791 0.159545
0.584008 0.823085 0.158020
0.636481 0.821348 0.156462
0.688918 0.819579 0.154871
0.741321 0.817779 0.153249
0.797470 0.817443 0.125669
0.857185 0.816105 0.097086
0.920465 0.813768 0.067503
0.969268 0.810417 0.058802
0.115786 0.882116 0.166163
0.161549 0.880938 0.164801
0.214196 0.879731 0.163402
0.266803 0.878494 0.161968
0.319373 0.877227 0.160498
0.371905 0.875931 0.158994
0.424400 0.874607 0.157456
0.476860 0.873254 0.155886
0.529284 0.871874 0.154284
0.581675 0.870241 0.152651
0.634033 0.868400 0.150987
0.686357 0.866530 0.149294
0.738650 0.864631 0.147571
0.790912 0.862704 0.145820
0.847087 0.862409 0.115992
0.906831 0.861115 0.085166
0.970154 0.858823 0.054514
0.114274 0.915437 0.161437
0.159786 0.914278 0.159954
0.212305 0.913090 0.158438
0.264787 0.911873 0.156888
0.317234 0.910627 0.155307
0.369646 0.909353 0.153693
0.422025 0.908052 0.152049
0.474370 0.906722 0.150374
0.526683 0.905366 0.148670
0.578965 0.903982 0.146937
0.631215 0.902571 0.145175
0.683435 0.901134 0.143386
0.735625 0.899671 0.141569
0.787827 0.898196 0.141911
0.840017 0.896702 0.143178
0.896263 0.896507 0.114609
0.956060 0.895562 0.085316
0.112295 0.949220 0.156316
0.157603 0.948081 0.154723
0.210003 0.946914 0.153098
0.262370 0.945719 0.151443
0.314703 0.944495 0.149757
0.367005 0.943244 0.148042
0.419275 0.941966 0.146299
0.471514 0.940661 0.144527
0.523723 0.939329 0.142728
0.575907 0.937972 0.141103
0.628115 0.936611 0.142373
0.680295 0.935224 0.143639
0.732447 0.933811 0.144902
0.784573 0.932373 0.146162
0.836672 0.930910 0.147419
0.888746 0.929421 0.148673
0.944998 0.929341 0.118525
0.107357 0.970027 0.149027
0.152907 0.971238 0.147649
0.205326 0.972458 0.146244
0.258138 0.973687 0.144814
0.310924 0.974926 0.143358
0.363685 0.976174 0.141877
0.416201 0.976361 0.141566
0.468399 0.975107 0.142834
0.520569 0.973827 0.144099
0.572712 0.972522 0.145361
0.624828 0.971191 0.146620
0.676918 0.969834 0.147876
0.728981 0.968452 0.149129
0.781020 0.967045 0.150379
0.833034 0.965613 0.151626
0.885023 0.964156 0.152871
0.936988 0.962674 0.154113
0.065989 0.181163 0.196257
0.105879 0.188995 0.204448
0.161534 0.194306 0.210069
0.220540 0.198435 0.214488
0.278695 0.201801 0.218128
0.336230 0.204609 0.221201
0.393278 0.206981 0.223829
0.449931 0.208997 0.226095
0.506249 0.210713 0.228055
0.562280 0.212171 0.229752
0.618059 0.213403 0.231219
0.673615 0.214434 0.232481
0.728970 0.215286 0.233560
0.784144 0.215974 0.234473
0.839152 0.216513 0.235234
0.843114 0.215588 0.234311
0.842901 0.214431 0.233137
0.081931 0.252860 0.215889
0.120989 0.256005 0.219305
0.178334 0.258643 0.222204
0.235230 0.260878 0.224693
0.291754 0.262779 0.226841
0.347963 0.264397 0.228701
0.403899 0.265769 0.230311
0.459594 0.266926 0.231701
0.515074 0.267889 0.232895
0.570361 0.268679 0.233911
0.625473 0.269312 0.234767
0.680424 0.269800 0.235476
0.735227 0.270155 0.236050
0.789892 0.270387 0.236498
0.844431 0.270505 0.236830
0.852105 0.269296 0.235633
0.851827 0.267782 0.234097
0.091419 0.314731 0.225511
0.133536 0.316524 0.227550
0.189641 0.318048 0.229315
0.246222 0.319219 0.229864
0.303923 0.319818 0.229838
0.362766 0.319867 0.229259
0.420564 0.319918 0.229365
0.477775 0.319913 0.229583
0.534829 0.319769 0.229658
0.591740 0.319495 0.229602
0.648518 0.319102 0.229424
0.705171 0.318597 0.229132
0.761708 0.317987 0.228733
0.818136 0.317279 0.228235
0.874460 0.316479 0.227643
0.887559 0.314940 0.226133
0.887293 0.313118 0.224284
0.098436 0.372881 0.231344
0.142579 0.373895 0.232588
0.197917 0.374731 0.233651
0.253074 0.375405 0.234550
0.309664 0.375814 0.231753
0.368802 0.375358 0.228089
0.430499 0.374049 0.223568
0.490249 0.372862 0.221910
0.549018 0.371735 0.220995
0.607674 0.370505 0.219977
0.666223 0.369180 0.218861
0.724670 0.367765 0.217652
0.783023 0.366264 0.216356
0.841285 0.364682 0.214978
0.899462 0.363022 0.213521
0.919390 0.361102 0.211651
0.919164 0.359014 0.209532
0.103877 0.428738 0.234839
0.149334 0.429213 0.235535
0.204124 0.429556 0.236096
0.258778 0.429778 0.236533
0.313305 0.429885 0.236855
0.370008 0.429895 0.230221
0.430198 0.428834 0.222514
0.493883 0.426707 0.213740
0.554913 0.424679 0.210547
0.614672 0.422759 0.208832
0.674342 0.420760 0.207036
0.733928 0.418684 0.205163
0.793433 0.416537 0.203216
0.852861 0.414321 0.201199
0.912216 0.412038 0.199115
0.939965 0.409740 0.196892
0.939771 0.407424 0.194541
0.108140 0.482954 0.236663
0.154411 0.483022 0.236944
0.208778 0.482986 0.237119
0.263037 0.482853 0.237195
0.317193 0.482627 0.237177
0.371252 0.482315 0.237071
0.427680 0.482094 0.227914
0.487619 0.480824 0.217706
0.551073 0.478508 0.206450
0.611762 0.476175 0.202490
0.671163 0.473935 0.200448
0.730492 0.471629 0.198340
0.789752 0.469261 0.196169
0.848945 0.466834 0.193937
0.908074 0.464349 0.191646
0.943854 0.461843 0.189244
0.943645 0.459339 0.186703
0.111447 0.535906 0.237199
0.158169 0.535648 0.237148
0.212195 0.535306 0.237011
0.266130 0.534882 0.236791
0.319981 0.534382 0.236493
0.373749 0.533808 0.236121
0.427441 0.533165 0.235677
0.483682 0.532794 0.224079
0.543450 0.531388 0.211444
0.606749 0.528948 0.197775
0.667163 0.526373 0.193110
0.726270 0.523868 0.190798
0.785316 0.521308 0.188431
0.844303 0.518695 0.186010
0.903233 0.516032 0.183538
0.947693 0.513341 0.180982
0.947470 0.510670 0.178271
0.113939 0.587834 0.236692
0.160849 0.587306 0.236366
0.214589 0.586707 0.235967
0.268253 0.586039 0.235499
0.321843 0.585305 0.234963
0.375364 0.584509 0.234363
0.428817 0.583652 0.233702
0.482206 0.582737 0.232982
0.538321 0.582270 0.218998
0.597975 0.580778 0.203987
0.661171 0.578262 0.187952
0.721359 0.575487 0.182625
0.780215 0.572757 0.180085
0.839020 0.569981 0.177497
0.897773 0.567159 0.174863
0.951486 0.564300 0.172173
0.951251 0.561480 0.169311
0.115710 0.638904 0.235311
0.162620 0.638148 0.234752
0.216116 0.637329 0.234130
0.269545 0.636450 0.233447
0.322911 0.635515 0.232705
0.376215 0.634524 0.231908
0.429460 0.633480 0.231056
0.482648 0.632385 0.230152
0.535781 0.631241 0.229198
0.591815 0.630717 0.212868
0.651396 0.629176 0.195519
0.714525 0.626618 0.177153
0.774523 0.623676 0.171198
0.833163 0.620752 0.168460
0.891758 0.617787 0.165680
0.950308 0.614782 0.162860
0.954993 0.611819 0.159873
0.116829 0.689241 0.233183
0.163608 0.688285 0.232421
0.216891 0.687275 0.231604
0.270115 0.686213 0.230733
0.323282 0.685099 0.229811
0.376396 0.683937 0.228839
0.429456 0.682728 0.227818
0.482466 0.681472 0.226751
0.535426 0.680173 0.225639
0.588338 0.678830 0.224483
0.644323 0.678279 0.205837
0.703861 0.676717 0.186178
0.766954 0.674143 0.165507
0.826790 0.671058 0.158949
0.885240 0.667963 0.156037
0.943649 0.664832 0.153088
0.958699 0.661730 0.150001
0.117347 0.738938 0.230403
0.163909 0.737807 0.229462
0.217003 0.736627 0.228473
0.270045 0.735401 0.227435
0.323036 0.734129 0.226351
0.375979 0.732814 0.225223
0.428874 0.731456 0.224051
0.481723 0.730056 0.222837
0.534527 0.728617 0.221582
0.587288 0.727138 0.220288
0.640007 0.725621 0.218954
0.695968 0.725067 0.198016
0.755488 0.723504 0.176069
0.818568 0.720935 0.153115
0.878262 0.717727 0.145975
0.936543 0.714480 0.142907
0.962373 0.711249 0.139731
0.117304 0.788068 0.227046
0.163600 0.786780 0.225946
0.216526 0.785449 0.224801
0.269404 0.784076 0.223614
0.322236 0.782662 0.222385
0.375025 0.781208 0.221116
0.427770 0.779715 0.219807
0.480473 0.778185 0.218460
0.533136 0.776618 0.217075
0.585759 0.775015 0.215654
0.638343 0.773378 0.214198
0.690889 0.771707 0.212707
0.746848 0.771167 0.189495
0.806369 0.769622 0.165278
0.869454 0.767075 0.140058
0.929026 0.763759 0.132350
0.966016 0.760407 0.129094
0.116732 0.836691 0.223171
0.162744 0.835262 0.221927
0.215516 0.833794 0.220644
0.268246 0.832287 0.219321
0.320935 0.830744 0.217960
0.373583 0.829164 0.216562
0.426191 0.827548 0.215128
0.478762 0.825899 0.213659
0.531295 0.824215 0.212156
0.583791 0.822499 0.210619
0.636251 0.820751 0.209050
0.688677 0.818971 0.207449
0.741069 0.817161 0.205816
0.797041 0.816649 0.180346
0.856579 0.815137 0.153874
0.919685 0.812625 0.126401
0.969631 0.809230 0.118117
0.115655 0.881719 0.218830
0.161391 0.880532 0.217455
0.214024 0.879314 0.216044
0.266619 0.878067 0.214597
0.319175 0.876790 0.213116
0.371695 0.875485 0.211600
0.424178 0.874151 0.210052
0.476626 0.872789 0.208471
0.529039 0.871399 0.206858
0.581418 0.869619 0.205214
0.633764 0.867768 0.203540
0.686078 0.865888 0.201837
0.738361 0.863980 0.200104
0.790612 0.862043 0.198344
0.846612 0.861574 0.170627
0.906181 0.860106 0.141912
0.969319 0.857640 0.112198
0.114095 0.915046 0.214062
0.159584 0.913878 0.212568
0.212090 0.912680 0.211040
0.264560 0.911453 0.209480
0.316996 0.910198 0.207887
0.369396 0.908914 0.206263
0.421763 0.907603 0.204608
0.474098 0.906265 0.202924
0.526400 0.904899 0.201210
0.578671 0.903506 0.199467
0.630911 0.902086 0.197696
0.683121 0.900640 0.195897
0.735301 0.899168 0.194071
0.787453 0.897670 0.192219
0.839576 0.896146 0.190341
0.895615 0.895820 0.160389
0.955225 0.894757 0.129441
0.112069 0.948837 0.208904
0.157361 0.947688 0.207300
0.209749 0.946511 0.205664
0.262104 0.945306 0.203999
0.314427 0.944073 0.202303
0.366718 0.942813 0.200578
0.418977 0.941526 0.198825
0.471206 0.940211 0.197044
0.523405 0.938870 0.195235
0.575575 0.937503 0.193400
0.627716 0.936109 0.191538
0.679829 0.934689 0.189651
0.731914 0.933244 0.187738
0.783972 0.931773 0.185800
0.836003 0.930277 0.183838
0.888008 0.928755 0.181852
0.944096 0.928570 0.149674
0.107236 0.970437 0.201687
0.152859 0.971651 0.200300
0.205223 0.972874 0.198886
0.258026 0.974107 0.197447
0.310803 0.975349 0.195983
0.363555 0.976600 0.194494
0.415845 0.975917 0.192725
0.467976 0.974628 0.190854
0.520078 0.973312 0.188957
0.572154 0.971970 0.187035
0.624202 0.970603 0.185089
0.676223 0.969210 0.183118
0.728219 0.967792 0.181123
0.780189 0.966348 0.179105
0.832133 0.964879 0.177063
0.884054 0.963386 0.175000
0.935949 0.961868 0.172914
0.068450 0.184321 0.252671
0.107679 0.190976 0.259662
0.163647 0.195812 0.264801
0.222329 0.199651 0.268923
0.280254 0.202810 0.272353
0.337611 0.205459 0.275264
0.394517 0.207702 0.277761
0.451050 0.209611 0.279917
0.507266 0.211235 0.281784
0.563208 0.212613 0.283400
0.618909 0.213775 0.284795
0.674394 0.214743 0.285993
0.729686 0.215537 0.287013
0.784801 0.216173 0.287873
0.839756 0.216664 0.288586
0.844032 0.215705 0.287629
0.843812 0.214508 0.286414
0.083053 0.253993 0.270241
0.122479 0.256952 0.273466
0.179660 0.259443 0.276217
0.236423 0.261558 0.278583
0.292835 0.263358 0.280628
0.348947 0.264889 0.282400
0.404797 0.266185 0.283932
0.460417 0.267273 0.285252
0.515829 0.268176 0.286384
0.571055 0.268911 0.287344
0.626110 0.269493 0.288149
0.681010 0.269935 0.288811
0.735765 0.270247 0.289341
0.790386 0.270439 0.289748
0.844883 0.270520 0.290042
0.853001 0.269289 0.288825
0.852716 0.267743 0.287256
0.092217 0.315372 0.279362
0.134579 0.317070 0.281303
0.190592 0.318511 0.282983
0.246356 0.319729 0.284436
0.301897 0.320748 0.285685
0.357240 0.321587 0.286752
0.412402 0.322265 0.287654
0.467399 0.322794 0.288406
0.522244 0.323188 0.289018
0.576950 0.323456 0.289503
0.631525 0.323606 0.289868
0.685978 0.323648 0.290122
0.740318 0.323587 0.290272
0.794551 0.323430 0.290324
0.848683 0.323183 0.290284
0.861768 0.321782 0.288913
0.861431 0.319951 0.287055
0.099048 0.373247 0.284913
0.143351 0.374198 0.286094
0.198626 0.374977 0.287099
0.253726 0.375599 0.287945
0.309404 0.375958 0.287667
0.366283 0.375819 0.286890
0.424375 0.375194 0.285624
0.481482 0.374625 0.285097
0.538052 0.374045 0.284729
0.594512 0.373366 0.284260
0.650866 0.372593 0.283695
0.707122 0.371730 0.283039
0.763284 0.370784 0.282298
0.819358 0.369758 0.281475
0.875347 0.368657 0.280576
0.895138 0.366937 0.278909
0.894834 0.364847 0.276787
0.104357 0.428914 0.288216
0.149916 0.429344 0.288865
0.204658 0.429645 0.289383
0.259268 0.429826 0.289780
0.313754 0.429897 0.290064
0.369721 0.429746 0.286697
0.428278 0.428770 0.282501
0.489432 0.426972 0.277484
0.548671 0.425327 0.275359
0.606960 0.423768 0.274004
0.665161 0.422131 0.272570
0.723279 0.420420 0.271060
0.781319 0.418637 0.269478
0.839282 0.416787 0.267827
0.897174 0.414871 0.266109
0.924978 0.412747 0.264062
0.924726 0.410425 0.261706
0.108515 0.482990 0.289896
0.154845 0.483021 0.290140
0.209175 0.482952 0.290281
0.263398 0.482786 0.290324
0.317521 0.482531 0.290276
0.371549 0.482190 0.290140
0.427781 0.481777 0.283076
0.487526 0.480316 0.274962
0.550789 0.477811 0.265802
0.611418 0.475422 0.262242
0.670794 0.473159 0.260177
0.730099 0.470832 0.258047
0.789336 0.468443 0.255855
0.848507 0.465996 0.253603
0.907616 0.463492 0.251293
0.944244 0.460967 0.248874
0.944033 0.458445 0.246315
0.111734 0.535828 0.290317
0.158485 0.535541 0.290236
0.212480 0.535171 0.290070
0.266386 0.534721 0.289824
0.320208 0.534195 0.289500
0.373950 0.533597 0.289103
0.427616 0.532931 0.288636
0.483667 0.532373 0.279135
0.543247 0.530781 0.268599
0.606359 0.528156 0.257030
0.666718 0.525528 0.252768
0.725804 0.523004 0.250438
0.784829 0.520426 0.248052
0.843797 0.517796 0.245614
0.902709 0.515116 0.243124
0.948078 0.512408 0.240554
0.947853 0.509721 0.237827
0.114149 0.587663 0.289714
0.161067 0.587111 0.289364
0.214781 0.586488 0.288941
0.268419 0.585797 0.288449
0.321985 0.585042 0.287891
0.375483 0.584225 0.287271
0.428914 0.583348 0.286589
0.482281 0.582413 0.285849
0.538211 0.581763 0.273966
0.597680 0.580088 0.261058
0.660691 0.577390 0.247125
0.720828 0.574566 0.242206
0.779666 0.571820 0.239649
0.838453 0.569027 0.237046
0.897190 0.566190 0.234396
0.951867 0.563315 0.231693
0.951630 0.560481 0.228816
0.115851 0.638654 0.288254
0.162754 0.637876 0.287673
0.216227 0.637037 0.287029
0.269634 0.636139 0.286326
0.322979 0.635185 0.285566
0.376262 0.634176 0.284750
0.429488 0.633114 0.283880
0.482657 0.632002 0.282959
0.535771 0.630841 0.281988
0.591623 0.630137 0.267762
0.651021 0.628415 0.252517
0.713969 0.625677 0.236256
0.773918 0.622687 0.230711
0.832543 0.619749 0.227958
0.891122 0.616771 0.225165
0.949658 0.613752 0.222331
0.955369 0.610775 0.219333
0.116908 0.688923 0.286056
0.163668 0.687948 0.285275
0.216931 0.686920 0.284439
0.270135 0.685840 0.283551
0.323284 0.684710 0.282611
0.376380 0.683532 0.281622
0.429423 0.682306 0.280586
0.482415 0.681036 0.279503
0.535359 0.679721 0.278376
0.588255 0.678364 0.277205
0.644059 0.677635 0.260665
0.703418 0.675894 0.243113
0.766331 0.673142 0.224549
0.826119 0.670011 0.218402
0.884555 0.666904 0.215477
0.942952 0.663760 0.212516
0.959071 0.660645 0.209419
0.117368 0.738559 0.283214
0.163905 0.737411 0.282257
0.216981 0.736216 0.281250
0.270005 0.734974 0.280197
0.322980 0.733687 0.279098
0.375906 0.732357 0.277955
0.428785 0.730985 0.276768
0.481619 0.729572 0.275541
0.534408 0.728119 0.274272
0.587155 0.726627 0.272964
0.639859 0.725098 0.271618
0.695642 0.724366 0.252787
0.754984 0.722627 0.232948
0.817885 0.719881 0.212103
0.877534 0.716628 0.205374
0.935802 0.713370 0.202296
0.962742 0.710127 0.199110
0.117270 0.787636 0.279802
0.163538 0.786333 0.278687
0.216447 0.784987 0.277528
0.269309 0.783600 0.276326
0.322127 0.782172 0.275083
0.374900 0.780705 0.273800
0.427631 0.779200 0.272478
0.480321 0.777657 0.271119
0.532970 0.776078 0.269722
0.585580 0.774463 0.268289
0.638151 0.772814 0.266821
0.690684 0.771132 0.265318
0.746466 0.770415 0.244215
0.805810 0.768695 0.222107
0.868718 0.765972 0.198996
0.928245 0.762613 0.191702
0.966382 0.759249 0.188438
0.116646 0.836210 0.275878
0.162629 0.834768 0.274621
0.215387 0.833286 0.273324
0.268103 0.831767 0.271988
0.320777 0.830211 0.270614
0.373412 0.828619 0.269204
0.426007 0.826992 0.267758
0.478565 0.825331 0.266278
0.531085 0.823636 0.264763
0.583569 0.821909 0.263215
0.636018 0.820150 0.261635
0.688432 0.818360 0.260023
0.740812 0.816539 0.258380
0.796608 0.815853 0.235019
0.855971 0.814166 0.210657
0.918900 0.811479 0.185295
0.969995 0.808040 0.177428
0.115519 0.881319 0.271492
0.161228 0.880122 0.270105
0.213848 0.878894 0.268682
0.266430 0.877636 0.267223
0.318974 0.876350 0.265730
0.371481 0.875035 0.264203
0.423952 0.873691 0.262643
0.476388 0.872320 0.261052
0.528789 0.870825 0.259428
0.581157 0.868994 0.257774
0.633493 0.867133 0.256090
0.685796 0.865243 0.254377
0.738067 0.863325 0.252635
0.790308 0.861380 0.250864
0.846133 0.860736 0.225259
0.905527 0.859094 0.198654
0.968490 0.856454 0.171052
0.113912 0.914653 0.266683
0.159378 0.913474 0.265178
0.211872 0.912266 0.263639
0.264330 0.911030 0.262068
0.316753 0.909765 0.260464
0.369143 0.908472 0.258830
0.421499 0.907152 0.257165
0.473822 0.905804 0.255470
0.526114 0.904429 0.253746
0.578374 0.903027 0.251993
0.630604 0.901598 0.250213
0.682803 0.900143 0.248405
0.734974 0.898662 0.246570
0.787116 0.897155 0.244709
0.839229 0.895623 0.242822
0.895094 0.895167 0.214982
0.954530 0.893974 0.186145
0.111840 0.948450 0.261487
0.157114 0.947292 0.259873
0.209491 0.946105 0.258227
0.261836 0.944891 0.256551
0.314147 0.943649 0.254846
0.366427 0.942379 0.253111
0.418677 0.941082 0.251348
0.470895 0.939759 0.249558
0.523084 0.938409 0.247740
0.575244 0.937032 0.245896
0.627376 0.935630 0.244025
0.679479 0.934201 0.242129
0.731555 0.932747 0.240208
0.783603 0.931268 0.238261
0.835625 0.929763 0.236291
0.887622 0.928233 0.234297
0.943536 0.927918 0.204231
0.107110 0.970848 0.254344
0.152808 0.972065 0.252948
0.205116 0.973292 0.251525
0.257911 0.974528 0.250078
0.310679 0.975772 0.248605
0.363361 0.976754 0.247072
0.415511 0.975482 0.245218
0.467632 0.974184 0.243338
0.519725 0.972859 0.241432
0.571791 0.971509 0.239502
0.623830 0.970133 0.237547
0.675842 0.968731 0.235568
0.727829 0.967304 0.233565
0.779791 0.965852 0.231539
0.831727 0.964375 0.229490
0.883639 0.962873 0.227419
0.935527 0.961347 0.225325
0.070519 0.186893 0.308488
0.109348 0.192762 0.314679
0.165636 0.197207 0.319419
0.224032 0.200789 0.323280
0.281748 0.203760 0.326519
0.338942 0.206262 0.329279
0.395713 0.208385 0.331654
0.452133 0.210192 0.333707
0.508252 0.211729 0.335484
0.564108 0.213031 0.337022
0.619733 0.214124 0.338347
0.675151 0.215031 0.339483
0.730381 0.215770 0.340448
0.785440 0.216356 0.341256
0.840343 0.216801 0.341921
0.844948 0.215808 0.340932
0.844720 0.214572 0.339678
0.084130 0.255058 0.324522
