library/luts/mint_air.cube
# CrabbyCut preset LUT — sinh bởi scripts/generate_preset_luts.js
TITLE "Bạc hà"
LUT_3D_SIZE 5
0.062203 0.176053 0.137854
0.277065 0.200728 0.163839
0.505199 0.210161 0.174296
0.728234 0.215016 0.180088
0.841987 0.214341 0.179847
0.103386 0.428544 0.181445
0.312843 0.429861 0.183633
0.555123 0.425312 0.150673
0.793758 0.417274 0.143448
0.939377 0.408249 0.134859
0.115562 0.639147 0.182361
0.322836 0.635839 0.179838
0.535784 0.631635 0.176403
0.775123 0.624659 0.111681
0.954617 0.612858 0.100408
0.116813 0.837167 0.170459
0.321088 0.831272 0.165301
0.531500 0.824791 0.159545
0.741321 0.817779 0.153249
0.969268 0.810417 0.058802
0.107357 0.970027 0.149027
0.310924 0.974926 0.143358
0.520569 0.973827 0.144099
0.728981 0.968452 0.149129
0.936988 0.962674 0.154113
0.072353 0.189111 0.363944
0.283183 0.204657 0.380629
0.509207 0.212196 0.389157
0.731056 0.215985 0.393864
0.845627 0.214624 0.392929
0.105280 0.429221 0.394921
0.314612 0.429885 0.396445
0.531189 0.428941 0.396330
0.746341 0.426715 0.394910
0.880098 0.421339 0.389977
0.116115 0.638133 0.394116
0.323093 0.634505 0.391267
0.535734 0.630025 0.387551
0.772692 0.620696 0.349721
0.956119 0.608674 0.338240
0.116458 0.835235 0.381279
0.320448 0.829134 0.375910
0.530654 0.822466 0.369965
0.740287 0.815286 0.363497
0.970721 0.805650 0.296042
0.106848 0.971674 0.359648
0.310423 0.976623 0.353840
0.519008 0.971945 0.346374
0.727042 0.966321 0.338441
0.934673 0.960296 0.330141
0.078364 0.195972 0.583722
0.288402 0.207780 0.596598
0.512751 0.213814 0.603593
0.733572 0.216680 0.607360
0.849230 0.214709 0.605810
0.106997 0.429654 0.608150
0.316176 0.429725 0.609070
0.532236 0.428316 0.608481
0.746963 0.425710 0.606674
0.883456 0.420093 0.601507
0.116565 0.637004 0.605754
0.323241 0.633073 0.602596
0.535589 0.628330 0.598612
0.747145 0.622876 0.593902
0.915880 0.615691 0.587270
0.116022 0.833230 0.592024
0.319737 0.826930 0.586453
0.529742 0.820083 0.580325
0.739192 0.812738 0.573689
0.972170 0.800833 0.533231
0.106276 0.973338 0.570221
0.309223 0.975434 0.563897
0.517538 0.970080 0.556223
0.725432 0.964319 0.548163
0.932932 0.958161 0.539743
0.083157 0.200971 0.801603
0.292934 0.210286 0.811939
0.515899 0.215077 0.817667
0.735815 0.217130 0.820606
0.852800 0.214614 0.818509
0.108549 0.429867 0.821155
0.317551 0.429396 0.821523
0.533129 0.427554 0.820493
0.747458 0.424589 0.818320
0.886796 0.418751 0.812940
0.116915 0.635768 0.817282
0.323284 0.631548 0.813830
0.535352 0.626554 0.809589
0.746660 0.620877 0.804653
0.919082 0.613594 0.797937
0.115506 0.831155 0.802698
0.318955 0.824663 0.796932
0.528766 0.817642 0.790626
0.738039 0.810138 0.783828
0.946820 0.802192 0.776580
0.105642 0.975019 0.780747
0.307851 0.973662 0.773836
0.516020 0.968169 0.766027
0.723777 0.962272 0.757842
0.931150 0.955981 0.749306
0.085905 0.203882 0.902172
0.294963 0.211316 0.907977
0.516786 0.215068 0.913500
0.735969 0.216433 0.918861
0.854600 0.213479 0.921497
0.108577 0.428973 0.920785
0.317056 0.428058 0.926013
0.532317 0.425878 0.931178
0.746419 0.422651 0.936301
0.888874 0.416692 0.939421
0.116091 0.633749 0.938158
0.322046 0.629340 0.943241
0.534028 0.624196 0.948307
0.745291 0.618402 0.953362
0.921668 0.611132 0.957411
0.114316 0.828645 0.955200
0.317577 0.822071 0.960248
0.527415 0.814989 0.965296
0.736739 0.807442 0.970346
0.945452 0.799399 0.968772
0.104940 0.976714 0.972141
0.306428 0.971843 0.966526
0.514454 0.966211 0.960075
0.722077 0.960179 0.953226
0.929326 0.953758 0.945997
