library/luts/misty_blue.cube
# CrabbyCut preset LUT — sinh bởi scripts/generate_preset_luts.js
TITLE "Sương lam"
LUT_3D_SIZE 17
0.113336 0.160640 0.270263
0.176969 0.170475 0.277544
0.241217 0.175064 0.280179
0.303838 0.178108 0.281446
0.365486 0.180227 0.281894
0.426447 0.181695 0.281765
0.486884 0.182665 0.281195
0.546899 0.183235 0.280271
0.606562 0.183471 0.279051
0.665927 0.183422 0.277579
0.725030 0.183126 0.275888
0.783904 0.182612 0.274004
0.842572 0.181903 0.271947
0.901055 0.181018 0.269735
0.921733 0.179361 0.267728
0.921517 0.177220 0.265783
0.921287 0.174945 0.263716
0.129807 0.237718 0.281688
0.190110 0.239577 0.281905
0.251160 0.240802 0.281213
0.312268 0.241423 0.279969
0.373522 0.241525 0.278248
0.434102 0.241380 0.276592
0.494231 0.241005 0.274804
0.554112 0.240393 0.272807
0.613772 0.239572 0.270624
0.673234 0.238564 0.268276
0.732518 0.237386 0.265777
0.791638 0.236053 0.263141
0.850609 0.234578 0.260379
0.909441 0.232971 0.257500
0.937552 0.230868 0.254909
0.937330 0.228306 0.252581
0.937098 0.225640 0.250157
0.135483 0.300615 0.280553
0.195096 0.300936 0.279409
0.254537 0.300961 0.278002
0.314347 0.300683 0.274950
0.374999 0.299887 0.271407
0.436519 0.298599 0.267395
0.497121 0.297226 0.264415
0.557208 0.295757 0.261631
0.617136 0.294138 0.258715
0.676918 0.292380 0.255676
0.736566 0.290495 0.252524
0.796089 0.288491 0.249267
0.855496 0.286376 0.245912
0.914792 0.284157 0.242465
0.951922 0.281657 0.239294
0.951711 0.278755 0.236656
0.951493 0.275767 0.233939
0.137822 0.359338 0.275722
0.196405 0.358805 0.273822
0.255055 0.358079 0.271750
0.313522 0.357178 0.269523
0.372739 0.356123 0.264418
0.433243 0.354533 0.258795
0.495045 0.352421 0.252665
0.555693 0.350259 0.248693
0.615749 0.348058 0.245244
0.675690 0.345749 0.241699
0.735524 0.343338 0.238064
0.795258 0.340832 0.234345
0.854896 0.338236 0.230545
0.914445 0.335553 0.226670
0.961720 0.332720 0.222952
0.961518 0.329536 0.220057
0.961312 0.326279 0.217095
0.138039 0.415560 0.268677
0.195369 0.414447 0.266262
0.253463 0.413192 0.263722
0.311419 0.411807 0.261067
0.369248 0.410301 0.258304
0.427941 0.408751 0.251855
0.487963 0.406708 0.244923
0.549319 0.404176 0.237515
0.609502 0.401572 0.232970
0.669107 0.398944 0.229143
0.728624 0.396232 0.225241
0.788057 0.393440 0.221268
0.847409 0.390572 0.217229
0.906686 0.387632 0.213125
0.964653 0.384616 0.208984
0.964436 0.381199 0.205876
0.964215 0.377719 0.202711
0.136665 0.470022 0.260073
0.192632 0.468474 0.257273
0.250301 0.466816 0.254376
0.307860 0.465054 0.251386
0.365318 0.463195 0.248311
0.422678 0.461244 0.245155
0.480997 0.459342 0.237487
0.540669 0.456970 0.229357
0.601697 0.454130 0.220770
0.661520 0.451185 0.215742
0.720770 0.448219 0.211616
0.779948 0.445186 0.207429
0.839058 0.442087 0.203185
0.898101 0.438926 0.198886
0.957082 0.435705 0.194533
0.967308 0.432146 0.191045
0.967075 0.428471 0.187703
0.133993 0.523138 0.250277
0.188573 0.521245 0.247171
0.245899 0.519262 0.243986
0.303136 0.517194 0.240726
0.360288 0.515046 0.237394
0.417359 0.512820 0.233995
0.474353 0.510521 0.230530
0.532389 0.508354 0.221721
0.591794 0.505731 0.212463
0.652571 0.502656 0.202760
0.712103 0.499435 0.197307
0.771061 0.496193 0.192936
0.829959 0.492893 0.188514
0.888799 0.489539 0.184043
0.947584 0.486132 0.179526
0.970141 0.482466 0.175643
0.969897 0.478619 0.172145
0.130208 0.575171 0.239521
0.183436 0.572994 0.236164
0.240479 0.570741 0.232741
0.297446 0.568417 0.229253
0.354340 0.566023 0.225704
0.411165 0.563564 0.222098
0.467923 0.561041 0.218435
0.524617 0.558458 0.214718
0.582432 0.556084 0.204819
0.641627 0.553266 0.194482
0.702204 0.550004 0.183708
0.761494 0.546554 0.177870
0.820205 0.543078 0.173291
0.878866 0.539553 0.168670
0.937477 0.535980 0.164006
0.972938 0.532229 0.159736
0.972684 0.528229 0.156098
0.125437 0.626303 0.227968
0.177397 0.623885 0.224398
0.234197 0.621403 0.220770
0.290932 0.618858 0.217088
0.347604 0.616253 0.213352
0.404215 0.613591 0.209566
0.460768 0.610873 0.205730
0.517264 0.608102 0.201847
0.573706 0.605280 0.197919
0.631344 0.602741 0.186967
0.690370 0.599765 0.175584
0.750787 0.596354 0.163771
0.809870 0.592709 0.157579
0.868369 0.589031 0.152822
0.926823 0.585311 0.148027
0.975703 0.581494 0.143375
0.975441 0.577354 0.139610
0.119773 0.676666 0.215734
0.170582 0.674040 0.211979
0.227171 0.671358 0.208175
0.283704 0.668621 0.204322
0.340180 0.665831 0.200422
0.396603 0.662990 0.196477
0.452974 0.660100 0.192489
0.509295 0.657162 0.188459
0.565568 0.654178 0.184387
0.621793 0.651149 0.180276
0.679286 0.648477 0.168300
0.738175 0.645374 0.155898
0.798460 0.641842 0.143071
0.857364 0.638028 0.136548
0.915677 0.634173 0.131634
0.973950 0.630280 0.126686
0.978169 0.626039 0.122722
0.113285 0.726361 0.202907
0.163089 0.723552 0.198991
0.219493 0.720693 0.195030
0.275846 0.717785 0.191026
0.332149 0.714831 0.186981
0.388404 0.711831 0.182895
0.444613 0.708786 0.178770
0.500776 0.705699 0.174607
0.556896 0.702570 0.170407
0.612973 0.699400 0.166171
0.669008 0.696192 0.161901
0.726383 0.693410 0.148921
0.785158 0.690203 0.135520
0.845334 0.686571 0.121698
0.904082 0.682608 0.114863
0.962229 0.678596 0.109810
0.980873 0.674323 0.105469
0.106027 0.775465 0.189558
0.155394 0.772494 0.185498
0.211234 0.769477 0.181398
0.267426 0.766417 0.177259
0.323573 0.763314 0.173082
0.379677 0.760171 0.168869
0.435739 0.756987 0.164621
0.491760 0.753764 0.160338
0.547741 0.750503 0.156021
0.603682 0.747206 0.151672
0.659587 0.743872 0.147291
0.715454 0.740503 0.142879
0.772730 0.737632 0.128913
0.831412 0.734339 0.114529
0.891498 0.730624 0.099728
0.950106 0.726530 0.092595
0.983553 0.722235 0.087878
0.098041 0.824042 0.175743
0.147894 0.820925 0.171553
0.202453 0.817766 0.167327
0.258500 0.814568 0.163065
0.314506 0.811331 0.158770
0.370473 0.808057 0.154442
0.426401 0.804746 0.150081
0.482291 0.801400 0.145688
0.538145 0.798018 0.141265
0.593963 0.794603 0.136812
0.649747 0.791155 0.132329
0.705496 0.787675 0.127818
0.761212 0.784163 0.123279
0.818407 0.781217 0.108341
0.877010 0.777853 0.092988
0.937021 0.774071 0.077220
0.986211 0.769806 0.069976
0.089365 0.869979 0.161506
0.139702 0.866870 0.157198
0.193200 0.863731 0.152858
0.249114 0.860562 0.148485
0.304991 0.857365 0.144081
0.360832 0.854140 0.139647
0.416637 0.850888 0.135183
0.472408 0.847610 0.130690
0.528145 0.844307 0.126168
0.583849 0.840979 0.121619
0.639521 0.837627 0.117043
0.695162 0.834253 0.112440
0.750771 0.830855 0.107811
0.806350 0.827233 0.103157
0.863478 0.824227 0.087259
0.922027 0.820809 0.072502
0.982003 0.816980 0.060339
0.080027 0.915062 0.146885
0.130846 0.911813 0.142470
0.183514 0.908537 0.138025
0.239307 0.905235 0.133551
0.295065 0.901907 0.129047
0.350790 0.898555 0.124515
0.406482 0.895178 0.119956
0.462143 0.891777 0.115370
0.517772 0.888354 0.110758
0.573370 0.884909 0.106120
0.628939 0.881442 0.101457
0.684478 0.877954 0.096769
0.740019 0.874462 0.095148
0.795544 0.870956 0.094771
0.851041 0.867431 0.094396
0.908138 0.864555 0.082189
0.966637 0.861286 0.069722
0.070051 0.959550 0.131914
0.121351 0.956172 0.127400
0.173431 0.952770 0.122859
0.229111 0.949344 0.118290
0.284760 0.945895 0.113694
0.340378 0.942424 0.109072
0.395965 0.938931 0.104425
0.451523 0.935416 0.099753
0.507055 0.931883 0.095388
0.562598 0.928349 0.095011
0.618113 0.924795 0.094634
0.673601 0.921223 0.094259
0.729062 0.917632 0.093885
0.784497 0.914024 0.093511
0.839906 0.910398 0.093139
0.895291 0.906755 0.092767
0.952319 0.903801 0.079998
0.058275 0.984206 0.117244
0.110066 0.984900 0.112503
0.162331 0.985593 0.107736
0.217900 0.986284 0.102942
0.273867 0.986974 0.098123
0.329641 0.985786 0.095251
0.385173 0.982203 0.094874
0.440678 0.978602 0.094498
0.496157 0.974982 0.094123
0.551608 0.971344 0.093748
0.607034 0.967689 0.093375
0.662434 0.964016 0.093003
0.717809 0.960327 0.092632
0.773160 0.956622 0.092262
0.828486 0.952900 0.091892
0.883788 0.949164 0.091523
0.939068 0.945412 0.091156
0.117361 0.165610 0.332930
0.179095 0.172279 0.337407
0.242668 0.176227 0.339474
0.304913 0.178914 0.340425
0.366304 0.180789 0.340657
0.427073 0.182075 0.340366
0.487357 0.182900 0.339668
0.547245 0.183349 0.338637
0.606802 0.183484 0.337328
0.666074 0.183348 0.335778
0.725097 0.182975 0.334019
0.783898 0.182392 0.332074
0.842502 0.181622 0.329963
0.900926 0.180681 0.327700
0.922239 0.178983 0.325642
0.922018 0.176796 0.323654
0.921784 0.174479 0.321549
0.130604 0.238426 0.340579
0.190852 0.240068 0.340604
0.251432 0.241173 0.340154
0.311563 0.241853 0.339328
0.371325 0.242182 0.338190
0.430773 0.242214 0.336789
0.489951 0.241988 0.335161
0.548890 0.241536 0.333331
0.607617 0.240883 0.331324
0.666153 0.240048 0.329156
0.724516 0.239049 0.326842
0.782720 0.237899 0.324395
0.840779 0.236611 0.321826
0.898703 0.235195 0.319143
0.927167 0.233183 0.316626
0.926906 0.230595 0.314274
0.926634 0.227904 0.311829
0.135840 0.300760 0.338947
0.195363 0.300976 0.337709
0.254708 0.300910 0.336221
0.314090 0.300550 0.334126
0.373784 0.299828 0.331693
0.433813 0.298767 0.328942
0.493315 0.297599 0.326379
0.552482 0.296310 0.323782
0.611496 0.294876 0.321057
0.670368 0.293307 0.318212
0.729109 0.291614 0.315257
0.787728 0.289804 0.312199
0.846232 0.287886 0.309045
0.904629 0.285867 0.305801
0.942120 0.283497 0.302740
0.941866 0.280576 0.300086
0.941605 0.277571 0.297354
0.137928 0.359180 0.333847
0.196393 0.358579 0.331886
0.254979 0.357792 0.329760
0.313387 0.356836 0.327485
0.372272 0.355679 0.323655
0.432088 0.354089 0.319409
0.492845 0.352078 0.314755
0.552748 0.350040 0.311187
0.612188 0.347958 0.307860
0.671516 0.345769 0.304439
0.730740 0.343480 0.300931
0.789865 0.341098 0.297339
0.848896 0.338628 0.293668
0.907839 0.336073 0.289924
0.955681 0.333347 0.286290
0.955449 0.330146 0.283380
0.955211 0.326873 0.280404
0.137967 0.415199 0.326622
0.195162 0.414036 0.324163
0.253208 0.412736 0.321583
0.311120 0.411309 0.318890
0.368907 0.409763 0.316093
0.427496 0.408111 0.310459
0.487416 0.405967 0.304345
0.548672 0.403337 0.297756
0.608809 0.400689 0.293354
0.668384 0.398032 0.289501
0.727872 0.395292 0.285575
0.787277 0.392474 0.281579
0.846603 0.389582 0.277517
0.905855 0.386618 0.273392
0.964946 0.383585 0.269209
0.964728 0.380147 0.266082
0.964506 0.376646 0.262898
0.136450 0.469509 0.317884
0.192278 0.467923 0.315050
0.249908 0.466229 0.312120
0.307432 0.464433 0.309102
0.364856 0.462543 0.305998
0.422185 0.460562 0.302815
0.480408 0.458566 0.295970
0.539985 0.456100 0.288665
0.600921 0.453168 0.280903
0.660705 0.450186 0.276023
0.719930 0.447197 0.271876
0.779084 0.444141 0.267669
0.838171 0.441021 0.263406
0.897193 0.437839 0.259088
0.956153 0.434598 0.254718
0.967596 0.431026 0.251190
0.967362 0.427333 0.247831
0.133658 0.522506 0.307981
0.188100 0.520582 0.304848
0.245395 0.518569 0.301638
0.302603 0.516473 0.298353
0.359727 0.514298 0.294997
0.416772 0.512047 0.291575
0.473740 0.509724 0.288089
0.531686 0.507468 0.280107
0.591001 0.504757 0.271678
0.651690 0.501595 0.262805
0.711187 0.498341 0.257503
0.770124 0.495079 0.253114
0.829003 0.491760 0.248676
0.887824 0.488388 0.244189
0.946590 0.484963 0.239656
0.970424 0.481287 0.235735
0.970179 0.477424 0.232221
0.129769 0.574441 0.297139
0.182865 0.572237 0.293759
0.239882 0.569960 0.290313
0.296823 0.567612 0.286805
0.353694 0.565195 0.283236
0.410496 0.562714 0.279610
0.467232 0.560171 0.275928
0.523905 0.557567 0.272194
0.581633 0.555108 0.263126
0.640743 0.552205 0.253620
0.701235 0.548860 0.243679
0.760493 0.545379 0.237995
0.819187 0.541886 0.233402
0.877831 0.538345 0.228765
0.936425 0.534757 0.224088
0.973218 0.530998 0.219779
0.972964 0.526983 0.216128
0.124905 0.625490 0.285512
0.176742 0.623049 0.281922
0.233520 0.620545 0.278276
0.290233 0.617980 0.274575
0.346884 0.615355 0.270822
0.403475 0.612674 0.267018
0.460008 0.609938 0.263167
0.516486 0.607149 0.259268
0.572911 0.604310 0.255324
0.630465 0.601688 0.245206
0.689408 0.598631 0.234657
0.749742 0.595138 0.223679
0.808796 0.591465 0.217643
0.867280 0.587772 0.212873
0.925720 0.584038 0.208065
0.975981 0.580215 0.203375
0.975717 0.576062 0.199598
0.119155 0.675781 0.273215
0.169855 0.673136 0.269443
0.226425 0.670434 0.265622
0.282938 0.667679 0.261753
0.339396 0.664871 0.257837
0.395801 0.662014 0.253878
0.452155 0.659107 0.249875
0.508459 0.656154 0.245830
0.564716 0.653154 0.241745
0.620925 0.650111 0.237621
0.678337 0.647358 0.226480
0.737145 0.644175 0.214914
0.797350 0.640563 0.202923
0.856227 0.636723 0.196558
0.914526 0.632855 0.191632
0.972786 0.628949 0.186674
0.978444 0.624705 0.182672
0.112586 0.725413 0.260333
0.162298 0.722587 0.256401
0.218684 0.719711 0.252425
0.275020 0.716787 0.248407
0.331307 0.713817 0.244348
0.387546 0.710802 0.240249
0.443739 0.707742 0.236110
0.499888 0.704641 0.231935
0.555992 0.701498 0.227723
0.612055 0.698315 0.223475
0.668077 0.695093 0.219193
0.725372 0.692233 0.207050
0.784068 0.688947 0.194486
0.844166 0.685237 0.181502
0.902888 0.681249 0.174825
0.961023 0.677226 0.169762
0.981144 0.672950 0.165383
0.105253 0.774461 0.246934
0.154669 0.771474 0.242860
0.210370 0.768443 0.238746
0.266547 0.765368 0.234595
0.322680 0.762251 0.230405
0.378769 0.759094 0.226180
0.434817 0.755897 0.221920
0.490824 0.752661 0.217626
0.546791 0.749387 0.213298
0.602720 0.746077 0.208938
0.658612 0.742732 0.204546
0.714466 0.739352 0.200123
0.771665 0.736403 0.186996
0.830268 0.733032 0.173450
0.890277 0.729241 0.159487
0.948861 0.725123 0.152514
0.983822 0.720827 0.147760
0.097196 0.822988 0.233074
0.147098 0.819856 0.228871
0.201540 0.816684 0.224633
0.257573 0.813473 0.220360
0.313565 0.810223 0.216054
0.369519 0.806937 0.211714
0.425434 0.803614 0.207342
0.481312 0.800255 0.202939
0.537153 0.796862 0.198506
0.592960 0.793436 0.194043
0.648731 0.789977 0.189550
0.704469 0.786485 0.185029
0.760174 0.782963 0.180481
0.817293 0.779941 0.166382
0.875819 0.776501 0.151868
0.935754 0.772643 0.136940
0.986478 0.768364 0.129827
0.088452 0.868927 0.218796
0.138837 0.865808 0.214478
0.192241 0.862658 0.210126
0.248142 0.859479 0.205743
0.304007 0.856273 0.201329
0.359836 0.853038 0.196884
0.415629 0.849778 0.192410
0.471389 0.846491 0.187908
0.527114 0.843179 0.183377
0.582808 0.839843 0.178818
0.638469 0.836484 0.174233
0.694098 0.833101 0.169621
0.749698 0.829641 0.164984
0.805267 0.825990 0.160321
0.862318 0.822908 0.145262
0.920780 0.819410 0.129791
0.980654 0.815497 0.113907
0.079048 0.913962 0.204139
0.129916 0.910704 0.199714
0.182513 0.907419 0.195259
0.238294 0.904108 0.190774
0.294042 0.900772 0.186261
0.349755 0.897411 0.181720
0.405437 0.894026 0.177152
0.461086 0.890618 0.172557
0.516705 0.887187 0.167936
0.572293 0.883734 0.163289
0.627851 0.880260 0.158617
0.683381 0.876765 0.153921
0.738881 0.873250 0.149201
0.794354 0.869715 0.144457
0.849799 0.866161 0.139690
0.906795 0.863210 0.123682
0.965204 0.859876 0.107262
0.069010 0.958405 0.189135
0.120358 0.955019 0.184611
0.172392 0.951609 0.180060
0.228062 0.948175 0.175482
0.283700 0.944719 0.170877
0.339307 0.941240 0.166247
0.394885 0.937740 0.161591
0.450432 0.934218 0.156910
0.505951 0.930676 0.152205
0.561442 0.927114 0.147477
0.616904 0.923533 0.142724
0.672340 0.919933 0.137949
0.727748 0.916314 0.133151
0.783131 0.912678 0.128332
0.838487 0.909024 0.123490
0.893819 0.905353 0.118628
0.950769 0.902347 0.101677
0.057265 0.984442 0.174387
0.109126 0.985136 0.169637
0.161463 0.985828 0.164861
0.216958 0.986519 0.160059
0.272916 0.987208 0.155231
0.328518 0.984556 0.150486
0.383998 0.980948 0.145749
0.439451 0.977320 0.140988
0.494876 0.973674 0.136205
0.550275 0.970010 0.131399
0.605648 0.966328 0.126572
0.660996 0.962629 0.121723
0.716318 0.958913 0.116852
0.771616 0.955180 0.111961
0.826889 0.951432 0.107050
0.882139 0.947668 0.102119
0.937365 0.943889 0.097168
0.119743 0.168416 0.393679
0.180933 0.173810 0.397027
0.243972 0.177251 0.398645
0.305891 0.179628 0.399322
0.367051 0.181284 0.399360
0.427643 0.182401 0.398920
0.487784 0.183091 0.398102
0.547554 0.183428 0.396971
0.607010 0.183466 0.395577
0.666193 0.183246 0.393953
0.725138 0.182800 0.392128
0.783870 0.182151 0.390125
0.842410 0.181320 0.387961
0.900777 0.180325 0.385650
0.922743 0.178589 0.383541
0.922518 0.176357 0.381513
0.922279 0.173998 0.379370
0.131339 0.239053 0.399399
0.191530 0.240497 0.399249
0.251947 0.241447 0.398662
0.311945 0.242001 0.397724
0.371595 0.242224 0.396492
0.430947 0.242164 0.395010
0.490040 0.241859 0.393311
0.548905 0.241336 0.391419
0.607564 0.240618 0.389355
0.666040 0.239726 0.387136
0.724347 0.238675 0.384775
0.782501 0.237477 0.382286
0.840513 0.236144 0.379677
0.898393 0.234687 0.376958
0.927657 0.232650 0.374398
0.927392 0.230026 0.372015
0.927117 0.227302 0.369539
0.136167 0.300868 0.397307
0.195596 0.300983 0.395980
0.254850 0.300830 0.394415
0.313857 0.300442 0.392643
0.372644 0.299846 0.390686
0.431235 0.299063 0.388564
0.489647 0.298111 0.386292
0.547897 0.297005 0.383884
0.605998 0.295757 0.381349
0.663961 0.294378 0.378699
0.721796 0.292877 0.375942
0.779511 0.291264 0.373084
0.837115 0.289544 0.370132
0.894613 0.287724 0.367091
0.932448 0.285492 0.364149
0.932152 0.282553 0.361478
0.931846 0.279531 0.358733
0.138014 0.358998 0.391951
0.196358 0.358331 0.389932
0.254882 0.357485 0.387754
0.313233 0.356475 0.385430
0.371722 0.355268 0.382584
0.430606 0.353777 0.379470
0.489895 0.352014 0.376098
0.548716 0.350199 0.372962
0.607254 0.348313 0.369836
0.665682 0.346322 0.366618
0.724008 0.344235 0.363314
0.782237 0.342055 0.359928
0.840374 0.339789 0.356465
0.898424 0.337440 0.352929
0.946581 0.334892 0.349451
0.946302 0.331679 0.346530
0.946017 0.328394 0.343545
0.137878 0.414820 0.384551
0.194939 0.413609 0.382050
0.252938 0.412265 0.379431
0.310807 0.410797 0.376702
0.368554 0.409213 0.373870
0.426826 0.407475 0.369525
0.486071 0.405343 0.364799
0.546295 0.402825 0.359697
0.605697 0.400313 0.355708
0.664666 0.397782 0.351985
0.723549 0.395171 0.348190
0.782352 0.392483 0.344327
0.841077 0.389721 0.340399
0.899728 0.386889 0.336409
0.958308 0.383990 0.332359
0.959114 0.380547 0.329204
0.958859 0.377035 0.326010
0.136223 0.468983 0.375682
0.191910 0.467359 0.372815
0.249504 0.465630 0.369855
0.306993 0.463802 0.366807
0.364384 0.461880 0.363676
0.421682 0.459870 0.360467
0.479809 0.457779 0.354445
0.539293 0.455221 0.347964
0.600136 0.452198 0.341028
0.659881 0.449178 0.336296
0.719082 0.446166 0.332129
0.778213 0.443088 0.327903
0.837277 0.439947 0.323621
0.896278 0.436745 0.319285
0.955217 0.433484 0.314897
0.967883 0.429901 0.311329
0.967648 0.426190 0.307954
0.133313 0.521862 0.365676
0.187616 0.519908 0.362517
0.244881 0.517867 0.359280
0.302060 0.515743 0.355971
0.359157 0.513542 0.352592
0.416175 0.511266 0.349148
0.473118 0.508920 0.345641
0.530974 0.506575 0.338487
0.590201 0.503776 0.330887
0.650801 0.500527 0.322843
0.710264 0.497239 0.317693
0.769181 0.493958 0.313287
0.828040 0.490621 0.308832
0.886842 0.487231 0.304330
0.945590 0.483789 0.299782
0.970708 0.480104 0.295821
0.970462 0.476224 0.292293
0.129321 0.573701 0.354749
0.182285 0.571472 0.351346
0.239276 0.569170 0.347879
0.296193 0.566798 0.344349
0.353040 0.564360 0.340761
0.409819 0.561857 0.337116
0.466534 0.559293 0.333416
0.523186 0.556670 0.329664
0.580828 0.554126 0.321427
0.639852 0.551138 0.312753
0.700260 0.547709 0.303644
0.759487 0.544198 0.298115
0.818163 0.540689 0.293507
0.876790 0.537131 0.288856
0.935368 0.533528 0.284165
0.973499 0.529762 0.279818
0.973243 0.525732 0.276153
0.124363 0.624668 0.343050
0.176080 0.622206 0.339440
0.232835 0.619681 0.335775
0.289527 0.617095 0.332056
0.346157 0.614451 0.328286
0.402729 0.611751 0.324466
0.459243 0.608997 0.320598
0.515702 0.606191 0.316684
0.572109 0.603334 0.312725
0.629580 0.600630 0.303441
0.688440 0.597491 0.293726
0.748693 0.593917 0.283582
0.807718 0.590216 0.277702
0.866186 0.586509 0.272919
0.924611 0.582760 0.268099
0.976258 0.578932 0.263370
0.975994 0.574765 0.259581
0.118528 0.674889 0.330689
0.169121 0.672224 0.326901
0.225671 0.669504 0.323063
0.282165 0.666731 0.319178
0.338605 0.663906 0.315248
0.394993 0.661032 0.311273
0.451330 0.658109 0.307256
0.507618 0.655140 0.303198
0.563858 0.652126 0.299099
0.620052 0.649068 0.294962
0.677383 0.646235 0.284657
0.736111 0.642972 0.273926
0.796235 0.639280 0.262771
0.855085 0.635413 0.256564
0.913371 0.631533 0.251627
0.971618 0.627615 0.246658
0.978717 0.623367 0.242617
0.111880 0.724459 0.317752
0.161501 0.721616 0.313806
0.217870 0.718723 0.309815
0.274189 0.715784 0.305783
0.330459 0.712798 0.301710
0.386683 0.709767 0.297597
0.442861 0.706694 0.293447
0.498994 0.703578 0.289258
0.555085 0.700421 0.285034
0.611133 0.697225 0.280775
0.667141 0.693990 0.276481
0.724357 0.691052 0.265175
0.782974 0.687687 0.253448
0.842993 0.683899 0.241301
0.901690 0.679887 0.234784
0.959813 0.675851 0.229710
0.981416 0.671573 0.225293
0.104472 0.773452 0.304305
0.153937 0.770450 0.300217
0.209502 0.767403 0.296091
0.265663 0.764314 0.291926
0.321781 0.761183 0.287725
0.377856 0.758012 0.283487
0.433890 0.754802 0.279215
0.489883 0.751553 0.274909
0.545837 0.748267 0.270571
0.601754 0.744945 0.266200
0.657632 0.741588 0.261797
0.713475 0.738196 0.257365
0.770596 0.735170 0.245075
0.829121 0.731722 0.232368
0.889053 0.727854 0.219243
0.947612 0.723713 0.212431
0.984091 0.719414 0.207638
0.096344 0.821929 0.290401
0.146295 0.818784 0.286186
0.200622 0.815598 0.281936
0.256641 0.812374 0.277652
0.312620 0.809111 0.273334
0.368560 0.805812 0.268983
0.424463 0.802477 0.264601
0.480328 0.799107 0.260187
0.536158 0.795703 0.255743
0.591952 0.792265 0.251270
0.647712 0.788795 0.246768
0.703439 0.785293 0.242238
0.759133 0.781760 0.237680
0.816174 0.778662 0.224420
0.874624 0.775145 0.210746
0.934483 0.771211 0.196656
0.986745 0.766918 0.189676
0.087532 0.867871 0.276083
0.137966 0.864741 0.271753
0.191278 0.861582 0.267391
0.247167 0.858393 0.262997
0.303019 0.855177 0.258573
0.358836 0.851934 0.254118
0.414618 0.848664 0.249634
0.470365 0.845369 0.245122
0.526080 0.842049 0.240582
0.581762 0.838705 0.236014
0.637413 0.835338 0.231420
0.693032 0.831948 0.226799
0.748621 0.828405 0.222153
0.804180 0.824743 0.217482
0.861156 0.821586 0.203263
0.919542 0.818013 0.188632
0.979340 0.814025 0.173588
0.078063 0.912858 0.261390
0.128980 0.909591 0.256954
0.181509 0.906297 0.252489
0.237278 0.902978 0.247995
0.293014 0.899633 0.243472
0.348717 0.896264 0.238922
0.404387 0.892871 0.234344
0.460026 0.889455 0.229740
0.515635 0.886017 0.225110
0.571213 0.882557 0.220455
0.626761 0.879075 0.215775
0.682280 0.875574 0.211071
0.737772 0.872052 0.206342
0.793235 0.868510 0.201591
0.848671 0.864950 0.196816
0.905592 0.861931 0.181648
0.963926 0.858529 0.166069
0.067962 0.957258 0.246352
0.119359 0.953864 0.241819
0.171349 0.950446 0.237258
0.227008 0.947004 0.232671
0.282636 0.943540 0.228058
0.338233 0.940054 0.223419
0.393800 0.936546 0.218754
0.449338 0.933018 0.214065
0.504847 0.929469 0.209352
0.560328 0.925900 0.204615
0.615782 0.922313 0.199855
0.671208 0.918706 0.195072
0.726607 0.915081 0.190267
0.781981 0.911439 0.185440
0.837329 0.907779 0.180591
0.892652 0.904102 0.175722
0.949528 0.901029 0.159612
0.056248 0.984678 0.231527
0.108180 0.985371 0.226768
0.160587 0.986063 0.221983
0.216013 0.986753 0.217172
0.271912 0.986928 0.212352
0.327410 0.983333 0.207630
0.382881 0.979718 0.202885
0.438325 0.976084 0.198117
0.493741 0.972432 0.193326
0.549131 0.968761 0.188512
0.604496 0.965073 0.183677
0.659834 0.961369 0.178821
0.715148 0.957647 0.173944
0.770438 0.953909 0.169046
0.825703 0.950156 0.164128
0.880944 0.946387 0.159189
0.936163 0.942602 0.154232
0.121645 0.170584 0.453864
0.182552 0.175132 0.456463
0.245151 0.178155 0.457711
0.306783 0.180260 0.458146
0.367733 0.181718 0.458008
0.428161 0.182679 0.457431
0.488169 0.183242 0.456500
0.547827 0.183472 0.455275
0.607186 0.183419 0.453799
0.666285 0.183119 0.452105
0.725154 0.182601 0.450217
0.783819 0.181888 0.448157
0.842299 0.181000 0.445942
0.900610 0.179952 0.443585
0.923246 0.178180 0.441426
0.923016 0.175903 0.439358
0.922773 0.173504 0.437178
0.132018 0.239606 0.458154
