library/luts/misty_blue.cube
# CrabbyCut preset LUT — sinh bởi scripts/generate_preset_luts.js
TITLE "Sương lam"
LUT_3D_SIZE 9
0.113336 0.160640 0.270263
0.241217 0.175064 0.280179
0.365486 0.180227 0.281894
0.486884 0.182665 0.281195
0.606562 0.183471 0.279051
0.725030 0.183126 0.275888
0.842572 0.181903 0.271947
0.921733 0.179361 0.267728
0.921287 0.174945 0.263716
0.135483 0.300615 0.280553
0.254537 0.300961 0.278002
0.374999 0.299887 0.271407
0.497121 0.297226 0.264415
0.617136 0.294138 0.258715
0.736566 0.290495 0.252524
0.855496 0.286376 0.245912
0.951922 0.281657 0.239294
0.951493 0.275767 0.233939
0.138039 0.415560 0.268677
0.253463 0.413192 0.263722
0.369248 0.410301 0.258304
0.487963 0.406708 0.244923
0.609502 0.401572 0.232970
0.728624 0.396232 0.225241
0.847409 0.390572 0.217229
0.964653 0.384616 0.208984
0.964215 0.377719 0.202711
0.133993 0.523138 0.250277
0.245899 0.519262 0.243986
0.360288 0.515046 0.237394
0.474353 0.510521 0.230530
0.591794 0.505731 0.212463
0.712103 0.499435 0.197307
0.829959 0.492893 0.188514
0.947584 0.486132 0.179526
0.969897 0.478619 0.172145
0.125437 0.626303 0.227968
0.234197 0.621403 0.220770
0.347604 0.616253 0.213352
0.460768 0.610873 0.205730
0.573706 0.605280 0.197919
0.690370 0.599765 0.175584
0.809870 0.592709 0.157579
0.926823 0.585311 0.148027
0.975441 0.577354 0.139610
0.113285 0.726361 0.202907
0.219493 0.720693 0.195030
0.332149 0.714831 0.186981
0.444613 0.708786 0.178770
0.556896 0.702570 0.170407
0.669008 0.696192 0.161901
0.785158 0.690203 0.135520
0.904082 0.682608 0.114863
0.980873 0.674323 0.105469
0.098041 0.824042 0.175743
0.202453 0.817766 0.167327
0.314506 0.811331 0.158770
0.426401 0.804746 0.150081
0.538145 0.798018 0.141265
0.649747 0.791155 0.132329
0.761212 0.784163 0.123279
0.877010 0.777853 0.092988
0.986211 0.769806 0.069976
0.080027 0.915062 0.146885
0.183514 0.908537 0.138025
0.295065 0.901907 0.129047
0.406482 0.895178 0.119956
0.517772 0.888354 0.110758
0.628939 0.881442 0.101457
0.740019 0.874462 0.095148
0.851041 0.867431 0.094396
0.966637 0.861286 0.069722
0.058275 0.984206 0.117244
0.162331 0.985593 0.107736
0.273867 0.986974 0.098123
0.385173 0.982203 0.094874
0.496157 0.974982 0.094123
0.607034 0.967689 0.093375
0.717809 0.960327 0.092632
0.828486 0.952900 0.091892
0.939068 0.945412 0.091156
0.119743 0.168416 0.393679
0.243972 0.177251 0.398645
0.367051 0.181284 0.399360
0.487784 0.183091 0.398102
0.607010 0.183466 0.395577
0.725138 0.182800 0.392128
0.842410 0.181320 0.387961
0.922743 0.178589 0.383541
0.922279 0.173998 0.379370
0.136167 0.300868 0.397307
0.254850 0.300830 0.394415
0.372644 0.299846 0.390686
0.489647 0.298111 0.386292
0.605998 0.295757 0.381349
0.721796 0.292877 0.375942
0.837115 0.289544 0.370132
0.932448 0.285492 0.364149
0.931846 0.279531 0.358733
0.137878 0.414820 0.384551
0.252938 0.412265 0.379431
0.368554 0.409213 0.373870
0.486071 0.405343 0.364799
0.605697 0.400313 0.355708
0.723549 0.395171 0.348190
0.841077 0.389721 0.340399
0.958308 0.383990 0.332359
0.958859 0.377035 0.326010
0.133313 0.521862 0.365676
0.244881 0.517867 0.359280
0.359157 0.513542 0.352592
0.473118 0.508920 0.345641
0.590201 0.503776 0.330887
0.710264 0.497239 0.317693
0.828040 0.490621 0.308832
0.945590 0.483789 0.299782
0.970462 0.476224 0.292293
0.124363 0.624668 0.343050
0.232835 0.619681 0.335775
0.346157 0.614451 0.328286
0.459243 0.608997 0.320598
0.572109 0.603334 0.312725
0.688440 0.597491 0.293726
0.807718 0.590216 0.277702
0.924611 0.582760 0.268099
0.975994 0.574765 0.259581
0.111880 0.724459 0.317752
0.217870 0.718723 0.309815
0.330459 0.712798 0.301710
0.442861 0.706694 0.293447
0.555085 0.700421 0.285034
0.667141 0.693990 0.276481
0.782974 0.687687 0.253448
0.901690 0.679887 0.234784
0.981416 0.671573 0.225293
0.096344 0.821929 0.290401
0.200622 0.815598 0.281936
0.312620 0.809111 0.273334
0.424463 0.802477 0.264601
0.536158 0.795703 0.255743
0.647712 0.788795 0.246768
0.759133 0.781760 0.237680
0.874624 0.775145 0.210746
0.986745 0.766918 0.189676
0.078063 0.912858 0.261390
0.181509 0.906297 0.252489
0.293014 0.899633 0.243472
0.404387 0.892871 0.234344
0.515635 0.886017 0.225110
0.626761 0.879075 0.215775
0.737772 0.872052 0.206342
0.848671 0.864950 0.196816
0.963926 0.858529 0.166069
0.056248 0.984678 0.231527
0.160587 0.986063 0.221983
0.271912 0.986928 0.212352
0.382881 0.979718 0.202885
0.493741 0.972432 0.193326
0.604496 0.965073 0.183677
0.715148 0.957647 0.173944
0.825703 0.950156 0.164128
0.936163 0.942602 0.154232
0.123259 0.172370 0.513710
0.246220 0.178956 0.516685
0.368356 0.182094 0.516606
0.488514 0.183355 0.514865
0.607332 0.183343 0.511997
0.725147 0.182380 0.508286
0.842168 0.180661 0.503907
0.923746 0.177755 0.499297
0.923266 0.172996 0.494974
0.136734 0.300977 0.513933
0.255050 0.300590 0.510733
0.372556 0.299333 0.506762
0.489325 0.297376 0.502170
0.605478 0.294834 0.497062
0.721105 0.291793 0.491511
0.836276 0.288318 0.485576
0.933403 0.284173 0.479464
0.932790 0.278102 0.473948
0.137656 0.414013 0.500366
0.252353 0.411281 0.495089
0.367807 0.408075 0.489392
0.482825 0.404456 0.483329
0.597456 0.400469 0.476940
0.711739 0.396152 0.470259
0.825708 0.391536 0.463314
0.939391 0.386648 0.456128
0.941960 0.379707 0.449743
0.132590 0.520545 0.481039
0.243823 0.516433 0.474540
0.357989 0.512004 0.467760
0.471850 0.507287 0.460725
0.587792 0.501921 0.450328
0.705989 0.495533 0.440035
0.822535 0.489151 0.431419
0.938860 0.482561 0.422618
0.965987 0.475035 0.415110
0.123253 0.623003 0.458104
0.231444 0.617931 0.450755
0.344684 0.612623 0.443196
0.457693 0.607096 0.435444
0.570488 0.601366 0.427512
0.686489 0.595196 0.411848
0.805545 0.587702 0.397808
0.922379 0.580190 0.388155
0.976546 0.572159 0.379537
0.110444 0.722533 0.432577
0.216224 0.716732 0.424581
0.328748 0.710744 0.416421
0.441088 0.704582 0.408106
0.553254 0.698255 0.399645
0.665256 0.691772 0.391046
0.780774 0.685156 0.371362
0.899281 0.677150 0.354691
0.981958 0.668808 0.345105
0.094619 0.819797 0.405042
0.198771 0.813412 0.396530
0.310716 0.806874 0.387882
0.422507 0.800192 0.379106
0.534154 0.793371 0.370208
0.645662 0.786419 0.361194
0.757039 0.779342 0.352069
0.872224 0.772424 0.328491
0.987278 0.764018 0.309364
0.076074 0.910642 0.375881
0.179488 0.904045 0.366940
0.290948 0.897347 0.357884
0.402278 0.890553 0.348720
0.513483 0.883669 0.339451
0.624570 0.876699 0.330082
0.735542 0.869648 0.320618
0.846405 0.862521 0.311060
0.961361 0.855828 0.283676
0.054194 0.985149 0.345798
0.158816 0.986532 0.336218
0.269706 0.984488 0.326648
0.380638 0.977252 0.317149
0.491462 0.969941 0.307559
0.602181 0.962559 0.297881
0.712800 0.955110 0.288119
0.823322 0.947597 0.278276
0.933751 0.940024 0.268353
0.125927 0.175200 0.632746
0.248080 0.180293 0.634399
0.369438 0.182693 0.633666
0.489091 0.183474 0.631500
0.607539 0.183111 0.628321
0.725066 0.181873 0.624367
0.841850 0.179931 0.619789
0.924744 0.176861 0.614999
0.924247 0.171943 0.610531
0.137196 0.300957 0.630445
0.255144 0.300251 0.626962
0.372384 0.298740 0.622766
0.488931 0.296573 0.617989
0.604897 0.293853 0.612723
0.720363 0.290659 0.607036
0.835391 0.287049 0.600981
0.934354 0.282815 0.594745
0.933730 0.276637 0.589132
0.137375 0.413142 0.616125
0.251711 0.410242 0.610698
0.367010 0.406890 0.604872
0.481892 0.403141 0.598694
0.596401 0.399038 0.592203
0.710574 0.394616 0.585429
0.824443 0.389906 0.578400
0.938033 0.384931 0.571136
0.942871 0.377947 0.564658
0.131824 0.519186 0.596365
0.242727 0.514963 0.589768
0.356786 0.510433 0.582898
0.470551 0.505624 0.575781
0.584045 0.500558 0.568437
0.697291 0.495256 0.560884
0.810306 0.489734 0.553136
0.923105 0.484008 0.545208
0.951756 0.476726 0.537885
0.122108 0.621308 0.573133
0.230024 0.616154 0.565711
0.343184 0.610770 0.558085
0.456118 0.605172 0.550270
0.568844 0.599376 0.542279
0.683729 0.593008 0.530995
0.800943 0.585686 0.519875
0.916568 0.578430 0.510484
0.972932 0.570526 0.501929
0.108978 0.720585 0.547380
0.214556 0.714719 0.539328
0.327016 0.708671 0.531114
0.439296 0.702451 0.522748
0.551405 0.696070 0.514240
0.663353 0.689536 0.505595
0.778556 0.682607 0.489260
0.896856 0.674397 0.474585
0.982499 0.666029 0.464902
0.092867 0.817646 0.519667
0.196902 0.811209 0.511108
0.308794 0.804621 0.502416
0.420535 0.797891 0.493598
0.532134 0.791025 0.484660
0.643597 0.784030 0.475607
0.754930 0.776911 0.466446
0.869810 0.769690 0.446225
0.987708 0.761105 0.429042
0.074059 0.908414 0.490357
0.177452 0.901782 0.481377
0.288867 0.895050 0.472284
0.400154 0.888225 0.463084
0.511318 0.881311 0.453781
0.622366 0.874314 0.444379
0.733300 0.867236 0.434882
0.844126 0.860084 0.425294
0.958783 0.853120 0.401273
0.052113 0.985619 0.460056
0.157018 0.987000 0.450441
0.267488 0.982039 0.440932
0.378383 0.974777 0.431402
0.489171 0.967441 0.421782
0.599856 0.960037 0.412075
0.710441 0.952566 0.402285
0.820931 0.945032 0.392415
0.931329 0.937439 0.382466
0.128086 0.177357 0.751185
0.249630 0.181335 0.751851
0.370329 0.183110 0.750565
0.489531 0.183462 0.748019
0.607641 0.182779 0.744556
0.724899 0.181286 0.740376
0.841462 0.179133 0.735612
0.925736 0.175910 0.730650
0.925224 0.170840 0.726043
0.137559 0.300819 0.746852
0.255142 0.299820 0.743109
0.372131 0.298072 0.738704
0.488471 0.295707 0.733752
0.604259 0.292819 0.728336
0.719570 0.289477 0.722519
0.834461 0.285737 0.716349
0.935300 0.281420 0.709991
0.934666 0.275138 0.704284
0.137037 0.412212 0.731830
0.251014 0.409151 0.726262
0.366166 0.405659 0.720311
0.480916 0.401785 0.714023
0.595307 0.397570 0.707432
0.709374 0.393048 0.700569
0.823145 0.388245 0.693458
0.936646 0.383185 0.686119
0.943778 0.376162 0.679550
0.131016 0.517788 0.711657
0.241593 0.513458 0.704964
0.355549 0.508830 0.698008
0.469219 0.503931 0.690812
0.582627 0.498783 0.683395
0.695793 0.493404 0.675774
0.808733 0.487812 0.667963
0.921463 0.482020 0.659976
0.952641 0.474718 0.652575
0.120929 0.619585 0.688136
0.228576 0.614350 0.680643
0.341658 0.608892 0.672951
0.454520 0.603226 0.665075
0.567177 0.597364 0.657027
0.679641 0.591321 0.648817
0.791925 0.585105 0.640455
0.904039 0.578728 0.631949
0.961305 0.571308 0.623813
0.107481 0.718614 0.662164
0.212865 0.712685 0.654056
0.325263 0.706577 0.645790
0.437484 0.700302 0.637374
0.549537 0.693868 0.628819
0.661433 0.687284 0.620130
0.775535 0.680172 0.608188
0.892007 0.672145 0.596443
0.979730 0.663995 0.586909
0.091087 0.815477 0.634275
0.195015 0.808988 0.625671
0.306855 0.802351 0.616935
0.418547 0.795574 0.608076
0.530099 0.788663 0.599098
0.641517 0.781626 0.590008
0.752807 0.774467 0.580810
0.867382 0.766942 0.563948
0.985082 0.758162 0.548767
0.072019 0.906173 0.604821
0.175400 0.899507 0.595801
0.286771 0.892743 0.586672
0.398016 0.885887 0.577436
0.509140 0.878944 0.568099
0.620148 0.871919 0.558664
0.731046 0.864815 0.549136
0.841836 0.857638 0.539518
0.956194 0.850404 0.518860
0.050005 0.986089 0.574302
0.155132 0.986793 0.564675
0.265257 0.979581 0.555206
0.376115 0.972294 0.545645
0.486868 0.964934 0.535995
0.597518 0.957507 0.526260
0.708071 0.950014 0.516442
0.818529 0.942460 0.506545
0.928896 0.934847 0.496571
0.129885 0.179039 0.869204
0.250921 0.182133 0.869087
0.371049 0.183365 0.867320
0.489846 0.183333 0.864434
0.607645 0.182354 0.860709
0.724652 0.180623 0.856319
0.841006 0.178272 0.851379
0.926722 0.174906 0.846251
0.926196 0.169690 0.841513
0.137833 0.300574 0.863164
0.255049 0.299303 0.859181
0.371805 0.297333 0.854579
0.487947 0.294781 0.849461
0.603566 0.291732 0.843903
0.718728 0.288249 0.837961
0.833488 0.284384 0.831680
0.936244 0.279988 0.825204
0.935599 0.273606 0.819407
0.136645 0.411225 0.847485
0.250264 0.408011 0.841781
0.365275 0.404384 0.835712
0.479898 0.400390 0.829317
0.594176 0.396067 0.822631
0.708139 0.391447 0.815681
0.821816 0.386554 0.808490
0.935230 0.381412 0.801079
0.944683 0.374351 0.794420
0.130167 0.516353 0.826915
0.240423 0.511918 0.820130
0.354279 0.507196 0.813090
0.467858 0.502210 0.805817
0.581182 0.496981 0.798329
0.694269 0.491528 0.790642
0.807136 0.485867 0.782770
0.919797 0.480010 0.774726
0.953524 0.472690 0.767246
0.119715 0.617833 0.803114
0.227101 0.612521 0.795552
0.340107 0.606990 0.787797
0.452897 0.601256 0.779861
0.565488 0.595332 0.771756
0.677890 0.589229 0.763494
0.790115 0.582957 0.755082
0.902172 0.576527 0.746530
0.962170 0.569102 0.738323
0.105954 0.716621 0.776929
0.211153 0.710630 0.768766
0.323489 0.704464 0.760448
0.435652 0.698134 0.751984
0.547651 0.691648 0.743383
0.659495 0.685015 0.734650
0.771191 0.678241 0.725794
0.882746 0.671334 0.716819
0.970655 0.663917 0.707949
0.089279 0.813291 0.748868
0.193110 0.806750 0.740218
0.304899 0.800065 0.731440
0.416542 0.793242 0.722540
0.528048 0.786287 0.713523
0.639422 0.779208 0.704396
0.750670 0.772009 0.695163
0.864154 0.764310 0.682701
0.980035 0.755723 0.670460
0.069953 0.903920 0.719270
0.173333 0.897220 0.710213
0.284660 0.890424 0.701047
0.395864 0.883539 0.691776
0.506948 0.876567 0.682405
0.617918 0.869515 0.672939
0.728779 0.862386 0.663380
0.839534 0.855184 0.653732
0.953594 0.847681 0.636437
0.047871 0.986558 0.688537
0.153016 0.984353 0.678970
0.263014 0.977115 0.669469
0.373835 0.969802 0.659877
0.484553 0.962419 0.650198
0.595170 0.954969 0.640435
0.705690 0.947455 0.630590
0.816117 0.939881 0.620666
0.926453 0.932248 0.610666
0.131406 0.180358 0.950730
0.251993 0.182721 0.949790
0.371619 0.183476 0.948303
0.490047 0.183095 0.946383
0.607558 0.181843 0.944092
0.724331 0.179888 0.941469
0.840487 0.177350 0.938539
0.927703 0.173849 0.935576
0.927163 0.168495 0.933197
0.138021 0.300229 0.945590
0.254872 0.298705 0.943174
0.371407 0.296527 0.940437
0.487363 0.293798 0.937400
0.602820 0.290595 0.934079
0.717840 0.286977 0.930488
0.832473 0.282992 0.926635
0.937183 0.278521 0.922625
0.936529 0.272043 0.919521
0.136201 0.410183 0.936223
0.249465 0.406823 0.932803
0.364339 0.403067 0.929115
0.478841 0.398957 0.925168
0.593008 0.394530 0.920970
0.706872 0.389814 0.916526
0.820457 0.384835 0.911840
0.933787 0.379612 0.906917
0.945586 0.372517 0.903037
0.129278 0.514881 0.923669
0.239218 0.510345 0.919380
0.352978 0.505531 0.914848
0.466467 0.500460 0.910075
0.579708 0.495154 0.905066
0.692719 0.489628 0.899825
0.805515 0.483899 0.894353
0.918110 0.477979 0.888653
0.954405 0.470642 0.881900
0.118468 0.616055 0.908279
0.225600 0.610667 0.903185
0.338531 0.605065 0.897859
0.451252 0.599265 0.892304
0.563777 0.593279 0.886468
0.676118 0.587117 0.878153
0.788285 0.580791 0.869693
0.900288 0.574309 0.861095
0.963033 0.566880 0.852819
0.104398 0.714607 0.890225
0.209419 0.708555 0.883458
0.321696 0.702333 0.875090
0.433802 0.695949 0.866578
0.545747 0.689412 0.857931
0.657540 0.682730 0.849156
0.769187 0.675910 0.840259
0.880697 0.668959 0.831245
0.971503 0.661548 0.822311
0.087445 0.811086 0.863445
0.191187 0.804495 0.854751
0.302926 0.797763 0.845931
0.414522 0.790894 0.836990
0.525982 0.783897 0.827936
0.637313 0.776776 0.818772
0.748519 0.769538 0.809504
0.859606 0.762186 0.800136
0.970579 0.754726 0.790671
0.067863 0.901656 0.833707
0.171251 0.894923 0.824612
0.282536 0.888096 0.815410
0.393698 0.881180 0.806105
0.504743 0.874181 0.796701
0.615676 0.867102 0.787203
0.726500 0.859948 0.777613
0.837220 0.852723 0.767936
0.950197 0.845070 0.755047
0.045711 0.987026 0.802759
0.150876 0.981903 0.793254
0.260758 0.974640 0.783722
0.371543 0.967303 0.774100
0.482226 0.959897 0.764392
0.592810 0.952424 0.754600
0.703299 0.944890 0.744728
0.813694 0.937295 0.734779
0.924000 0.929644 0.724754
0.132303 0.181122 0.980628
0.252420 0.182866 0.980632
0.371613 0.183205 0.980679
0.489729 0.182518 0.980765
0.607005 0.181030 0.980886
0.723593 0.178888 0.981040
0.839605 0.176196 0.981224
0.928424 0.172596 0.981377
0.927921 0.167138 0.981338
0.137772 0.299560 0.980805
0.254246 0.297819 0.980938
0.370614 0.295467 0.981104
0.486436 0.292595 0.981299
0.601787 0.289273 0.981523
0.716723 0.285556 0.981774
0.831289 0.281487 0.982052
0.938048 0.276979 0.982331
0.937446 0.270442 0.982260
0.135471 0.408934 0.981377
0.248399 0.405463 0.981611
0.363195 0.401613 0.981872
0.477636 0.397425 0.982160
0.591757 0.392931 0.982472
0.705572 0.388152 0.982100
0.819068 0.383087 0.978641
0.932315 0.377786 0.974930
0.946486 0.370658 0.970791
0.128276 0.513323 0.982271
0.237952 0.508725 0.982592
0.351645 0.503836 0.980870
0.465048 0.498684 0.977319
0.578209 0.493301 0.973517
0.691145 0.487705 0.969470
0.803871 0.481909 0.965180
0.916401 0.475927 0.960651
0.955284 0.468575 0.955905
0.117188 0.614250 0.975963
0.224072 0.608787 0.972072
0.336930 0.603117 0.967936
0.449584 0.597252 0.963559
0.562045 0.591205 0.958944
0.674326 0.584987 0.954093
0.786436 0.578607 0.949008
0.898385 0.572073 0.943693
0.963895 0.564642 0.938269
0.102812 0.712571 0.961906
0.207665 0.706461 0.957205
0.319883 0.700182 0.952269
0.431933 0.693745 0.947100
0.543826 0.687158 0.941701
0.655568 0.680429 0.936074
0.767168 0.673564 0.930220
0.878632 0.666570 0.924140
0.972351 0.659165 0.917927
0.085584 0.808864 0.945161
0.189247 0.802225 0.939679
0.300936 0.795445 0.933969
0.412486 0.788532 0.928032
0.523901 0.781492 0.921871
0.635189 0.774331 0.915487
0.746354 0.767054 0.908880
0.857402 0.759665 0.902052
0.968338 0.752169 0.895005
0.065747 0.899380 0.925815
0.169154 0.892615 0.919573
0.280397 0.885757 0.913107
0.391519 0.878813 0.906420
0.502525 0.871786 0.899512
0.613420 0.864681 0.892385
0.724209 0.857502 0.885039
0.834894 0.850253 0.877475
0.945481 0.842937 0.869695
0.044296 0.986669 0.903924
0.148712 0.979445 0.896943
0.258489 0.972156 0.889736
0.369240 0.964795 0.882310
0.479889 0.957366 0.874668
0.590440 0.949872 0.866809
0.700896 0.942317 0.858734
0.811261 0.934703 0.848882
0.921491 0.927033 0.838832
0.132396 0.181239 0.980628
0.251980 0.182447 0.980632
0.370774 0.182405 0.980677
0.488583 0.181426 0.980761
0.605611 0.179702 0.980879
0.721993 0.177363 0.981029
0.837828 0.174503 0.981210
0.928257 0.170786 0.981364
0.927742 0.165200 0.981324
0.136794 0.298377 0.980800
0.252773 0.296416 0.980930
0.368946 0.293878 0.981092
0.484601 0.290846 0.981283
0.599805 0.287385 0.981504
0.714611 0.283544 0.981751
0.829060 0.279363 0.982025
0.937846 0.274790 0.982307
0.937235 0.268162 0.982235
0.133936 0.407133 0.981360
0.246368 0.403528 0.981591
0.361039 0.399559 0.981848
0.475368 0.395264 0.982131
0.589386 0.390672 0.982440
0.703120 0.385811 0.982773
0.816594 0.380702 0.983129
0.929828 0.375363 0.983509
0.946463 0.368244 0.983479
0.126356 0.511125 0.982241
0.235546 0.506433 0.982558
0.349184 0.501479 0.982900
0.462568 0.496284 0.983265
0.575718 0.490866 0.983653
0.688651 0.485241 0.984064
0.801381 0.479422 0.984496
0.913919 0.473421 0.984951
0.955485 0.466098 0.985037
0.115070 0.611836 0.983404
0.221580 0.606341 0.983800
0.334437 0.600644 0.984219
0.447096 0.594757 0.984659
0.559568 0.588694 0.985121
0.671865 0.582463 0.985604
0.783996 0.576074 0.986108
0.895970 0.569535 0.986632
0.964340 0.562148 0.986894
0.100619 0.710070 0.984825
0.205194 0.703944 0.985295
0.317429 0.697654 0.985785
0.429502 0.691210 0.986297
0.541421 0.684619 0.986828
0.653194 0.677889 0.987379
0.764828 0.671026 0.987950
0.876329 0.664037 0.988540
0.973057 0.656689 0.989040
0.083337 0.806327 0.986488
0.186853 0.799685 0.987026
0.298574 0.792906 0.987585
0.410159 0.785996 0.988163
0.521613 0.778962 0.988760
0.632942 0.771809 0.989376
0.744151 0.764542 0.990011
0.855185 0.757131 0.986099
0.966083 0.749600 0.980123
0.063450 0.896968 0.988378
0.166977 0.890212 0.988982
0.278165 0.883367 0.989605
0.389326 0.876435 0.989781
0.500294 0.869382 0.983949
0.611153 0.862251 0.977891
0.721906 0.855048 0.971608
0.832557 0.847776 0.965101
0.943111 0.840438 0.958372
0.044785 0.984267 0.987714
0.146525 0.976978 0.981770
0.256209 0.969664 0.975629
0.366924 0.962280 0.969265
0.477540 0.954828 0.962677
0.588058 0.947313 0.955867
0.698483 0.939738 0.948835
0.808818 0.932104 0.941584
0.918810 0.924416 0.934112
