library/luts/misty_blue.cube
# CrabbyCut preset LUT — sinh bởi scripts/generate_preset_luts.js
TITLE "Sương lam"
LUT_3D_SIZE 5
0.113336 0.160640 0.270263
0.365486 0.180227 0.281894
0.606562 0.183471 0.279051
0.842572 0.181903 0.271947
0.921287 0.174945 0.263716
0.138039 0.415560 0.268677
0.369248 0.410301 0.258304
0.609502 0.401572 0.232970
0.847409 0.390572 0.217229
0.964215 0.377719 0.202711
0.125437 0.626303 0.227968
0.347604 0.616253 0.213352
0.573706 0.605280 0.197919
0.809870 0.592709 0.157579
0.975441 0.577354 0.139610
0.098041 0.824042 0.175743
0.314506 0.811331 0.158770
0.538145 0.798018 0.141265
0.761212 0.784163 0.123279
0.986211 0.769806 0.069976
0.058275 0.984206 0.117244
0.273867 0.986974 0.098123
0.496157 0.974982 0.094123
0.717809 0.960327 0.092632
0.939068 0.945412 0.091156
0.123259 0.172370 0.513710
0.368356 0.182094 0.516606
0.607332 0.183343 0.511997
0.842168 0.180661 0.503907
0.923266 0.172996 0.494974
0.137656 0.414013 0.500366
0.367807 0.408075 0.489392
0.597456 0.400469 0.476940
0.825708 0.391536 0.463314
0.941960 0.379707 0.449743
0.123253 0.623003 0.458104
0.344684 0.612623 0.443196
0.570488 0.601366 0.427512
0.805545 0.587702 0.397808
0.976546 0.572159 0.379537
0.094619 0.819797 0.405042
0.310716 0.806874 0.387882
0.534154 0.793371 0.370208
0.757039 0.779342 0.352069
0.987278 0.764018 0.309364
0.054194 0.985149 0.345798
0.269706 0.984488 0.326648
0.491462 0.969941 0.307559
0.712800 0.955110 0.288119
0.933751 0.940024 0.268353
0.128086 0.177357 0.751185
0.370329 0.183110 0.750565
0.607641 0.182779 0.744556
0.841462 0.179133 0.735612
0.925224 0.170840 0.726043
0.137037 0.412212 0.731830
0.366166 0.405659 0.720311
0.595307 0.397570 0.707432
0.823145 0.388245 0.693458
0.943778 0.376162 0.679550
0.120929 0.619585 0.688136
0.341658 0.608892 0.672951
0.567177 0.597364 0.657027
0.791925 0.585105 0.640455
0.961305 0.571308 0.623813
0.091087 0.815477 0.634275
0.306855 0.802351 0.616935
0.530099 0.788663 0.599098
0.752807 0.774467 0.580810
0.985082 0.758162 0.548767
0.050005 0.986089 0.574302
0.265257 0.979581 0.555206
0.486868 0.964934 0.535995
0.708071 0.950014 0.516442
0.928896 0.934847 0.496571
0.131406 0.180358 0.950730
0.371619 0.183476 0.948303
0.607558 0.181843 0.944092
0.840487 0.177350 0.938539
0.927163 0.168495 0.933197
0.136201 0.410183 0.936223
0.364339 0.403067 0.929115
0.593008 0.394530 0.920970
0.820457 0.384835 0.911840
0.945586 0.372517 0.903037
0.118468 0.616055 0.908279
0.338531 0.605065 0.897859
0.563777 0.593279 0.886468
0.788285 0.580791 0.869693
0.963033 0.566880 0.852819
0.087445 0.811086 0.863445
0.302926 0.797763 0.845931
0.525982 0.783897 0.827936
0.748519 0.769538 0.809504
0.970579 0.754726 0.790671
0.045711 0.987026 0.802759
0.260758 0.974640 0.783722
0.482226 0.959897 0.764392
0.703299 0.944890 0.744728
0.924000 0.929644 0.724754
0.132396 0.181239 0.980628
0.370774 0.182405 0.980677
0.605611 0.179702 0.980879
0.837828 0.174503 0.981210
0.927742 0.165200 0.981324
0.133936 0.407133 0.981360
0.361039 0.399559 0.981848
0.589386 0.390672 0.982440
0.816594 0.380702 0.983129
0.946463 0.368244 0.983479
0.115070 0.611836 0.983404
0.334437 0.600644 0.984219
0.559568 0.588694 0.985121
0.783996 0.576074 0.986108
0.964340 0.562148 0.986894
0.083337 0.806327 0.986488
0.298574 0.792906 0.987585
0.521613 0.778962 0.988760
0.744151 0.764542 0.990011
0.966083 0.749600 0.980123
0.044785 0.984267 0.987714
0.256209 0.969664 0.975629
0.477540 0.954828 0.962677
0.698483 0.939738 0.948835
0.918810 0.924416 0.934112
