library/luts/mono_classic.cube
# CrabbyCut preset LUT — sinh bởi scripts/generate_preset_luts.js
TITLE "Đen trắng"
LUT_3D_SIZE 17
0.000000 0.000000 0.000000
0.010097 0.010097 0.010097
0.020452 0.020452 0.020452
0.031057 0.031057 0.031057
0.041906 0.041906 0.041906
0.052992 0.052992 0.052992
0.064307 0.064307 0.064307
0.075846 0.075846 0.075846
0.087599 0.087599 0.087599
0.099561 0.099561 0.099561
0.111725 0.111725 0.111725
0.124083 0.124083 0.124083
0.136629 0.136629 0.136629
0.149355 0.149355 0.149355
0.162254 0.162254 0.162254
0.175320 0.175320 0.175320
0.188544 0.188544 0.188544
0.034979 0.034979 0.034979
0.045915 0.045915 0.045915
0.057085 0.057085 0.057085
0.068483 0.068483 0.068483
0.080100 0.080100 0.080100
0.091930 0.091930 0.091930
0.103967 0.103967 0.103967
0.116202 0.116202 0.116202
0.128629 0.128629 0.128629
0.141241 0.141241 0.141241
0.154031 0.154031 0.154031
0.166992 0.166992 0.166992
0.180116 0.180116 0.180116
0.193397 0.193397 0.193397
0.206828 0.206828 0.206828
0.220401 0.220401 0.220401
0.234110 0.234110 0.234110
0.072687 0.072687 0.072687
0.084383 0.084383 0.084383
0.096289 0.096289 0.096289
0.108399 0.108399 0.108399
0.120705 0.120705 0.120705
0.133200 0.133200 0.133200
0.145877 0.145877 0.145877
0.158730 0.158730 0.158730
0.171751 0.171751 0.171751
0.184934 0.184934 0.184934
0.198270 0.198270 0.198270
0.211753 0.211753 0.211753
0.225377 0.225377 0.225377
0.239134 0.239134 0.239134
0.253016 0.253016 0.253016
0.267018 0.267018 0.267018
0.281131 0.281131 0.281131
0.112856 0.112856 0.112856
0.125232 0.125232 0.125232
0.137795 0.137795 0.137795
0.150537 0.150537 0.150537
0.163452 0.163452 0.163452
0.176532 0.176532 0.176532
0.189771 0.189771 0.189771
0.203162 0.203162 0.203162
0.216698 0.216698 0.216698
0.230370 0.230370 0.230370
0.244174 0.244174 0.244174
0.258100 0.258100 0.258100
0.272143 0.272143 0.272143
0.286296 0.286296 0.286296
0.300551 0.300551 0.300551
0.314901 0.314901 0.314901
0.329339 0.329339 0.329339
0.155219 0.155219 0.155219
0.168195 0.168195 0.168195
0.181334 0.181334 0.181334
0.194629 0.194629 0.194629
0.208074 0.208074 0.208074
0.221660 0.221660 0.221660
0.235381 0.235381 0.235381
0.249230 0.249230 0.249230
0.263200 0.263200 0.263200
0.277283 0.277283 0.277283
0.291474 0.291474 0.291474
0.305764 0.305764 0.305764
0.320147 0.320147 0.320147
0.334616 0.334616 0.334616
0.349163 0.349163 0.349163
0.363782 0.363782 0.363782
0.378465 0.378465 0.378465
0.199507 0.199507 0.199507
0.213004 0.213004 0.213004
0.226640 0.226640 0.226640
0.240408 0.240408 0.240408
0.254302 0.254302 0.254302
0.268314 0.268314 0.268314
0.282438 0.282438 0.282438
0.296665 0.296665 0.296665
0.310990 0.310990 0.310990
0.325405 0.325405 0.325405
0.339903 0.339903 0.339903
0.354477 0.354477 0.354477
0.369121 0.369121 0.369121
0.383826 0.383826 0.383826
0.398586 0.398586 0.398586
0.413394 0.413394 0.413394
0.428243 0.428243 0.428243
0.245452 0.245452 0.245452
0.259390 0.259390 0.259390
0.273444 0.273444 0.273444
0.287606 0.287606 0.287606
0.301870 0.301870 0.301870
0.316228 0.316228 0.316228
0.330674 0.330674 0.330674
0.345201 0.345201 0.345201
0.359801 0.359801 0.359801
0.374467 0.374467 0.374467
0.389193 0.389193 0.389193
0.403972 0.403972 0.403972
0.418796 0.418796 0.418796
0.433658 0.433658 0.433658
0.448551 0.448551 0.448551
0.463469 0.463469 0.463469
0.478404 0.478404 0.478404
0.292787 0.292787 0.292787
0.307086 0.307086 0.307086
0.321478 0.321478 0.321478
0.335954 0.335954 0.335954
0.350508 0.350508 0.350508
0.365133 0.365133 0.365133
0.379822 0.379822 0.379822
0.394568 0.394568 0.394568
0.409364 0.409364 0.409364
0.424202 0.424202 0.424202
0.439077 0.439077 0.439077
0.453980 0.453980 0.453980
0.468904 0.468904 0.468904
0.483844 0.483844 0.483844
0.498791 0.498791 0.498791
0.513738 0.513738 0.513738
0.528679 0.528679 0.528679
0.341244 0.341244 0.341244
0.355825 0.355825 0.355825
0.370474 0.370474 0.370474
0.385184 0.385184 0.385184
0.399949 0.399949 0.399949
0.414761 0.414761 0.414761
0.429614 0.429614 0.429614
0.444499 0.444499 0.444499
0.459411 0.459411 0.459411
0.474342 0.474342 0.474342
0.489285 0.489285 0.489285
0.504233 0.504233 0.504233
0.519179 0.519179 0.519179
0.534116 0.534116 0.534116
0.549037 0.549037 0.549037
0.563934 0.563934 0.563934
0.578802 0.578802 0.578802
0.390554 0.390554 0.390554
0.405337 0.405337 0.405337
0.420164 0.420164 0.420164
0.435030 0.435030 0.435030
0.449925 0.449925 0.449925
0.464845 0.464845 0.464845
0.479781 0.479781 0.479781
0.494727 0.494727 0.494727
0.509675 0.509675 0.509675
0.524618 0.524618 0.524618
0.539550 0.539550 0.539550
0.554463 0.554463 0.554463
0.569351 0.569351 0.569351
0.584206 0.584206 0.584206
0.599021 0.599021 0.599021
0.613789 0.613789 0.613789
0.628504 0.628504 0.628504
0.440449 0.440449 0.440449
0.455355 0.455355 0.455355
0.470281 0.470281 0.470281
0.485221 0.485221 0.485221
0.500169 0.500169 0.500169
0.515116 0.515116 0.515116
0.530056 0.530056 0.530056
0.544982 0.544982 0.544982
0.559887 0.559887 0.559887
0.574763 0.574763 0.574763
0.589605 0.589605 0.589605
0.604404 0.604404 0.604404
0.619153 0.619153 0.619153
0.633846 0.633846 0.633846
0.648476 0.648476 0.648476
0.663035 0.663035 0.663035
0.677517 0.677517 0.677517
0.490663 0.490663 0.490663
0.505611 0.505611 0.505611
0.520556 0.520556 0.520556
0.535492 0.535492 0.535492
0.550411 0.550411 0.550411
0.565306 0.565306 0.565306
0.580171 0.580171 0.580171
0.594998 0.594998 0.594998
0.609779 0.609779 0.609779
0.624509 0.624509 0.624509
0.639180 0.639180 0.639180
0.653785 0.653785 0.653785
0.668317 0.668317 0.668317
0.682769 0.682769 0.682769
0.697134 0.697134 0.697134
0.711404 0.711404 0.711404
0.725574 0.725574 0.725574
0.540926 0.540926 0.540926
0.555837 0.555837 0.555837
0.570722 0.570722 0.570722
0.585574 0.585574 0.585574
0.600385 0.600385 0.600385
0.615148 0.615148 0.615148
0.629858 0.629858 0.629858
0.644505 0.644505 0.644505
0.659085 0.659085 0.659085
0.673588 0.673588 0.673588
0.688009 0.688009 0.688009
0.702340 0.702340 0.702340
0.716575 0.716575 0.716575
0.730706 0.730706 0.730706
0.744726 0.744726 0.744726
0.758628 0.758628 0.758628
0.772406 0.772406 0.772406
0.590971 0.590971 0.590971
0.605765 0.605765 0.605765
0.620510 0.620510 0.620510
0.635198 0.635198 0.635198
0.649821 0.649821 0.649821
0.664374 0.664374 0.664374
0.678848 0.678848 0.678848
0.693237 0.693237 0.693237
0.707534 0.707534 0.707534
0.721732 0.721732 0.721732
0.735823 0.735823 0.735823
0.749801 0.749801 0.749801
0.763659 0.763659 0.763659
0.777389 0.777389 0.777389
0.790985 0.790985 0.790985
0.804439 0.804439 0.804439
0.817745 0.817745 0.817745
0.640530 0.640530 0.640530
0.655128 0.655128 0.655128
0.669653 0.669653 0.669653
0.684097 0.684097 0.684097
0.698453 0.698453 0.698453
0.712715 0.712715 0.712715
0.726875 0.726875 0.726875
0.740926 0.740926 0.740926
0.754861 0.754861 0.754861
0.768673 0.768673 0.768673
0.782355 0.782355 0.782355
0.795900 0.795900 0.795900
0.809301 0.809301 0.809301
0.822551 0.822551 0.822551
0.835643 0.835643 0.835643
0.848570 0.848570 0.848570
0.861324 0.861324 0.861324
0.689334 0.689334 0.689334
0.703657 0.703657 0.703657
0.717882 0.717882 0.717882
0.732003 0.732003 0.732003
0.746013 0.746013 0.746013
0.759904 0.759904 0.759904
0.773670 0.773670 0.773670
0.787303 0.787303 0.787303
0.800796 0.800796 0.800796
0.814143 0.814143 0.814143
0.827336 0.827336 0.827336
0.840369 0.840369 0.840369
0.853233 0.853233 0.853233
0.865923 0.865923 0.865923
0.878432 0.878432 0.878432
0.890751 0.890751 0.890751
0.902875 0.902875 0.902875
0.737117 0.737117 0.737117
0.751084 0.751084 0.751084
0.764930 0.764930 0.764930
0.778649 0.778649 0.778649
0.792232 0.792232 0.792232
0.805672 0.805672 0.805672
0.818964 0.818964 0.818964
0.832100 0.832100 0.832100
0.845072 0.845072 0.845072
0.857874 0.857874 0.857874
0.870499 0.870499 0.870499
0.882939 0.882939 0.882939
0.895188 0.895188 0.895188
0.907238 0.907238 0.907238
0.919083 0.919083 0.919083
0.930716 0.930716 0.930716
0.942129 0.942129 0.942129
0.003400 0.003400 0.003400
0.013585 0.013585 0.013585
0.024025 0.024025 0.024025
0.034714 0.034714 0.034714
0.045645 0.045645 0.045645
0.056809 0.056809 0.056809
0.068201 0.068201 0.068201
0.079813 0.079813 0.079813
0.091639 0.091639 0.091639
0.103670 0.103670 0.103670
0.115901 0.115901 0.115901
0.128323 0.128323 0.128323
0.140931 0.140931 0.140931
0.153716 0.153716 0.153716
0.166673 0.166673 0.166673
0.179793 0.179793 0.179793
0.193071 0.193071 0.193071
0.038666 0.038666 0.038666
0.049683 0.049683 0.049683
0.060931 0.060931 0.060931
0.072404 0.072404 0.072404
0.084094 0.084094 0.084094
0.095995 0.095995 0.095995
0.108100 0.108100 0.108100
0.120401 0.120401 0.120401
0.132892 0.132892 0.132892
0.145565 0.145565 0.145565
0.158414 0.158414 0.158414
0.171431 0.171431 0.171431
0.184609 0.184609 0.184609
0.197942 0.197942 0.197942
0.211422 0.211422 0.211422
0.225042 0.225042 0.225042
0.238796 0.238796 0.238796
0.076635 0.076635 0.076635
0.088403 0.088403 0.088403
0.100379 0.100379 0.100379
0.112556 0.112556 0.112556
0.124927 0.124927 0.124927
0.137485 0.137485 0.137485
0.150223 0.150223 0.150223
0.163134 0.163134 0.163134
0.176210 0.176210 0.176210
0.189446 0.189446 0.189446
0.202833 0.202833 0.202833
0.216365 0.216365 0.216365
0.230034 0.230034 0.230034
0.243834 0.243834 0.243834
0.257758 0.257758 0.257758
0.271799 0.271799 0.271799
0.285948 0.285948 0.285948
0.117038 0.117038 0.117038
0.129478 0.129478 0.129478
0.142102 0.142102 0.142102
0.154904 0.154904 0.154904
0.167876 0.167876 0.167876
0.181011 0.181011 0.181011
0.194302 0.194302 0.194302
0.207743 0.207743 0.207743
0.221326 0.221326 0.221326
0.235044 0.235044 0.235044
0.248890 0.248890 0.248890
0.262857 0.262857 0.262857
0.276938 0.276938 0.276938
0.291126 0.291126 0.291126
0.305414 0.305414 0.305414
0.319794 0.319794 0.319794
0.334261 0.334261 0.334261
0.159607 0.159607 0.159607
0.172639 0.172639 0.172639
0.185832 0.185832 0.185832
0.199179 0.199179 0.199179
0.212672 0.212672 0.212672
0.226305 0.226305 0.226305
0.240070 0.240070 0.240070
0.253961 0.253961 0.253961
0.267970 0.267970 0.267970
0.282091 0.282091 0.282091
0.296316 0.296316 0.296316
0.310639 0.310639 0.310639
0.325052 0.325052 0.325052
0.339548 0.339548 0.339548
0.354120 0.354120 0.354120
0.368762 0.368762 0.368762
0.383465 0.383465 0.383465
0.204074 0.204074 0.204074
0.217619 0.217619 0.217619
0.231301 0.231301 0.231301
0.245113 0.245113 0.245113
0.259048 0.259048 0.259048
0.273099 0.273099 0.273099
0.287258 0.287258 0.287258
0.301520 0.301520 0.301520
0.315876 0.315876 0.315876
0.330320 0.330320 0.330320
0.344845 0.344845 0.344845
0.359443 0.359443 0.359443
0.374108 0.374108 0.374108
0.388833 0.388833 0.388833
0.403610 0.403610 0.403610
0.418433 0.418433 0.418433
0.433294 0.433294 0.433294
0.250172 0.250172 0.250172
0.264150 0.264150 0.264150
0.278241 0.278241 0.278241
0.292439 0.292439 0.292439
0.306736 0.306736 0.306736
0.321125 0.321125 0.321125
0.335599 0.335599 0.335599
0.350151 0.350151 0.350151
0.364775 0.364775 0.364775
0.379462 0.379462 0.379462
0.394207 0.394207 0.394207
0.409001 0.409001 0.409001
0.423839 0.423839 0.423839
0.438712 0.438712 0.438712
0.453615 0.453615 0.453615
0.468539 0.468539 0.468539
0.483478 0.483478 0.483478
0.297633 0.297633 0.297633
0.311964 0.311964 0.311964
0.326385 0.326385 0.326385
0.340888 0.340888 0.340888
0.355467 0.355467 0.355467
0.370115 0.370115 0.370115
0.384824 0.384824 0.384824
0.399587 0.399587 0.399587
0.414399 0.414399 0.414399
0.429250 0.429250 0.429250
0.444135 0.444135 0.444135
0.459046 0.459046 0.459046
0.473977 0.473977 0.473977
0.488919 0.488919 0.488919
0.503867 0.503867 0.503867
0.518813 0.518813 0.518813
0.533751 0.533751 0.533751
0.346187 0.346187 0.346187
0.360792 0.360792 0.360792
0.375463 0.375463 0.375463
0.390193 0.390193 0.390193
0.404975 0.404975 0.404975
0.419801 0.419801 0.419801
0.434666 0.434666 0.434666
0.449561 0.449561 0.449561
0.464480 0.464480 0.464480
0.479416 0.479416 0.479416
0.494361 0.494361 0.494361
0.509309 0.509309 0.509309
0.524253 0.524253 0.524253
0.539185 0.539185 0.539185
0.554099 0.554099 0.554099
0.568987 0.568987 0.568987
0.583843 0.583843 0.583843
0.395569 0.395569 0.395569
0.410368 0.410368 0.410368
0.425209 0.425209 0.425209
0.440085 0.440085 0.440085
0.454990 0.454990 0.454990
0.469916 0.469916 0.469916
0.484856 0.484856 0.484856
0.499803 0.499803 0.499803
0.514750 0.514750 0.514750
0.529691 0.529691 0.529691
0.544617 0.544617 0.544617
0.559523 0.559523 0.559523
0.574400 0.574400 0.574400
0.589242 0.589242 0.589242
0.604042 0.604042 0.604042
0.618793 0.618793 0.618793
0.633488 0.633488 0.633488
0.445509 0.445509 0.445509
0.460422 0.460422 0.460422
0.475354 0.475354 0.475354
0.490297 0.490297 0.490297
0.505245 0.505245 0.505245
0.520191 0.520191 0.520191
0.535127 0.535127 0.535127
0.550046 0.550046 0.550046
0.564942 0.564942 0.564942
0.579808 0.579808 0.579808
0.594635 0.594635 0.594635
0.609418 0.609418 0.609418
0.624150 0.624150 0.624150
0.638822 0.638822 0.638822
0.653429 0.653429 0.653429
0.667963 0.667963 0.667963
0.682417 0.682417 0.682417
0.495739 0.495739 0.495739
0.510687 0.510687 0.510687
0.525630 0.525630 0.525630
0.540561 0.540561 0.540561
0.555473 0.555473 0.555473
0.570358 0.570358 0.570358
0.585211 0.585211 0.585211
0.600023 0.600023 0.600023
0.614788 0.614788 0.614788
0.629499 0.629499 0.629499
0.644148 0.644148 0.644148
0.658729 0.658729 0.658729
0.673234 0.673234 0.673234
0.687657 0.687657 0.687657
0.701991 0.701991 0.701991
0.716228 0.716228 0.716228
0.730362 0.730362 0.730362
0.545992 0.545992 0.545992
0.560895 0.560895 0.560895
0.575770 0.575770 0.575770
0.590608 0.590608 0.590608
0.605404 0.605404 0.605404
0.620150 0.620150 0.620150
0.634839 0.634839 0.634839
0.649465 0.649465 0.649465
0.664019 0.664019 0.664019
0.678495 0.678495 0.678495
0.692887 0.692887 0.692887
0.707186 0.707186 0.707186
0.721386 0.721386 0.721386
0.735480 0.735480 0.735480
0.749461 0.749461 0.749461
0.763322 0.763322 0.763322
0.777055 0.777055 0.777055
0.596000 0.596000 0.596000
0.610779 0.610779 0.610779
0.625505 0.625505 0.625505
0.640172 0.640172 0.640172
0.654772 0.654772 0.654772
0.669299 0.669299 0.669299
0.683745 0.683745 0.683745
0.698103 0.698103 0.698103
0.712367 0.712367 0.712367
0.726530 0.726530 0.726530
0.740583 0.740583 0.740583
0.754521 0.754521 0.754521
0.768337 0.768337 0.768337
0.782022 0.782022 0.782022
0.795571 0.795571 0.795571
0.808975 0.808975 0.808975
0.822229 0.822229 0.822229
0.645495 0.645495 0.645495
0.660069 0.660069 0.660069
0.674568 0.674568 0.674568
0.688983 0.688983 0.688983
0.703308 0.703308 0.703308
0.717536 0.717536 0.717536
0.731659 0.731659 0.731659
0.745672 0.745672 0.745672
0.759566 0.759566 0.759566
0.773334 0.773334 0.773334
0.786971 0.786971 0.786971
0.800468 0.800468 0.800468
0.813818 0.813818 0.813818
0.827015 0.827015 0.827015
0.840052 0.840052 0.840052
0.852921 0.852921 0.852921
0.865615 0.865615 0.865615
0.694209 0.694209 0.694209
0.708499 0.708499 0.708499
0.722690 0.722690 0.722690
0.736774 0.736774 0.736774
0.750744 0.750744 0.750744
0.764593 0.764593 0.764593
0.778315 0.778315 0.778315
0.791901 0.791901 0.791901
0.805345 0.805345 0.805345
0.818641 0.818641 0.818641
0.831780 0.831780 0.831780
0.844757 0.844757 0.844757
0.857563 0.857563 0.857563
0.870192 0.870192 0.870192
0.882637 0.882637 0.882637
0.894891 0.894891 0.894891
0.906946 0.906946 0.906946
0.741873 0.741873 0.741873
0.755800 0.755800 0.755800
0.769604 0.769604 0.769604
0.783277 0.783277 0.783277
0.796812 0.796812 0.796812
0.810204 0.810204 0.810204
0.823443 0.823443 0.823443
0.836524 0.836524 0.836524
0.849439 0.849439 0.849439
0.862182 0.862182 0.862182
0.874744 0.874744 0.874744
0.887121 0.887121 0.887121
0.899303 0.899303 0.899303
0.911284 0.911284 0.911284
0.923058 0.923058 0.923058
0.934617 0.934617 0.934617
0.945953 0.945953 0.945953
0.006829 0.006829 0.006829
0.017102 0.017102 0.017102
0.027628 0.027628 0.027628
0.038400 0.038400 0.038400
0.049410 0.049410 0.049410
0.060653 0.060653 0.060653
0.072120 0.072120 0.072120
0.083806 0.083806 0.083806
0.095702 0.095702 0.095702
0.107802 0.107802 0.107802
0.120098 0.120098 0.120098
0.132584 0.132584 0.132584
0.145253 0.145253 0.145253
0.158098 0.158098 0.158098
0.171111 0.171111 0.171111
0.184285 0.184285 0.184285
0.197614 0.197614 0.197614
0.042381 0.042381 0.042381
0.053477 0.053477 0.053477
0.064802 0.064802 0.064802
0.076350 0.076350 0.076350
0.088113 0.088113 0.088113
0.100084 0.100084 0.100084
0.112256 0.112256 0.112256
0.124622 0.124622 0.124622
0.137176 0.137176 0.137176
0.149909 0.149909 0.149909
0.162816 0.162816 0.162816
0.175889 0.175889 0.175889
0.189120 0.189120 0.189120
0.202504 0.202504 0.202504
0.216032 0.216032 0.216032
0.229698 0.229698 0.229698
0.243495 0.243495 0.243495
0.080608 0.080608 0.080608
0.092447 0.092447 0.092447
0.104492 0.104492 0.104492
0.116736 0.116736 0.116736
0.129171 0.129171 0.129171
0.141791 0.141791 0.141791
0.154589 0.154589 0.154589
0.167556 0.167556 0.167556
0.180688 0.180688 0.180688
0.193975 0.193975 0.193975
0.207413 0.207413 0.207413
0.220992 0.220992 0.220992
0.234707 0.234707 0.234707
0.248550 0.248550 0.248550
0.262514 0.262514 0.262514
0.276592 0.276592 0.276592
0.290777 0.290777 0.290777
0.121241 0.121241 0.121241
0.133745 0.133745 0.133745
0.146430 0.146430 0.146430
0.159290 0.159290 0.159290
0.172319 0.172319 0.172319
0.185508 0.185508 0.185508
0.198850 0.198850 0.198850
0.212340 0.212340 0.212340
0.225970 0.225970 0.225970
0.239732 0.239732 0.239732
0.253620 0.253620 0.253620
0.267626 0.267626 0.267626
0.281744 0.281744 0.281744
0.295967 0.295967 0.295967
0.310287 0.310287 0.310287
0.324698 0.324698 0.324698
0.339192 0.339192 0.339192
0.164014 0.164014 0.164014
0.177102 0.177102 0.177102
0.190348 0.190348 0.190348
0.203745 0.203745 0.203745
0.217286 0.217286 0.217286
0.230965 0.230965 0.230965
0.244774 0.244774 0.244774
0.258706 0.258706 0.258706
0.272754 0.272754 0.272754
0.286911 0.286911 0.286911
0.301170 0.301170 0.301170
0.315524 0.315524 0.315524
0.329966 0.329966 0.329966
0.344488 0.344488 0.344488
0.359085 0.359085 0.359085
0.373749 0.373749 0.373749
0.388472 0.388472 0.388472
0.208659 0.208659 0.208659
0.222251 0.222251 0.222251
0.235978 0.235978 0.235978
0.249832 0.249832 0.249832
0.263807 0.263807 0.263807
0.277895 0.277895 0.277895
0.292090 0.292090 0.292090
0.306385 0.306385 0.306385
0.320772 0.320772 0.320772
0.335244 0.335244 0.335244
0.349794 0.349794 0.349794
0.364416 0.364416 0.364416
0.379102 0.379102 0.379102
0.393845 0.393845 0.393845
0.408639 0.408639 0.408639
0.423476 0.423476 0.423476
0.438348 0.438348 0.438348
0.254906 0.254906 0.254906
0.268923 0.268923 0.268923
0.283051 0.283051 0.283051
0.297283 0.297283 0.297283
0.311612 0.311612 0.311612
0.326031 0.326031 0.326031
0.340532 0.340532 0.340532
0.355110 0.355110 0.355110
0.369756 0.369756 0.369756
0.384463 0.384463 0.384463
0.399226 0.399226 0.399226
0.414036 0.414036 0.414036
0.428886 0.428886 0.428886
0.443770 0.443770 0.443770
0.458681 0.458681 0.458681
0.473611 0.473611 0.473611
0.488554 0.488554 0.488554
0.302489 0.302489 0.302489
0.316851 0.316851 0.316851
0.331301 0.331301 0.331301
0.345831 0.345831 0.345831
0.360434 0.360434 0.360434
0.375103 0.375103 0.375103
0.389832 0.389832 0.389832
0.404612 0.404612 0.404612
0.419438 0.419438 0.419438
0.434302 0.434302 0.434302
0.449196 0.449196 0.449196
0.464115 0.464115 0.464115
0.479050 0.479050 0.479050
0.493995 0.493995 0.493995
0.508943 0.508943 0.508943
0.523887 0.523887 0.523887
0.538820 0.538820 0.538820
0.351139 0.351139 0.351139
0.365767 0.365767 0.365767
0.380459 0.380459 0.380459
0.395207 0.395207 0.395207
0.410005 0.410005 0.410005
0.424845 0.424845 0.424845
0.439721 0.439721 0.439721
0.454625 0.454625 0.454625
0.469551 0.469551 0.469551
0.484490 0.484490 0.484490
0.499438 0.499438 0.499438
0.514385 0.514385 0.514385
0.529326 0.529326 0.529326
0.544252 0.544252 0.544252
0.559158 0.559158 0.559158
0.574036 0.574036 0.574036
0.588879 0.588879 0.588879
0.400589 0.400589 0.400589
0.415403 0.415403 0.415403
0.430257 0.430257 0.430257
0.445144 0.445144 0.445144
0.460057 0.460057 0.460057
0.474988 0.474988 0.474988
0.489932 0.489932 0.489932
0.504880 0.504880 0.504880
0.519825 0.519825 0.519825
0.534762 0.534762 0.534762
0.549682 0.549682 0.549682
0.564578 0.564578 0.564578
0.579445 0.579445 0.579445
0.594273 0.594273 0.594273
0.609057 0.609057 0.609057
0.623790 0.623790 0.623790
0.638464 0.638464 0.638464
0.450571 0.450571 0.450571
0.465491 0.465491 0.465491
0.480428 0.480428 0.480428
0.495373 0.495373 0.495373
0.510321 0.510321 0.510321
0.525265 0.525265 0.525265
0.540196 0.540196 0.540196
0.555108 0.555108 0.555108
0.569995 0.569995 0.569995
0.584848 0.584848 0.584848
0.599661 0.599661 0.599661
0.614427 0.614427 0.614427
0.629139 0.629139 0.629139
0.643790 0.643790 0.643790
0.658373 0.658373 0.658373
0.672881 0.672881 0.672881
0.687306 0.687306 0.687306
0.500816 0.500816 0.500816
0.515763 0.515763 0.515763
0.530702 0.530702 0.530702
0.545628 0.545628 0.545628
0.560531 0.560531 0.560531
0.575406 0.575406 0.575406
0.590246 0.590246 0.590246
0.605043 0.605043 0.605043
0.619790 0.619790 0.619790
0.634481 0.634481 0.634481
0.649108 0.649108 0.649108
0.663664 0.663664 0.663664
0.678142 0.678142 0.678142
0.692536 0.692536 0.692536
0.706837 0.706837 0.706837
0.721040 0.721040 0.721040
0.735137 0.735137 0.735137
0.551056 0.551056 0.551056
0.565950 0.565950 0.565950
0.580813 0.580813 0.580813
0.595638 0.595638 0.595638
0.610418 0.610418 0.610418
0.625145 0.625145 0.625145
0.639814 0.639814 0.639814
0.654416 0.654416 0.654416
0.668944 0.668944 0.668944
0.683392 0.683392 0.683392
0.697753 0.697753 0.697753
0.712020 0.712020 0.712020
0.726185 0.726185 0.726185
0.740241 0.740241 0.740241
0.754182 0.754182 0.754182
0.768000 0.768000 0.768000
0.781689 0.781689 0.781689
0.601025 0.601025 0.601025
0.615786 0.615786 0.615786
0.630493 0.630493 0.630493
0.645138 0.645138 0.645138
0.659714 0.659714 0.659714
0.674214 0.674214 0.674214
0.688631 0.688631 0.688631
0.702959 0.702959 0.702959
0.717189 0.717189 0.717189
0.731315 0.731315 0.731315
0.745330 0.745330 0.745330
0.759227 0.759227 0.759227
0.772999 0.772999 0.772999
0.786639 0.786639 0.786639
0.800139 0.800139 0.800139
0.813494 0.813494 0.813494
0.826694 0.826694 0.826694
0.650453 0.650453 0.650453
0.665002 0.665002 0.665002
0.679473 0.679473 0.679473
0.693858 0.693858 0.693858
0.708151 0.708151 0.708151
0.722344 0.722344 0.722344
0.736431 0.736431 0.736431
0.750404 0.750404 0.750404
0.764256 0.764256 0.764256
0.777981 0.777981 0.777981
0.791570 0.791570 0.791570
0.805018 0.805018 0.805018
0.818318 0.818318 0.818318
0.831461 0.831461 0.831461
0.844441 0.844441 0.844441
0.857252 0.857252 0.857252
0.869885 0.869885 0.869885
0.699073 0.699073 0.699073
0.713330 0.713330 0.713330
0.727485 0.727485 0.727485
0.741531 0.741531 0.741531
0.755461 0.755461 0.755461
0.769268 0.769268 0.769268
0.782944 0.782944 0.782944
0.796483 0.796483 0.796483
0.809878 0.809878 0.809878
0.823121 0.823121 0.823121
0.836206 0.836206 0.836206
0.849125 0.849125 0.849125
0.861872 0.861872 0.861872
0.874439 0.874439 0.874439
0.886820 0.886820 0.886820
0.899007 0.899007 0.899007
0.910994 0.910994 0.910994
0.746616 0.746616 0.746616
0.760502 0.760502 0.760502
0.774262 0.774262 0.774262
0.787889 0.787889 0.787889
0.801377 0.801377 0.801377
0.814717 0.814717 0.814717
0.827903 0.827903 0.827903
0.840929 0.840929 0.840929
0.853786 0.853786 0.853786
0.866469 0.866469 0.866469
0.878969 0.878969 0.878969
0.891280 0.891280 0.891280
0.903395 0.903395 0.903395
0.915306 0.915306 0.915306
0.927008 0.927008 0.927008
0.938492 0.938492 0.938492
0.949752 0.949752 0.949752
0.010289 0.010289 0.010289
0.020649 0.020649 0.020649
0.031259 0.031259 0.031259
0.042113 0.042113 0.042113
0.053203 0.053203 0.053203
0.064522 0.064522 0.064522
0.076065 0.076065 0.076065
0.087822 0.087822 0.087822
0.099788 0.099788 0.099788
0.111956 0.111956 0.111956
0.124318 0.124318 0.124318
0.136867 0.136867 0.136867
0.149596 0.149596 0.149596
0.162498 0.162498 0.162498
0.175567 0.175567 0.175567
0.188795 0.188795 0.188795
0.202175 0.202175 0.202175
0.046123 0.046123 0.046123
