library/luts/mono_classic.cube
# CrabbyCut preset LUT — sinh bởi scripts/generate_preset_luts.js
TITLE "Đen trắng"
LUT_3D_SIZE 9
0.000000 0.000000 0.000000
0.020452 0.020452 0.020452
0.041906 0.041906 0.041906
0.064307 0.064307 0.064307
0.087599 0.087599 0.087599
0.111725 0.111725 0.111725
0.136629 0.136629 0.136629
0.162254 0.162254 0.162254
0.188544 0.188544 0.188544
0.072687 0.072687 0.072687
0.096289 0.096289 0.096289
0.120705 0.120705 0.120705
0.145877 0.145877 0.145877
0.171751 0.171751 0.171751
0.198270 0.198270 0.198270
0.225377 0.225377 0.225377
0.253016 0.253016 0.253016
0.281131 0.281131 0.281131
0.155219 0.155219 0.155219
0.181334 0.181334 0.181334
0.208074 0.208074 0.208074
0.235381 0.235381 0.235381
0.263200 0.263200 0.263200
0.291474 0.291474 0.291474
0.320147 0.320147 0.320147
0.349163 0.349163 0.349163
0.378465 0.378465 0.378465
0.245452 0.245452 0.245452
0.273444 0.273444 0.273444
0.301870 0.301870 0.301870
0.330674 0.330674 0.330674
0.359801 0.359801 0.359801
0.389193 0.389193 0.389193
0.418796 0.418796 0.418796
0.448551 0.448551 0.448551
0.478404 0.478404 0.478404
0.341244 0.341244 0.341244
0.370474 0.370474 0.370474
0.399949 0.399949 0.399949
0.429614 0.429614 0.429614
0.459411 0.459411 0.459411
0.489285 0.489285 0.489285
0.519179 0.519179 0.519179
0.549037 0.549037 0.549037
0.578802 0.578802 0.578802
0.440449 0.440449 0.440449
0.470281 0.470281 0.470281
0.500169 0.500169 0.500169
0.530056 0.530056 0.530056
0.559887 0.559887 0.559887
0.589605 0.589605 0.589605
0.619153 0.619153 0.619153
0.648476 0.648476 0.648476
0.677517 0.677517 0.677517
0.540926 0.540926 0.540926
0.570722 0.570722 0.570722
0.600385 0.600385 0.600385
0.629858 0.629858 0.629858
0.659085 0.659085 0.659085
0.688009 0.688009 0.688009
0.716575 0.716575 0.716575
0.744726 0.744726 0.744726
0.772406 0.772406 0.772406
0.640530 0.640530 0.640530
0.669653 0.669653 0.669653
0.698453 0.698453 0.698453
0.726875 0.726875 0.726875
0.754861 0.754861 0.754861
0.782355 0.782355 0.782355
0.809301 0.809301 0.809301
0.835643 0.835643 0.835643
0.861324 0.861324 0.861324
0.737117 0.737117 0.737117
0.764930 0.764930 0.764930
0.792232 0.792232 0.792232
0.818964 0.818964 0.818964
0.845072 0.845072 0.845072
0.870499 0.870499 0.870499
0.895188 0.895188 0.895188
0.919083 0.919083 0.919083
0.942129 0.942129 0.942129
0.006829 0.006829 0.006829
0.027628 0.027628 0.027628
0.049410 0.049410 0.049410
0.072120 0.072120 0.072120
0.095702 0.095702 0.095702
0.120098 0.120098 0.120098
0.145253 0.145253 0.145253
0.171111 0.171111 0.171111
0.197614 0.197614 0.197614
0.080608 0.080608 0.080608
0.104492 0.104492 0.104492
0.129171 0.129171 0.129171
0.154589 0.154589 0.154589
0.180688 0.180688 0.180688
0.207413 0.207413 0.207413
0.234707 0.234707 0.234707
0.262514 0.262514 0.262514
0.290777 0.290777 0.290777
0.164014 0.164014 0.164014
0.190348 0.190348 0.190348
0.217286 0.217286 0.217286
0.244774 0.244774 0.244774
0.272754 0.272754 0.272754
0.301170 0.301170 0.301170
0.329966 0.329966 0.329966
0.359085 0.359085 0.359085
0.388472 0.388472 0.388472
0.254906 0.254906 0.254906
0.283051 0.283051 0.283051
0.311612 0.311612 0.311612
0.340532 0.340532 0.340532
0.369756 0.369756 0.369756
0.399226 0.399226 0.399226
0.428886 0.428886 0.428886
0.458681 0.458681 0.458681
0.488554 0.488554 0.488554
0.351139 0.351139 0.351139
0.380459 0.380459 0.380459
0.410005 0.410005 0.410005
0.439721 0.439721 0.439721
0.469551 0.469551 0.469551
0.499438 0.499438 0.499438
0.529326 0.529326 0.529326
0.559158 0.559158 0.559158
0.588879 0.588879 0.588879
0.450571 0.450571 0.450571
0.480428 0.480428 0.480428
0.510321 0.510321 0.510321
0.540196 0.540196 0.540196
0.569995 0.569995 0.569995
0.599661 0.599661 0.599661
0.629139 0.629139 0.629139
0.658373 0.658373 0.658373
0.687306 0.687306 0.687306
0.551056 0.551056 0.551056
0.580813 0.580813 0.580813
0.610418 0.610418 0.610418
0.639814 0.639814 0.639814
0.668944 0.668944 0.668944
0.697753 0.697753 0.697753
0.726185 0.726185 0.726185
0.754182 0.754182 0.754182
0.781689 0.781689 0.781689
0.650453 0.650453 0.650453
0.679473 0.679473 0.679473
0.708151 0.708151 0.708151
0.736431 0.736431 0.736431
0.764256 0.764256 0.764256
0.791570 0.791570 0.791570
0.818318 0.818318 0.818318
0.844441 0.844441 0.844441
0.869885 0.869885 0.869885
0.746616 0.746616 0.746616
0.774262 0.774262 0.774262
0.801377 0.801377 0.801377
0.827903 0.827903 0.827903
0.853786 0.853786 0.853786
0.878969 0.878969 0.878969
0.903395 0.903395 0.903395
0.927008 0.927008 0.927008
0.949752 0.949752 0.949752
0.013779 0.013779 0.013779
0.034918 0.034918 0.034918
0.057022 0.057022 0.057022
0.080034 0.080034 0.080034
0.103898 0.103898 0.103898
0.128559 0.128559 0.128559
0.153959 0.153959 0.153959
0.180042 0.180042 0.180042
0.206752 0.206752 0.206752
0.088626 0.088626 0.088626
0.112787 0.112787 0.112787
0.137723 0.137723 0.137723
0.163378 0.163378 0.163378
0.189696 0.189696 0.189696
0.216621 0.216621 0.216621
0.244095 0.244095 0.244095
0.272064 0.272064 0.272064
0.300470 0.300470 0.300470
0.172886 0.172886 0.172886
0.199431 0.199431 0.199431
0.226563 0.226563 0.226563
0.254223 0.254223 0.254223
0.282358 0.282358 0.282358
0.310909 0.310909 0.310909
0.339821 0.339821 0.339821
0.369038 0.369038 0.369038
0.398502 0.398502 0.398502
0.264414 0.264414 0.264414
0.292707 0.292707 0.292707
0.321396 0.321396 0.321396
0.350426 0.350426 0.350426
0.379739 0.379739 0.379739
0.409280 0.409280 0.409280
0.438993 0.438993 0.438993
0.468820 0.468820 0.468820
0.498706 0.498706 0.498706
0.361068 0.361068 0.361068
0.390470 0.390470 0.390470
0.420080 0.420080 0.420080
0.449841 0.449841 0.449841
0.479697 0.479697 0.479697
0.509590 0.509590 0.509590
0.539466 0.539466 0.539466
0.569267 0.569267 0.569267
0.598938 0.598938 0.598938
0.460703 0.460703 0.460703
0.490578 0.490578 0.490578
0.520472 0.520472 0.520472
0.550327 0.550327 0.550327
0.580087 0.580087 0.580087
0.609696 0.609696 0.609696
0.639098 0.639098 0.639098
0.668235 0.668235 0.668235
0.697053 0.697053 0.697053
0.561176 0.561176 0.561176
0.590887 0.590887 0.590887
0.620427 0.620427 0.620427
0.649739 0.649739 0.649739
0.678767 0.678767 0.678767
0.707454 0.707454 0.707454
0.735744 0.735744 0.735744
0.763581 0.763581 0.763581
0.790909 0.790909 0.790909
0.660343 0.660343 0.660343
0.689253 0.689253 0.689253
0.717802 0.717802 0.717802
0.745934 0.745934 0.745934
0.773592 0.773592 0.773592
0.800720 0.800720 0.800720
0.827262 0.827262 0.827262
0.853161 0.853161 0.853161
0.878362 0.878362 0.878362
0.756061 0.756061 0.756061
0.783533 0.783533 0.783533
0.810454 0.810454 0.810454
0.836768 0.836768 0.836768
0.862420 0.862420 0.862420
0.887352 0.887352 0.887352
0.911508 0.911508 0.911508
0.934832 0.934832 0.934832
0.957268 0.957268 0.957268
0.020846 0.020846 0.020846
0.042319 0.042319 0.042319
0.064738 0.064738 0.064738
0.088046 0.088046 0.088046
0.112187 0.112187 0.112187
0.137104 0.137104 0.137104
0.162743 0.162743 0.162743
0.189045 0.189045 0.189045
0.215955 0.215955 0.215955
0.096741 0.096741 0.096741
0.121171 0.121171 0.121171
0.146358 0.146358 0.146358
0.172245 0.172245 0.172245
0.198775 0.198775 0.198775
0.225892 0.225892 0.225892
0.253541 0.253541 0.253541
0.281664 0.281664 0.281664
0.310206 0.310206 0.310206
0.181832 0.181832 0.181832
0.208582 0.208582 0.208582
0.235900 0.235900 0.235900
0.263728 0.263728 0.263728
0.292010 0.292010 0.292010
0.320690 0.320690 0.320690
0.349712 0.349712 0.349712
0.379019 0.379019 0.379019
0.408555 0.408555 0.408555
0.273975 0.273975 0.273975
0.302408 0.302408 0.302408
0.331219 0.331219 0.331219
0.360352 0.360352 0.360352
0.389749 0.389749 0.389749
0.419354 0.419354 0.419354
0.449112 0.449112 0.449112
0.478966 0.478966 0.478966
0.508859 0.508859 0.508859
0.371026 0.371026 0.371026
0.400506 0.400506 0.400506
0.430173 0.430173 0.430173
0.459973 0.459973 0.459973
0.489847 0.489847 0.489847
0.519741 0.519741 0.519741
0.549598 0.549598 0.549598
0.579361 0.579361 0.579361
0.608974 0.608974 0.608974
0.470843 0.470843 0.470843
0.500731 0.500731 0.500731
0.530618 0.530618 0.530618
0.560447 0.560447 0.560447
0.590162 0.590162 0.590162
0.619707 0.619707 0.619707
0.649025 0.649025 0.649025
0.678061 0.678061 0.678061
0.706757 0.706757 0.706757
0.571282 0.571282 0.571282
0.600941 0.600941 0.600941
0.630410 0.630410 0.630410
0.659632 0.659632 0.659632
0.688550 0.688550 0.688550
0.717109 0.717109 0.717109
0.745251 0.745251 0.745251
0.772922 0.772922 0.772922
0.800064 0.800064 0.800064
0.670198 0.670198 0.670198
0.698992 0.698992 0.698992
0.727406 0.727406 0.727406
0.755383 0.755383 0.755383
0.782867 0.782867 0.782867
0.809803 0.809803 0.809803
0.836132 0.836132 0.836132
0.861801 0.861801 0.861801
0.886751 0.886751 0.886751
0.765449 0.765449 0.765449
0.792740 0.792740 0.792740
0.819461 0.819461 0.819461
0.845557 0.845557 0.845557
0.870970 0.870970 0.870970
0.895645 0.895645 0.895645
0.919525 0.919525 0.919525
0.942554 0.942554 0.942554
0.964675 0.964675 0.964675
0.028029 0.028029 0.028029
0.049829 0.049829 0.049829
0.072556 0.072556 0.072556
0.096153 0.096153 0.096153
0.120565 0.120565 0.120565
0.145733 0.145733 0.145733
0.171603 0.171603 0.171603
0.198119 0.198119 0.198119
0.225223 0.225223 0.225223
0.104949 0.104949 0.104949
0.129643 0.129643 0.129643
0.155073 0.155073 0.155073
0.181185 0.181185 0.181185
0.207921 0.207921 0.207921
0.235225 0.235225 0.235225
0.263041 0.263041 0.263041
0.291313 0.291313 0.291313
0.319984 0.319984 0.319984
0.190849 0.190849 0.190849
0.217799 0.217799 0.217799
0.245296 0.245296 0.245296
0.273284 0.273284 0.273284
0.301708 0.301708 0.301708
0.330511 0.330511 0.330511
0.359636 0.359636 0.359636
0.389027 0.389027 0.389027
0.418628 0.418628 0.418628
0.283585 0.283585 0.283585
0.312153 0.312153 0.312153
0.341080 0.341080 0.341080
0.370308 0.370308 0.370308
0.399782 0.399782 0.399782
0.429446 0.429446 0.429446
0.459243 0.459243 0.459243
0.489116 0.489116 0.489116
0.519010 0.519010 0.519010
0.381013 0.381013 0.381013
0.410563 0.410563 0.410563
0.440281 0.440281 0.440281
0.470113 0.470113 0.470113
0.500000 0.500000 0.500000
0.529887 0.529887 0.529887
0.559719 0.559719 0.559719
0.589437 0.589437 0.589437
0.618987 0.618987 0.618987
0.480990 0.480990 0.480990
0.510884 0.510884 0.510884
0.540757 0.540757 0.540757
0.570554 0.570554 0.570554
0.600218 0.600218 0.600218
0.629692 0.629692 0.629692
0.658920 0.658920 0.658920
0.687847 0.687847 0.687847
0.716415 0.716415 0.716415
0.581372 0.581372 0.581372
0.610973 0.610973 0.610973
0.640364 0.640364 0.640364
0.669489 0.669489 0.669489
0.698292 0.698292 0.698292
0.726716 0.726716 0.726716
0.754704 0.754704 0.754704
0.782201 0.782201 0.782201
0.809151 0.809151 0.809151
0.680016 0.680016 0.680016
0.708687 0.708687 0.708687
0.736959 0.736959 0.736959
0.764775 0.764775 0.764775
0.792079 0.792079 0.792079
0.818815 0.818815 0.818815
0.844927 0.844927 0.844927
0.870357 0.870357 0.870357
0.895051 0.895051 0.895051
0.774777 0.774777 0.774777
0.801881 0.801881 0.801881
0.828397 0.828397 0.828397
0.854267 0.854267 0.854267
0.879435 0.879435 0.879435
0.903847 0.903847 0.903847
0.927444 0.927444 0.927444
0.950171 0.950171 0.950171
0.971971 0.971971 0.971971
0.035325 0.035325 0.035325
0.057446 0.057446 0.057446
0.080475 0.080475 0.080475
0.104355 0.104355 0.104355
0.129030 0.129030 0.129030
0.154443 0.154443 0.154443
0.180539 0.180539 0.180539
0.207260 0.207260 0.207260
0.234551 0.234551 0.234551
0.113249 0.113249 0.113249
0.138199 0.138199 0.138199
0.163868 0.163868 0.163868
0.190197 0.190197 0.190197
0.217133 0.217133 0.217133
0.244617 0.244617 0.244617
0.272594 0.272594 0.272594
0.301008 0.301008 0.301008
0.329802 0.329802 0.329802
0.199936 0.199936 0.199936
0.227078 0.227078 0.227078
0.254749 0.254749 0.254749
0.282891 0.282891 0.282891
0.311450 0.311450 0.311450
0.340368 0.340368 0.340368
0.369590 0.369590 0.369590
0.399059 0.399059 0.399059
0.428718 0.428718 0.428718
0.293243 0.293243 0.293243
0.321939 0.321939 0.321939
0.350975 0.350975 0.350975
0.380293 0.380293 0.380293
0.409838 0.409838 0.409838
0.439553 0.439553 0.439553
0.469382 0.469382 0.469382
0.499269 0.499269 0.499269
0.529157 0.529157 0.529157
0.391026 0.391026 0.391026
0.420639 0.420639 0.420639
0.450402 0.450402 0.450402
0.480259 0.480259 0.480259
0.510153 0.510153 0.510153
0.540027 0.540027 0.540027
0.569827 0.569827 0.569827
0.599494 0.599494 0.599494
0.628974 0.628974 0.628974
0.491141 0.491141 0.491141
0.521034 0.521034 0.521034
0.550888 0.550888 0.550888
0.580646 0.580646 0.580646
0.610251 0.610251 0.610251
0.639648 0.639648 0.639648
0.668781 0.668781 0.668781
0.697592 0.697592 0.697592
0.726025 0.726025 0.726025
0.591445 0.591445 0.591445
0.620981 0.620981 0.620981
0.650288 0.650288 0.650288
0.679310 0.679310 0.679310
0.707990 0.707990 0.707990
0.736272 0.736272 0.736272
0.764100 0.764100 0.764100
0.791418 0.791418 0.791418
0.818168 0.818168 0.818168
0.689794 0.689794 0.689794
0.718336 0.718336 0.718336
0.746459 0.746459 0.746459
0.774108 0.774108 0.774108
0.801225 0.801225 0.801225
0.827755 0.827755 0.827755
0.853642 0.853642 0.853642
0.878829 0.878829 0.878829
0.903259 0.903259 0.903259
0.784045 0.784045 0.784045
0.810955 0.810955 0.810955
0.837257 0.837257 0.837257
0.862896 0.862896 0.862896
0.887813 0.887813 0.887813
0.911954 0.911954 0.911954
0.935262 0.935262 0.935262
0.957681 0.957681 0.957681
0.979154 0.979154 0.979154
0.042732 0.042732 0.042732
0.065168 0.065168 0.065168
0.088492 0.088492 0.088492
0.112648 0.112648 0.112648
0.137580 0.137580 0.137580
0.163232 0.163232 0.163232
0.189546 0.189546 0.189546
0.216467 0.216467 0.216467
0.243939 0.243939 0.243939
0.121638 0.121638 0.121638
0.146839 0.146839 0.146839
0.172738 0.172738 0.172738
0.199280 0.199280 0.199280
0.226408 0.226408 0.226408
0.254066 0.254066 0.254066
0.282198 0.282198 0.282198
0.310747 0.310747 0.310747
0.339657 0.339657 0.339657
0.209091 0.209091 0.209091
0.236419 0.236419 0.236419
0.264256 0.264256 0.264256
0.292546 0.292546 0.292546
0.321233 0.321233 0.321233
0.350261 0.350261 0.350261
0.379573 0.379573 0.379573
0.409113 0.409113 0.409113
0.438824 0.438824 0.438824
0.302947 0.302947 0.302947
0.331765 0.331765 0.331765
0.360902 0.360902 0.360902
0.390304 0.390304 0.390304
0.419913 0.419913 0.419913
0.449673 0.449673 0.449673
0.479528 0.479528 0.479528
0.509422 0.509422 0.509422
0.539297 0.539297 0.539297
0.401062 0.401062 0.401062
0.430733 0.430733 0.430733
0.460534 0.460534 0.460534
0.490410 0.490410 0.490410
0.520303 0.520303 0.520303
0.550159 0.550159 0.550159
0.579920 0.579920 0.579920
0.609530 0.609530 0.609530
0.638932 0.638932 0.638932
0.501294 0.501294 0.501294
0.531180 0.531180 0.531180
0.561007 0.561007 0.561007
0.590720 0.590720 0.590720
0.620261 0.620261 0.620261
0.649574 0.649574 0.649574
0.678604 0.678604 0.678604
0.707293 0.707293 0.707293
0.735586 0.735586 0.735586
0.601498 0.601498 0.601498
0.630962 0.630962 0.630962
0.660179 0.660179 0.660179
0.689091 0.689091 0.689091
0.717642 0.717642 0.717642
0.745777 0.745777 0.745777
0.773438 0.773438 0.773438
0.800569 0.800569 0.800569
0.827114 0.827114 0.827114
0.699530 0.699530 0.699530
0.727936 0.727936 0.727936
0.755905 0.755905 0.755905
0.783379 0.783379 0.783379
0.810304 0.810304 0.810304
0.836622 0.836622 0.836622
0.862277 0.862277 0.862277
0.887213 0.887213 0.887213
0.911374 0.911374 0.911374
0.793248 0.793248 0.793248
0.819958 0.819958 0.819958
0.846041 0.846041 0.846041
0.871441 0.871441 0.871441
0.896102 0.896102 0.896102
0.919966 0.919966 0.919966
0.942978 0.942978 0.942978
0.965082 0.965082 0.965082
0.986221 0.986221 0.986221
0.050248 0.050248 0.050248
0.072992 0.072992 0.072992
0.096605 0.096605 0.096605
0.121031 0.121031 0.121031
0.146214 0.146214 0.146214
0.172097 0.172097 0.172097
0.198623 0.198623 0.198623
0.225738 0.225738 0.225738
0.253384 0.253384 0.253384
0.130115 0.130115 0.130115
0.155559 0.155559 0.155559
0.181682 0.181682 0.181682
0.208430 0.208430 0.208430
0.235744 0.235744 0.235744
0.263569 0.263569 0.263569
0.291849 0.291849 0.291849
0.320527 0.320527 0.320527
0.349547 0.349547 0.349547
0.218311 0.218311 0.218311
0.245818 0.245818 0.245818
0.273815 0.273815 0.273815
0.302247 0.302247 0.302247
0.331056 0.331056 0.331056
0.360186 0.360186 0.360186
0.389582 0.389582 0.389582
0.419187 0.419187 0.419187
0.448944 0.448944 0.448944
0.312694 0.312694 0.312694
0.341627 0.341627 0.341627
0.370861 0.370861 0.370861
0.400339 0.400339 0.400339
0.430005 0.430005 0.430005
0.459804 0.459804 0.459804
0.489679 0.489679 0.489679
0.519572 0.519572 0.519572
0.549429 0.549429 0.549429
0.411121 0.411121 0.411121
0.440842 0.440842 0.440842
0.470674 0.470674 0.470674
0.500562 0.500562 0.500562
0.530449 0.530449 0.530449
0.560279 0.560279 0.560279
0.589995 0.589995 0.589995
0.619541 0.619541 0.619541
0.648861 0.648861 0.648861
0.511446 0.511446 0.511446
0.541319 0.541319 0.541319
0.571114 0.571114 0.571114
0.600774 0.600774 0.600774
0.630244 0.630244 0.630244
0.659468 0.659468 0.659468
0.688388 0.688388 0.688388
0.716949 0.716949 0.716949
0.745094 0.745094 0.745094
0.611528 0.611528 0.611528
0.640915 0.640915 0.640915
0.670034 0.670034 0.670034
0.698830 0.698830 0.698830
0.727246 0.727246 0.727246
0.755226 0.755226 0.755226
0.782714 0.782714 0.782714
0.809652 0.809652 0.809652
0.835986 0.835986 0.835986
0.709223 0.709223 0.709223
0.737486 0.737486 0.737486
0.765293 0.765293 0.765293
0.792587 0.792587 0.792587
0.819312 0.819312 0.819312
0.845411 0.845411 0.845411
0.870829 0.870829 0.870829
0.895508 0.895508 0.895508
0.919392 0.919392 0.919392
0.802386 0.802386 0.802386
0.828889 0.828889 0.828889
0.854747 0.854747 0.854747
0.879902 0.879902 0.879902
0.904298 0.904298 0.904298
0.927880 0.927880 0.927880
0.950590 0.950590 0.950590
0.972372 0.972372 0.972372
0.993171 0.993171 0.993171
0.057871 0.057871 0.057871
0.080917 0.080917 0.080917
0.104812 0.104812 0.104812
0.129501 0.129501 0.129501
0.154928 0.154928 0.154928
0.181036 0.181036 0.181036
0.207768 0.207768 0.207768
0.235070 0.235070 0.235070
0.262883 0.262883 0.262883
0.138676 0.138676 0.138676
0.164357 0.164357 0.164357
0.190699 0.190699 0.190699
0.217645 0.217645 0.217645
0.245139 0.245139 0.245139
0.273125 0.273125 0.273125
0.301547 0.301547 0.301547
0.330347 0.330347 0.330347
0.359470 0.359470 0.359470
0.227594 0.227594 0.227594
0.255274 0.255274 0.255274
0.283425 0.283425 0.283425
0.311991 0.311991 0.311991
0.340915 0.340915 0.340915
0.370142 0.370142 0.370142
0.399615 0.399615 0.399615
0.429278 0.429278 0.429278
0.459074 0.459074 0.459074
0.322483 0.322483 0.322483
0.351524 0.351524 0.351524
0.380847 0.380847 0.380847
0.410395 0.410395 0.410395
0.440113 0.440113 0.440113
0.469944 0.469944 0.469944
0.499831 0.499831 0.499831
0.529719 0.529719 0.529719
0.559551 0.559551 0.559551
0.421198 0.421198 0.421198
0.450963 0.450963 0.450963
0.480821 0.480821 0.480821
0.510715 0.510715 0.510715
0.540589 0.540589 0.540589
0.570386 0.570386 0.570386
0.600051 0.600051 0.600051
0.629526 0.629526 0.629526
0.658756 0.658756 0.658756
0.521596 0.521596 0.521596
0.551449 0.551449 0.551449
0.581204 0.581204 0.581204
0.610807 0.610807 0.610807
0.640199 0.640199 0.640199
0.669326 0.669326 0.669326
0.698130 0.698130 0.698130
0.726556 0.726556 0.726556
0.754548 0.754548 0.754548
0.621535 0.621535 0.621535
0.650837 0.650837 0.650837
0.679853 0.679853 0.679853
0.708526 0.708526 0.708526
0.736800 0.736800 0.736800
0.764619 0.764619 0.764619
0.791926 0.791926 0.791926
0.818666 0.818666 0.818666
0.844781 0.844781 0.844781
0.718869 0.718869 0.718869
0.746984 0.746984 0.746984
0.774623 0.774623 0.774623
0.801730 0.801730 0.801730
0.828249 0.828249 0.828249
0.854123 0.854123 0.854123
0.879295 0.879295 0.879295
0.903711 0.903711 0.903711
0.927313 0.927313 0.927313
0.811456 0.811456 0.811456
0.837746 0.837746 0.837746
0.863371 0.863371 0.863371
0.888275 0.888275 0.888275
0.912401 0.912401 0.912401
0.935693 0.935693 0.935693
0.958094 0.958094 0.958094
0.979548 0.979548 0.979548
1.000000 1.000000 1.000000
