library/luts/mono_classic.cube
# CrabbyCut preset LUT — sinh bởi scripts/generate_preset_luts.js
TITLE "Đen trắng"
LUT_3D_SIZE 5
0.000000 0.000000 0.000000
0.041906 0.041906 0.041906
0.087599 0.087599 0.087599
0.136629 0.136629 0.136629
0.188544 0.188544 0.188544
0.155219 0.155219 0.155219
0.208074 0.208074 0.208074
0.263200 0.263200 0.263200
0.320147 0.320147 0.320147
0.378465 0.378465 0.378465
0.341244 0.341244 0.341244
0.399949 0.399949 0.399949
0.459411 0.459411 0.459411
0.519179 0.519179 0.519179
0.578802 0.578802 0.578802
0.540926 0.540926 0.540926
0.600385 0.600385 0.600385
0.659085 0.659085 0.659085
0.716575 0.716575 0.716575
0.772406 0.772406 0.772406
0.737117 0.737117 0.737117
0.792232 0.792232 0.792232
0.845072 0.845072 0.845072
0.895188 0.895188 0.895188
0.942129 0.942129 0.942129
0.013779 0.013779 0.013779
0.057022 0.057022 0.057022
0.103898 0.103898 0.103898
0.153959 0.153959 0.153959
0.206752 0.206752 0.206752
0.172886 0.172886 0.172886
0.226563 0.226563 0.226563
0.282358 0.282358 0.282358
0.339821 0.339821 0.339821
0.398502 0.398502 0.398502
0.361068 0.361068 0.361068
0.420080 0.420080 0.420080
0.479697 0.479697 0.479697
0.539466 0.539466 0.539466
0.598938 0.598938 0.598938
0.561176 0.561176 0.561176
0.620427 0.620427 0.620427
0.678767 0.678767 0.678767
0.735744 0.735744 0.735744
0.790909 0.790909 0.790909
0.756061 0.756061 0.756061
0.810454 0.810454 0.810454
0.862420 0.862420 0.862420
0.911508 0.911508 0.911508
0.957268 0.957268 0.957268
0.028029 0.028029 0.028029
0.072556 0.072556 0.072556
0.120565 0.120565 0.120565
0.171603 0.171603 0.171603
0.225223 0.225223 0.225223
0.190849 0.190849 0.190849
0.245296 0.245296 0.245296
0.301708 0.301708 0.301708
0.359636 0.359636 0.359636
0.418628 0.418628 0.418628
0.381013 0.381013 0.381013
0.440281 0.440281 0.440281
0.500000 0.500000 0.500000
0.559719 0.559719 0.559719
0.618987 0.618987 0.618987
0.581372 0.581372 0.581372
0.640364 0.640364 0.640364
0.698292 0.698292 0.698292
0.754704 0.754704 0.754704
0.809151 0.809151 0.809151
0.774777 0.774777 0.774777
0.828397 0.828397 0.828397
0.879435 0.879435 0.879435
0.927444 0.927444 0.927444
0.971971 0.971971 0.971971
0.042732 0.042732 0.042732
0.088492 0.088492 0.088492
0.137580 0.137580 0.137580
0.189546 0.189546 0.189546
0.243939 0.243939 0.243939
0.209091 0.209091 0.209091
0.264256 0.264256 0.264256
0.321233 0.321233 0.321233
0.379573 0.379573 0.379573
0.438824 0.438824 0.438824
0.401062 0.401062 0.401062
0.460534 0.460534 0.460534
0.520303 0.520303 0.520303
0.579920 0.579920 0.579920
0.638932 0.638932 0.638932
0.601498 0.601498 0.601498
0.660179 0.660179 0.660179
0.717642 0.717642 0.717642
0.773438 0.773438 0.773438
0.827114 0.827114 0.827114
0.793248 0.793248 0.793248
0.846041 0.846041 0.846041
0.896102 0.896102 0.896102
0.942978 0.942978 0.942978
0.986221 0.986221 0.986221
0.057871 0.057871 0.057871
0.104812 0.104812 0.104812
0.154928 0.154928 0.154928
0.207768 0.207768 0.207768
0.262883 0.262883 0.262883
0.227594 0.227594 0.227594
0.283425 0.283425 0.283425
0.340915 0.340915 0.340915
0.399615 0.399615 0.399615
0.459074 0.459074 0.459074
0.421198 0.421198 0.421198
0.480821 0.480821 0.480821
0.540589 0.540589 0.540589
0.600051 0.600051 0.600051
0.658756 0.658756 0.658756
0.621535 0.621535 0.621535
0.679853 0.679853 0.679853
0.736800 0.736800 0.736800
0.791926 0.791926 0.791926
0.844781 0.844781 0.844781
0.811456 0.811456 0.811456
0.863371 0.863371 0.863371
0.912401 0.912401 0.912401
0.958094 0.958094 0.958094
1.000000 1.000000 1.000000
