library/luts/overcast.cube
# CrabbyCut preset LUT — sinh bởi scripts/generate_preset_luts.js
TITLE "Trời râm"
LUT_3D_SIZE 17
0.110459 0.187457 0.200105
0.161055 0.194234 0.206448
0.216770 0.197979 0.209834
0.271437 0.200764 0.212284
0.325461 0.202960 0.214160
0.379026 0.204737 0.215626
0.432235 0.206188 0.216775
0.485156 0.207375 0.217666
0.537835 0.208341 0.218342
0.590306 0.209116 0.218832
0.642596 0.209725 0.219160
0.694724 0.210187 0.219344
0.746707 0.210516 0.219398
0.798559 0.210725 0.219336
0.843341 0.210550 0.218933
0.842909 0.208497 0.216922
0.842459 0.206354 0.214822
0.125584 0.252245 0.213023
0.174703 0.254275 0.214735
0.229062 0.255771 0.214840
0.284802 0.256507 0.214190
0.341982 0.256533 0.212837
0.397846 0.256565 0.212364
0.452983 0.256540 0.212054
0.507946 0.256355 0.211589
0.562755 0.256028 0.210986
0.617424 0.255573 0.210258
0.671966 0.255003 0.209417
0.726392 0.254326 0.208472
0.780711 0.253551 0.207432
0.834930 0.252686 0.206304
0.888783 0.251729 0.205087
0.888402 0.249368 0.202773
0.888009 0.246934 0.200388
0.133356 0.308326 0.217447
0.182924 0.309348 0.218178
0.235448 0.310173 0.218716
0.289808 0.310677 0.214596
0.347419 0.310106 0.209404
0.408301 0.308475 0.203157
0.466745 0.307025 0.200565
0.523979 0.305676 0.198947
0.581100 0.304224 0.197228
0.638117 0.302677 0.195417
0.695038 0.301042 0.193519
0.751868 0.299324 0.191541
0.808614 0.297529 0.189488
0.865281 0.295661 0.187363
0.921873 0.293726 0.185173
0.929535 0.291191 0.182647
0.929229 0.288509 0.180018
0.138785 0.361649 0.219182
0.188605 0.362097 0.219354
0.240575 0.362415 0.219397
0.292416 0.362613 0.219324
0.347043 0.362715 0.210473
0.406120 0.361485 0.200294
0.469654 0.358932 0.188794
0.529857 0.356530 0.184393
0.588479 0.354291 0.181895
0.647019 0.351977 0.179323
0.705482 0.349592 0.176682
0.763871 0.347140 0.173975
0.822191 0.344624 0.171207
0.880445 0.342048 0.168380
0.938636 0.339415 0.165497
0.955851 0.336623 0.162670
0.955612 0.333734 0.159837
0.142742 0.413283 0.219271
0.192634 0.413335 0.219056
0.244208 0.413290 0.218746
0.295684 0.413155 0.218348
0.347069 0.412936 0.217868
0.401482 0.412859 0.205954
0.460373 0.411478 0.192737
0.523747 0.408796 0.178222
0.583645 0.406118 0.172975
0.641941 0.403581 0.170185
0.700172 0.400984 0.167337
0.758342 0.398331 0.164434
0.816452 0.395624 0.161480
0.874507 0.392866 0.158475
0.932509 0.390059 0.155422
0.959580 0.387126 0.152406
0.959328 0.384078 0.149417
0.145611 0.463710 0.218182
0.195448 0.463462 0.217674
0.246717 0.463137 0.217090
0.297907 0.462740 0.216437
0.349022 0.462275 0.215717
0.400067 0.461745 0.214934
0.454370 0.461584 0.200049
0.513167 0.460135 0.183877
0.576462 0.457399 0.166419
0.636129 0.454513 0.160391
0.694164 0.451737 0.157369
0.752147 0.448913 0.154300
0.810079 0.446042 0.151185
0.867962 0.443127 0.148027
0.925798 0.440169 0.144827
0.963267 0.437117 0.141640
0.963003 0.433929 0.138515
0.147608 0.513203 0.216182
0.197308 0.512714 0.215439
0.248328 0.512162 0.214635
0.299283 0.511550 0.213772
0.350176 0.510881 0.212853
0.401009 0.510158 0.211881
0.451786 0.509383 0.210859
0.506042 0.509197 0.193060
0.564803 0.507733 0.173984
0.628074 0.504992 0.153632
0.687558 0.501942 0.146866
0.745377 0.498969 0.143652
0.803152 0.495955 0.140397
0.860884 0.492901 0.137104
0.918575 0.489810 0.133774
0.966917 0.486658 0.130433
0.966642 0.483346 0.127186
0.148868 0.561938 0.213443
0.198384 0.561249 0.212505
0.249196 0.560507 0.211515
0.299953 0.559714 0.210475
0.350656 0.558871 0.209387
0.401308 0.557982 0.208254
0.451911 0.557048 0.207076
0.502466 0.556071 0.205857
0.556718 0.555899 0.185183
0.615485 0.554457 0.163238
0.678767 0.551744 0.140025
0.738103 0.548563 0.132553
0.795739 0.545422 0.129175
0.853337 0.542245 0.125762
0.910897 0.539035 0.122316
0.968422 0.535792 0.118838
0.970249 0.532374 0.115476
0.149485 0.610038 0.210084
0.198797 0.609178 0.208980
0.249430 0.608272 0.207830
0.300016 0.607322 0.206637
0.350555 0.606329 0.205403
0.401048 0.605296 0.204128
0.451499 0.604222 0.202815
0.501907 0.603110 0.201464
0.552275 0.601961 0.200077
0.606555 0.601833 0.176556
0.665355 0.600439 0.151769
0.728677 0.597780 0.125720
0.787890 0.594490 0.117564
0.845368 0.591204 0.114043
0.902811 0.587886 0.110493
0.960221 0.584538 0.106913
0.973827 0.581049 0.103420
0.149525 0.657591 0.206193
0.198637 0.656583 0.204943
0.249115 0.655534 0.203654
0.299550 0.654446 0.202327
0.349943 0.653321 0.200963
0.400297 0.652159 0.199564
0.450612 0.650961 0.198129
0.500889 0.649729 0.196661
0.551130 0.648464 0.195161
0.601336 0.647166 0.193629
0.655667 0.647103 0.167282
0.714523 0.645778 0.139674
0.777906 0.643193 0.110806
0.837017 0.639813 0.101984
0.894353 0.636397 0.098338
0.951660 0.632954 0.094666
0.977379 0.629404 0.091050
0.149038 0.704666 0.201835
0.197974 0.703527 0.200458
0.248313 0.702352 0.199045
0.298614 0.701141 0.197599
0.348878 0.699897 0.196119
0.399106 0.698620 0.194607
0.449299 0.697311 0.193064
0.499458 0.695971 0.191491
0.549585 0.694600 0.189888
0.599679 0.693201 0.188257
0.649741 0.691772 0.186597
0.704143 0.691791 0.157440
0.763073 0.690551 0.127025
0.826532 0.688054 0.095354
0.885556 0.684598 0.085881
0.942767 0.681068 0.082123
0.980905 0.677464 0.078392
0.148065 0.751317 0.197064
0.196863 0.750061 0.195572
0.247078 0.748772 0.194049
0.297259 0.747452 0.192495
0.347406 0.746100 0.190911
0.397520 0.744719 0.189297
0.447602 0.743309 0.187656
0.497654 0.741870 0.185986
0.547675 0.740404 0.184290
0.597667 0.738911 0.182568
0.647631 0.737392 0.180820
0.697566 0.735847 0.179047
0.752052 0.735960 0.147093
0.811070 0.734819 0.113885
0.874619 0.732422 0.079422
0.933570 0.728902 0.069308
0.984410 0.725252 0.065466
0.146636 0.797588 0.191921
0.195348 0.796226 0.190327
0.245451 0.794834 0.188703
0.295522 0.793413 0.187051
0.345563 0.791965 0.185372
0.395573 0.790489 0.183666
0.445555 0.788986 0.181934
0.495508 0.787457 0.180177
0.545433 0.785903 0.178395
0.595331 0.784324 0.176589
0.645203 0.782721 0.174759
0.695049 0.781094 0.172906
0.744869 0.779444 0.171031
0.799452 0.779664 0.136291
0.858569 0.778631 0.100299
0.922244 0.776350 0.065847
0.981158 0.772776 0.058941
0.144778 0.843514 0.186443
0.193467 0.842056 0.184754
0.243467 0.840570 0.183039
0.293438 0.839057 0.181298
0.343381 0.837519 0.179531
0.393297 0.835956 0.177740
0.443185 0.834368 0.175926
0.493047 0.832757 0.174087
0.542884 0.831121 0.172226
0.592695 0.829463 0.170343
0.642482 0.827782 0.168437
0.692253 0.826084 0.166855
0.742063 0.824406 0.168161
0.791852 0.822706 0.169464
0.846572 0.823046 0.135770
0.905802 0.822109 0.101189
0.969143 0.819893 0.065724
0.142509 0.882516 0.180657
0.191251 0.881252 0.178882
0.241157 0.879963 0.177082
0.291035 0.878650 0.175259
0.340888 0.877313 0.173412
0.390716 0.875953 0.171543
0.440518 0.874570 0.169651
0.490296 0.873163 0.167738
0.540084 0.871752 0.167331
0.589886 0.870339 0.168636
0.639666 0.868904 0.169938
0.689424 0.867448 0.171238
0.739161 0.865970 0.172535
0.788876 0.864472 0.173830
0.838449 0.862952 0.175122
0.892621 0.863277 0.139494
0.950902 0.862524 0.102987
0.139850 0.919961 0.174589
0.188726 0.918695 0.172734
0.238544 0.917406 0.170857
0.288338 0.916093 0.168957
0.338107 0.914757 0.167036
0.387912 0.913432 0.167806
0.437706 0.912092 0.169110
0.487478 0.910730 0.170412
0.537228 0.909347 0.171711
0.586957 0.907942 0.173007
0.636664 0.906516 0.174301
0.686351 0.905069 0.175592
0.736017 0.903601 0.176880
0.785664 0.902113 0.178167
0.835077 0.900605 0.179451
0.883629 0.899076 0.180732
0.936982 0.899534 0.143187
0.136285 0.955204 0.167953
0.185929 0.956414 0.166975
0.235737 0.955169 0.168281
0.285523 0.953901 0.169584
0.335287 0.952612 0.170885
0.385029 0.951301 0.172183
0.434750 0.949969 0.173478
0.484450 0.948615 0.174771
0.534129 0.947241 0.176061
0.583788 0.945846 0.177349
0.633428 0.944430 0.178635
0.683047 0.942994 0.179918
0.732648 0.941538 0.181198
0.782230 0.940062 0.182477
0.831604 0.938566 0.183753
0.879596 0.937050 0.185027
0.927266 0.935515 0.186299
0.113497 0.190659 0.253763
0.162948 0.195656 0.258370
0.218233 0.199006 0.261371
0.272652 0.201565 0.263600
0.326505 0.203605 0.265323
0.379940 0.205262 0.266673
0.433045 0.206618 0.267729
0.485879 0.207726 0.268543
0.538484 0.208624 0.269153
0.590891 0.209341 0.269585
0.643123 0.209898 0.269862
0.695200 0.210313 0.270001
0.747138 0.210600 0.270014
0.798948 0.210770 0.269915
0.844325 0.210585 0.269499
0.843887 0.208501 0.267457
0.843430 0.206329 0.265329
0.126527 0.252984 0.264277
0.175696 0.254873 0.265853
0.229002 0.256412 0.267089
0.282003 0.257673 0.268051
0.334750 0.258700 0.268787
0.387279 0.259530 0.269330
0.439620 0.260186 0.269703
0.491794 0.260689 0.269928
0.543819 0.261056 0.270020
0.595708 0.261300 0.269991
0.647475 0.261430 0.269852
0.699128 0.261458 0.269613
0.750678 0.261390 0.269280
0.802131 0.261234 0.268861
0.853493 0.260995 0.268362
0.853459 0.258656 0.266068
0.852948 0.256230 0.263691
0.133989 0.308697 0.268344
0.183592 0.309649 0.269006
0.236050 0.310412 0.269484
0.289260 0.310859 0.268564
0.344020 0.310697 0.267039
0.400346 0.309942 0.264924
0.455453 0.309282 0.263776
0.509912 0.308635 0.262861
0.564262 0.307889 0.261848
0.618511 0.307050 0.260745
0.672665 0.306124 0.259558
0.726731 0.305118 0.258292
0.780715 0.304036 0.256953
0.834620 0.302884 0.255544
0.888453 0.301664 0.254070
0.896461 0.299261 0.251671
0.896030 0.296592 0.249056
0.139243 0.361817 0.269881
0.189077 0.362219 0.270007
0.241002 0.362495 0.270010
0.292801 0.362655 0.269900
0.346507 0.362562 0.265197
0.403526 0.361448 0.259476
0.463864 0.359321 0.252745
0.521809 0.357413 0.249707
0.578580 0.355640 0.247675
0.635269 0.353794 0.245572
0.691883 0.351878 0.243400
0.748425 0.349896 0.241165
0.804899 0.347852 0.238869
0.861308 0.345749 0.236515
0.917656 0.343590 0.234106
0.935204 0.340953 0.231429
0.934876 0.338071 0.228604
0.143076 0.413312 0.269834
0.192968 0.413331 0.269586
0.244508 0.413254 0.269245
0.295952 0.413090 0.268818
0.347307 0.412844 0.268312
0.401483 0.412532 0.259059
0.460139 0.410918 0.248504
0.523279 0.408004 0.236652
0.583112 0.405263 0.231921
0.641385 0.402705 0.229111
0.699595 0.400089 0.226245
0.757745 0.397417 0.223324
0.815836 0.394693 0.220352
0.873873 0.391918 0.217331
0.931856 0.389095 0.214263
0.959954 0.386149 0.211228
0.959701 0.383086 0.208225
0.145850 0.463635 0.268643
0.195676 0.463360 0.268109
0.246917 0.463010 0.267501
0.298081 0.462589 0.266825
0.349172 0.462102 0.266083
0.400194 0.461551 0.265280
0.454266 0.461162 0.253061
0.512834 0.459484 0.239555
0.575900 0.456521 0.224766
0.635506 0.453576 0.219258
0.693523 0.450783 0.216219
0.751488 0.447943 0.213134
0.809403 0.445057 0.210005
0.867270 0.442127 0.206832
0.925091 0.439155 0.203618
0.963637 0.436092 0.200416
0.963372 0.432891 0.197277
0.147767 0.513044 0.266562
0.197450 0.512534 0.265798
0.248448 0.511961 0.264973
0.299381 0.511329 0.264091
0.350253 0.510642 0.263154
0.401067 0.509901 0.262165
0.451825 0.509109 0.261126
0.505854 0.508697 0.245996
0.564389 0.507008 0.229590
0.627434 0.504043 0.211909
0.686860 0.500937 0.205667
0.744665 0.497950 0.202438
0.802425 0.494922 0.199171
0.860143 0.491856 0.195865
0.917820 0.488752 0.192523
0.967283 0.485591 0.189167
0.967008 0.482267 0.185908
0.148959 0.561710 0.263756
0.198454 0.561003 0.262800
0.249247 0.560243 0.261792
0.299985 0.559433 0.260736
0.350671 0.558575 0.259632
0.401306 0.557670 0.258484
0.451892 0.556721 0.257292
0.502432 0.555729 0.256058
0.556460 0.555335 0.238056
0.615003 0.553670 0.218784
0.678062 0.550736 0.198244
0.737343 0.547500 0.191297
0.794966 0.544347 0.187907
0.852551 0.541159 0.184483
0.910099 0.537937 0.181026
0.967612 0.534683 0.177537
0.970612 0.531257 0.174161
0.149514 0.609751 0.260339
0.198805 0.608876 0.259219
0.249422 0.607955 0.258055
0.299992 0.606990 0.256848
0.350515 0.605983 0.255599
0.400994 0.604935 0.254311
0.451430 0.603849 0.252985
0.501824 0.602724 0.251622
0.552179 0.601563 0.250223
0.606237 0.601213 0.229375
0.664815 0.599599 0.207264
0.727916 0.596720 0.183888
0.787076 0.593378 0.176259
0.844541 0.590080 0.172728
0.901973 0.586752 0.169168
0.959373 0.583395 0.165578
0.974187 0.579899 0.162073
0.149499 0.657253 0.256398
0.198592 0.656231 0.255135
0.249055 0.655169 0.253833
0.299476 0.654068 0.252493
0.349855 0.652930 0.251117
0.400196 0.651756 0.249705
0.450498 0.650546 0.248259
0.500763 0.649303 0.246781
0.550991 0.648027 0.245269
0.601185 0.646718 0.243727
0.655296 0.646435 0.220055
0.713933 0.644892 0.195122
0.777095 0.642088 0.168930
0.836154 0.638656 0.160636
0.893480 0.635231 0.156981
0.950777 0.631779 0.153300
0.977736 0.628223 0.149673
0.148962 0.704283 0.251996
0.197881 0.703132 0.250607
0.248208 0.701945 0.249183
0.298496 0.700723 0.247725
0.348748 0.699467 0.246234
0.398964 0.698179 0.244712
0.449145 0.696859 0.243158
0.499293 0.695509 0.241575
0.549408 0.694128 0.239962
0.599491 0.692719 0.238321
0.649543 0.691281 0.236653
0.703726 0.691081 0.210172
0.762437 0.689623 0.182434
0.825677 0.686908 0.153440
0.884650 0.683402 0.144495
0.941852 0.679863 0.140729
0.981260 0.676255 0.136986
0.147941 0.750894 0.247186
0.196728 0.749627 0.245683
0.246931 0.748327 0.244150
0.297100 0.746996 0.242585
0.347236 0.745635 0.240991
0.397339 0.744244 0.239368
0.447411 0.742824 0.237717
0.497452 0.741376 0.236038
0.547464 0.739900 0.234333
0.597446 0.738398 0.232602
0.647400 0.736870 0.230845
0.697326 0.735316 0.229064
0.751593 0.735213 0.199788
0.810393 0.733854 0.169257
0.873725 0.731240 0.137472
0.932625 0.727671 0.127888
0.984762 0.724017 0.124035
0.146468 0.797129 0.242008
0.195175 0.795757 0.240403
0.245266 0.794355 0.238770
0.295327 0.792925 0.237109
0.345357 0.791467 0.235421
0.395358 0.789981 0.233706
0.445330 0.788470 0.231965
0.495273 0.786932 0.230200
0.545189 0.785370 0.228409
0.595079 0.783783 0.226595
0.644941 0.782171 0.224758
0.694779 0.780536 0.222897
0.744591 0.778879 0.221014
0.798956 0.778882 0.188953
0.857856 0.777632 0.155639
0.921290 0.775130 0.121073
0.980127 0.771507 0.110859
0.144567 0.843022 0.236497
0.193258 0.841554 0.234799
0.243249 0.840059 0.233075
0.293210 0.838538 0.231325
0.343143 0.836991 0.229551
0.393050 0.835420 0.227752
0.442929 0.833824 0.225929
0.492783 0.832204 0.224083
0.542610 0.830561 0.222214
0.592413 0.828895 0.220323
0.642192 0.827206 0.218410
0.691947 0.825496 0.216476
0.741678 0.823764 0.214521
0.791387 0.822012 0.212545
0.845859 0.822131 0.177708
0.904856 0.820999 0.141620
0.967937 0.818617 0.104282
0.142258 0.882089 0.230682
0.191010 0.880817 0.228899
0.240906 0.879520 0.227091
0.290776 0.878199 0.225259
0.340620 0.876854 0.223405
0.390439 0.875486 0.221528
0.440233 0.874095 0.219629
0.490003 0.872681 0.217708
0.539749 0.871244 0.215766
0.589472 0.869785 0.213804
0.639172 0.868305 0.211821
0.688850 0.866803 0.209818
0.738506 0.865279 0.207796
0.788140 0.863734 0.205754
0.837632 0.862168 0.203694
0.891605 0.862355 0.166088
0.949724 0.861488 0.127233
0.139560 0.919534 0.224587
0.188455 0.918260 0.222724
0.238264 0.916962 0.220839
0.288050 0.915642 0.218932
0.337811 0.914298 0.217004
0.387548 0.912932 0.215054
0.437263 0.911544 0.213084
0.486955 0.910134 0.211094
0.536625 0.908702 0.209084
0.586273 0.907248 0.207055
0.635900 0.905773 0.205006
0.685505 0.904277 0.202939
0.735091 0.902761 0.200854
0.784656 0.901223 0.198750
0.834006 0.899666 0.196629
0.882484 0.898088 0.194491
0.935727 0.898456 0.154122
0.136182 0.955820 0.218055
0.185615 0.955970 0.216296
0.235345 0.954675 0.214339
0.285051 0.953357 0.212362
0.334735 0.952017 0.210365
0.384397 0.950655 0.208347
0.434037 0.949271 0.206311
0.483656 0.947866 0.204256
0.533254 0.946440 0.202182
0.582832 0.944994 0.200090
0.632390 0.943526 0.197980
0.681928 0.942038 0.195853
0.731447 0.940530 0.193708
0.780947 0.939001 0.191546
0.830277 0.937453 0.189368
0.878212 0.935885 0.187173
0.925856 0.934313 0.186117
0.115520 0.192676 0.306265
0.164659 0.196912 0.310129
0.219598 0.199946 0.312822
0.273803 0.202307 0.314859
0.327501 0.204206 0.316444
0.380816 0.205753 0.317687
0.433823 0.207020 0.318656
0.486575 0.208053 0.319397
0.539110 0.208886 0.319943
0.591455 0.209547 0.320321
0.643633 0.210054 0.320549
0.695661 0.210424 0.320644
0.747554 0.210670 0.320618
0.799323 0.210804 0.320482
0.845306 0.210610 0.320054
0.844862 0.208495 0.317982
0.844399 0.206295 0.315827
0.127425 0.253670 0.315481
0.176645 0.255431 0.316932
0.229840 0.256869 0.318068
0.282750 0.258046 0.318950
0.335419 0.259003 0.319617
0.387882 0.259771 0.320099
0.440164 0.260373 0.320421
0.492285 0.260829 0.320598
0.544262 0.261152 0.320648
0.596109 0.261356 0.320580
0.647836 0.261451 0.320407
0.699454 0.261445 0.320135
0.750969 0.261347 0.319772
0.802391 0.261162 0.319325
0.853724 0.260896 0.318800
0.854415 0.258562 0.316507
0.853900 0.256112 0.314107
0.134600 0.309043 0.319216
0.184236 0.309928 0.319812
0.236630 0.310633 0.320234
0.288851 0.311180 0.320501
0.340918 0.311586 0.320631
0.392847 0.311865 0.320636
0.444649 0.312028 0.320529
0.496335 0.312085 0.320318
0.547914 0.312045 0.320013
0.599395 0.311914 0.319619
0.650784 0.311699 0.319143
0.702086 0.311405 0.318590
0.753308 0.311037 0.317965
0.804453 0.310600 0.317272
0.855527 0.310096 0.316515
0.863804 0.307847 0.314266
0.863246 0.305193 0.311665
0.139686 0.361968 0.320563
0.189533 0.362327 0.320646
0.241414 0.362562 0.320610
0.293173 0.362685 0.320464
0.345752 0.362554 0.318980
0.399937 0.361866 0.316942
0.455736 0.360628 0.314357
0.510356 0.359523 0.312774
0.564363 0.358463 0.311456
0.618292 0.357331 0.310067
0.672145 0.356131 0.308612
0.725929 0.354866 0.307094
0.779645 0.353540 0.305516
0.833298 0.352156 0.303882
0.886891 0.350716 0.302193
0.904388 0.348342 0.299774
0.903926 0.345478 0.296967
0.143400 0.413329 0.320385
0.193290 0.413315 0.320105
0.244797 0.413208 0.319734
0.296210 0.413015 0.319280
0.347535 0.412742 0.318748
0.400801 0.412246 0.313652
0.457409 0.410756 0.307564
0.517362 0.408276 0.300488
0.574944 0.406036 0.297127
0.631372 0.403950 0.294790
0.687737 0.401807 0.292397
0.744043 0.399610 0.289951
0.800293 0.397360 0.287454
0.856488 0.395061 0.284909
0.912631 0.392714 0.282318
0.940794 0.390016 0.279526
0.940446 0.386964 0.276534
0.146079 0.463550 0.319095
0.195894 0.463249 0.318535
0.247109 0.462875 0.317904
0.298248 0.462431 0.317205
0.349315 0.461922 0.316442
0.400314 0.461351 0.315619
0.454155 0.460732 0.306066
0.512494 0.458827 0.295228
0.575331 0.455637 0.283106
0.634877 0.452633 0.278119
0.692876 0.449824 0.275064
0.750824 0.446968 0.271964
0.808722 0.444067 0.268819
0.866573 0.441122 0.265633
0.924379 0.438136 0.262405
0.964007 0.435063 0.259186
0.963741 0.431849 0.256035
0.147918 0.512878 0.316934
0.197584 0.512346 0.316149
0.248559 0.511753 0.315305
0.299472 0.511102 0.314403
0.350324 0.510396 0.313449
0.401118 0.509637 0.312442
0.451858 0.508828 0.311387
0.505660 0.508192 0.298927
0.563970 0.506278 0.285192
0.626789 0.503089 0.270182
0.686158 0.499927 0.264462
0.743947 0.496926 0.261220
0.801693 0.493885 0.257940
0.859397 0.490806 0.254622
0.917060 0.487689 0.251267
0.967649 0.484519 0.247896
0.967373 0.481184 0.244626
0.149042 0.561476 0.314062
0.198517 0.560751 0.313088
0.249291 0.559974 0.312064
0.300012 0.559147 0.310991
0.350680 0.558273 0.309872
0.401298 0.557353 0.308709
0.451869 0.556389 0.307503
0.502393 0.555383 0.306255
0.556197 0.554766 0.290925
0.614516 0.552879 0.274326
0.677353 0.549723 0.256459
0.736578 0.546433 0.250037
0.794188 0.543268 0.246635
0.851760 0.540069 0.243200
0.909296 0.536836 0.239732
0.966797 0.533571 0.236233
0.970974 0.530137 0.232844
0.149537 0.609459 0.310589
0.198808 0.608568 0.309454
0.249409 0.607632 0.308275
0.299962 0.606652 0.307053
0.350470 0.605632 0.305791
0.400934 0.604571 0.304490
0.451356 0.603471 0.303151
0.501737 0.602334 0.301776
0.552078 0.601160 0.300365
0.605914 0.600590 0.282192
0.664271 0.598755 0.262754
0.727151 0.595657 0.242054
0.786257 0.592261 0.234951
0.843711 0.588954 0.231410
0.901132 0.585615 0.227839
0.958521 0.582248 0.224240
0.974546 0.578746 0.220722
0.149467 0.656911 0.306598
0.198542 0.655875 0.305322
0.248990 0.654800 0.304007
0.299397 0.653686 0.302655
0.349763 0.652535 0.301266
0.400090 0.651349 0.299843
0.450380 0.650128 0.298386
0.500632 0.648873 0.296896
0.550849 0.647586 0.295374
0.601031 0.646267 0.293821
0.654922 0.645765 0.272825
0.713338 0.644002 0.250568
0.776281 0.640979 0.227052
0.835287 0.637496 0.219286
0.892603 0.634062 0.215622
0.949890 0.630601 0.211931
0.978092 0.627039 0.208292
0.148880 0.703896 0.302153
0.197784 0.702733 0.300752
0.248097 0.701533 0.299316
0.298373 0.700300 0.297847
0.348613 0.699033 0.296346
0.398817 0.697734 0.294812
0.448987 0.696404 0.293249
0.499123 0.695043 0.291655
0.549227 0.693653 0.290033
0.599300 0.692234 0.288383
0.649342 0.690786 0.286705
0.703305 0.690368 0.262900
0.761797 0.688692 0.237839
0.824819 0.685760 0.211522
0.883741 0.682203 0.203106
0.940934 0.678656 0.199332
0.981615 0.675043 0.195578
0.147813 0.750468 0.297304
0.196588 0.749189 0.295791
0.246780 0.747879 0.294247
0.296938 0.746537 0.292672
0.347062 0.745165 0.291068
0.397155 0.743764 0.289435
0.447216 0.742335 0.287775
0.497247 0.740878 0.286087
0.547249 0.739393 0.284373
0.597221 0.737882 0.282633
0.647165 0.736345 0.280868
0.697082 0.734783 0.279079
0.751132 0.734462 0.252480
0.809714 0.732886 0.224626
0.872828 0.730056 0.195520
0.931678 0.726436 0.186465
0.985115 0.722778 0.182601
0.146295 0.796666 0.292091
0.194997 0.795284 0.290477
0.245078 0.793872 0.288834
0.295129 0.792433 0.287164
0.345149 0.790965 0.285466
0.395139 0.789471 0.283743
0.445102 0.787950 0.281994
0.495036 0.786404 0.280219
0.544942 0.784833 0.278421
0.594823 0.783238 0.276599
0.644677 0.781619 0.274753
0.694505 0.779976 0.272885
0.744309 0.778311 0.270994
0.798457 0.778097 0.241611
0.857140 0.776631 0.210976
0.920357 0.773913 0.179089
0.979145 0.770241 0.169404
0.144352 0.842526 0.286549
0.193046 0.841049 0.284842
0.243026 0.839545 0.283109
0.292978 0.838016 0.281351
0.342902 0.836460 0.279568
0.392799 0.834880 0.277760
0.442670 0.833276 0.275930
0.492515 0.831648 0.274076
0.542334 0.829997 0.272199
0.592129 0.828324 0.270301
0.641899 0.826628 0.268380
0.691646 0.824910 0.266439
0.741369 0.823172 0.264477
0.791070 0.821412 0.262495
0.845326 0.821315 0.230336
0.904019 0.819968 0.196927
0.966822 0.817370 0.162268
0.142003 0.881660 0.280704
0.190765 0.880379 0.278912
0.240653 0.879074 0.277097
0.290514 0.877745 0.275257
0.340349 0.876392 0.273395
0.390160 0.875016 0.271511
0.439945 0.873617 0.269604
0.489707 0.872195 0.267676
0.539445 0.870751 0.265727
0.589161 0.869285 0.263758
0.638853 0.867797 0.261768
0.688523 0.866287 0.259758
0.738172 0.864757 0.257730
0.787799 0.863204 0.255682
0.837271 0.861632 0.253615
0.890976 0.861636 0.218688
0.948824 0.860585 0.182512
0.139266 0.919104 0.274582
0.188181 0.917822 0.272712
0.237982 0.916516 0.270819
0.287759 0.915188 0.268905
0.337512 0.913837 0.266969
0.387242 0.912463 0.265013
0.436949 0.911068 0.263036
0.486633 0.909650 0.261039
0.536295 0.908210 0.259022
0.585936 0.906750 0.256986
0.635556 0.905268 0.254931
0.685155 0.903765 0.252858
0.734733 0.902241 0.250767
0.784291 0.900697 0.248657
0.833634 0.899132 0.246530
0.882057 0.897548 0.244386
0.935036 0.897732 0.206697
0.136075 0.956436 0.268155
0.185314 0.955533 0.266259
0.235035 0.954230 0.264295
0.284734 0.952904 0.262311
0.334410 0.951557 0.260307
0.384065 0.950187 0.258283
0.433698 0.948797 0.256240
0.483310 0.947385 0.254179
0.532901 0.945951 0.252099
0.582472 0.944498 0.250001
0.632023 0.943023 0.247885
0.681555 0.941528 0.245751
0.731067 0.940013 0.243601
0.780560 0.938478 0.241433
0.829896 0.936923 0.239249
0.877776 0.935348 0.237049
0.925345 0.933754 0.234833
0.117223 0.194318 0.358401
0.166229 0.198038 0.361762
0.220881 0.200810 0.364199
0.274896 0.202997 0.366066
0.328453 0.204767 0.367525
0.381656 0.206212 0.368669
0.434572 0.207395 0.369556
0.487247 0.208357 0.370228
0.539714 0.209129 0.370715
0.592000 0.209735 0.371039
0.644125 0.210194 0.371221
0.696106 0.210521 0.371273
0.747956 0.210728 0.371208
0.799686 0.210825 0.371037
0.846286 0.210624 0.370599
0.845834 0.208479 0.368498
0.845366 0.206251 0.366315
0.128284 0.254309 0.366639
