library/luts/overcast.cube
# CrabbyCut preset LUT — sinh bởi scripts/generate_preset_luts.js
TITLE "Trời râm"
LUT_3D_SIZE 5
0.110459 0.187457 0.200105
0.325461 0.202960 0.214160
0.537835 0.208341 0.218342
0.746707 0.210516 0.219398
0.842459 0.206354 0.214822
0.142742 0.413283 0.219271
0.347069 0.412936 0.217868
0.583645 0.406118 0.172975
0.816452 0.395624 0.161480
0.959328 0.384078 0.149417
0.149485 0.610038 0.210084
0.350555 0.606329 0.205403
0.552275 0.601961 0.200077
0.787890 0.594490 0.117564
0.973827 0.581049 0.103420
0.146636 0.797588 0.191921
0.345563 0.791965 0.185372
0.545433 0.785903 0.178395
0.744869 0.779444 0.171031
0.981158 0.772776 0.058941
0.136285 0.955204 0.167953
0.335287 0.952612 0.170885
0.534129 0.947241 0.176061
0.732648 0.941538 0.181198
0.927266 0.935515 0.186299
0.118732 0.195730 0.410312
0.329364 0.205290 0.418571
0.540298 0.209352 0.421467
0.748344 0.210772 0.421787
0.846331 0.206198 0.416795
0.144017 0.413330 0.421455
0.347964 0.412514 0.419594
0.552294 0.410533 0.416597
0.755604 0.407619 0.412690
0.883392 0.400986 0.405524
0.149567 0.608859 0.411073
0.350366 0.604915 0.406162
0.551864 0.600343 0.400637
0.784608 0.590018 0.352324
0.975264 0.576430 0.338012
0.145936 0.795730 0.392248
0.344721 0.789953 0.385548
0.544439 0.783752 0.378436
0.743737 0.777167 0.370948
0.977172 0.767701 0.286489
0.137359 0.956016 0.368199
0.333753 0.950629 0.360184
0.532187 0.944966 0.351926
0.730301 0.938972 0.343381
0.924363 0.932660 0.334568
0.123647 0.200045 0.616659
0.332658 0.207063 0.622437
0.542438 0.210070 0.624305
0.749766 0.210833 0.623984
0.850174 0.205902 0.618629
0.145132 0.413202 0.623469
0.348713 0.411958 0.621190
0.552673 0.409639 0.617864
0.755679 0.406446 0.613684
0.887033 0.399727 0.606416
0.149559 0.607596 0.611979
0.350098 0.603429 0.606850
0.551383 0.598661 0.601136
0.752090 0.593366 0.594906
0.922392 0.586422 0.587216
0.145168 0.793819 0.592522
0.343826 0.787893 0.585677
0.543397 0.781557 0.578433
0.742560 0.774848 0.570825
0.973167 0.762595 0.520631
0.140599 0.954422 0.568191
0.332410 0.948744 0.559913
0.530732 0.942967 0.551555
0.728742 0.936864 0.542917
0.922391 0.930446 0.534018
0.127508 0.203107 0.821783
0.335481 0.208405 0.825885
0.544304 0.210535 0.826897
0.750996 0.210717 0.826009
0.853989 0.205476 0.820337
0.146101 0.412917 0.825328
0.349328 0.411280 0.822667
0.552943 0.408645 0.819032
0.755662 0.405189 0.814597
0.890659 0.398399 0.807240
0.149464 0.606253 0.812808
0.349754 0.601873 0.807471
0.550835 0.596919 0.801575
0.751362 0.591458 0.795184
0.925901 0.584538 0.787496
0.144332 0.791855 0.792745
0.342879 0.785785 0.785760
0.542308 0.779319 0.778389
0.741340 0.772491 0.770664
0.939487 0.765328 0.762614
0.143856 0.952789 0.768147
0.331028 0.946819 0.759607
0.529241 0.940930 0.751152
0.727149 0.934719 0.742423
0.920410 0.928197 0.733439
0.128529 0.203712 0.896968
0.335368 0.207764 0.901251
0.543505 0.209230 0.905567
0.749794 0.208997 0.909961
0.855709 0.203605 0.911907
0.144996 0.411083 0.911584
0.347821 0.409208 0.916116
0.551326 0.406414 0.920760
0.754000 0.402856 0.925520
0.892953 0.396161 0.928522
0.147944 0.603893 0.927282
0.348111 0.599466 0.932205
0.549250 0.594495 0.937249
0.749865 0.589043 0.942414
0.928960 0.582327 0.946992
0.142861 0.789448 0.944325
0.341543 0.783415 0.949656
0.541114 0.777002 0.955108
0.740078 0.770094 0.951833
0.937629 0.762825 0.945906
0.147197 0.951116 0.950293
0.329608 0.944856 0.943648
0.527715 0.938857 0.937177
0.725524 0.932539 0.930319
0.918419 0.925914 0.923082
