library/luts/overcast.cube
# CrabbyCut preset LUT — sinh bởi scripts/generate_preset_luts.js
TITLE "Trời râm"
LUT_3D_SIZE 9
0.110459 0.187457 0.200105
0.216770 0.197979 0.209834
0.325461 0.202960 0.214160
0.432235 0.206188 0.216775
0.537835 0.208341 0.218342
0.642596 0.209725 0.219160
0.746707 0.210516 0.219398
0.843341 0.210550 0.218933
0.842459 0.206354 0.214822
0.133356 0.308326 0.217447
0.235448 0.310173 0.218716
0.347419 0.310106 0.209404
0.466745 0.307025 0.200565
0.581100 0.304224 0.197228
0.695038 0.301042 0.193519
0.808614 0.297529 0.189488
0.921873 0.293726 0.185173
0.929229 0.288509 0.180018
0.142742 0.413283 0.219271
0.244208 0.413290 0.218746
0.347069 0.412936 0.217868
0.460373 0.411478 0.192737
0.583645 0.406118 0.172975
0.700172 0.400984 0.167337
0.816452 0.395624 0.161480
0.932509 0.390059 0.155422
0.959328 0.384078 0.149417
0.147608 0.513203 0.216182
0.248328 0.512162 0.214635
0.350176 0.510881 0.212853
0.451786 0.509383 0.210859
0.564803 0.507733 0.173984
0.687558 0.501942 0.146866
0.803152 0.495955 0.140397
0.918575 0.489810 0.133774
0.966642 0.483346 0.127186
0.149485 0.610038 0.210084
0.249430 0.608272 0.207830
0.350555 0.606329 0.205403
0.451499 0.604222 0.202815
0.552275 0.601961 0.200077
0.665355 0.600439 0.151769
0.787890 0.594490 0.117564
0.902811 0.587886 0.110493
0.973827 0.581049 0.103420
0.149038 0.704666 0.201835
0.248313 0.702352 0.199045
0.348878 0.699897 0.196119
0.449299 0.697311 0.193064
0.549585 0.694600 0.189888
0.649741 0.691772 0.186597
0.763073 0.690551 0.127025
0.885556 0.684598 0.085881
0.980905 0.677464 0.078392
0.146636 0.797588 0.191921
0.245451 0.794834 0.188703
0.345563 0.791965 0.185372
0.445555 0.788986 0.181934
0.545433 0.785903 0.178395
0.645203 0.782721 0.174759
0.744869 0.779444 0.171031
0.858569 0.778631 0.100299
0.981158 0.772776 0.058941
0.142509 0.882516 0.180657
0.241157 0.879963 0.177082
0.340888 0.877313 0.173412
0.440518 0.874570 0.169651
0.540084 0.871752 0.167331
0.639666 0.868904 0.169938
0.739161 0.865970 0.172535
0.838449 0.862952 0.175122
0.950902 0.862524 0.102987
0.136285 0.955204 0.167953
0.235737 0.955169 0.168281
0.335287 0.952612 0.170885
0.434750 0.949969 0.173478
0.534129 0.947241 0.176061
0.633428 0.944430 0.178635
0.732648 0.941538 0.181198
0.831604 0.938566 0.183753
0.927266 0.935515 0.186299
0.115520 0.192676 0.306265
0.219598 0.199946 0.312822
0.327501 0.204206 0.316444
0.433823 0.207020 0.318656
0.539110 0.208886 0.319943
0.643633 0.210054 0.320549
0.747554 0.210670 0.320618
0.845306 0.210610 0.320054
0.844399 0.206295 0.315827
0.134600 0.309043 0.319216
0.236630 0.310633 0.320234
0.340918 0.311586 0.320631
0.444649 0.312028 0.320529
0.547914 0.312045 0.320013
0.650784 0.311699 0.319143
0.753308 0.311037 0.317965
0.855527 0.310096 0.316515
0.863246 0.305193 0.311665
0.143400 0.413329 0.320385
0.244797 0.413208 0.319734
0.347535 0.412742 0.318748
0.457409 0.410756 0.307564
0.574944 0.406036 0.297127
0.687737 0.401807 0.292397
0.800293 0.397360 0.287454
0.912631 0.392714 0.282318
0.940446 0.386964 0.276534
0.147918 0.512878 0.316934
0.248559 0.511753 0.315305
0.350324 0.510396 0.313449
0.451858 0.508828 0.311387
0.563970 0.506278 0.285192
0.686158 0.499927 0.264462
0.801693 0.493885 0.257940
0.917060 0.487689 0.251267
0.967373 0.481184 0.244626
0.149537 0.609459 0.310589
0.249409 0.607632 0.308275
0.350470 0.605632 0.305791
0.451356 0.603471 0.303151
0.552078 0.601160 0.300365
0.664271 0.598755 0.262754
0.786257 0.592261 0.234951
0.901132 0.585615 0.227839
0.974546 0.578746 0.220722
0.148880 0.703896 0.302153
0.248097 0.701533 0.299316
0.348613 0.699033 0.296346
0.448987 0.696404 0.293249
0.549227 0.693653 0.290033
0.649342 0.690786 0.286705
0.761797 0.688692 0.237839
0.883741 0.682203 0.203106
0.981615 0.675043 0.195578
0.146295 0.796666 0.292091
0.245078 0.793872 0.288834
0.345149 0.790965 0.285466
0.445102 0.787950 0.281994
0.544942 0.784833 0.278421
0.644677 0.781619 0.274753
0.744309 0.778311 0.270994
0.857140 0.776631 0.210976
0.979145 0.770241 0.169404
0.142003 0.881660 0.280704
0.240653 0.879074 0.277097
0.340349 0.876392 0.273395
0.439945 0.873617 0.269604
0.539445 0.870751 0.265727
0.638853 0.867797 0.261768
0.738172 0.864757 0.257730
0.837271 0.861632 0.253615
0.948824 0.860585 0.182512
0.136075 0.956436 0.268155
0.235035 0.954230 0.264295
0.334410 0.951557 0.260307
0.433698 0.948797 0.256240
0.532901 0.945951 0.252099
0.632023 0.943023 0.247885
0.731067 0.940013 0.243601
0.829896 0.936923 0.239249
0.925345 0.933754 0.234833
0.118732 0.195730 0.410312
0.222092 0.201608 0.415512
0.329364 0.205290 0.418571
0.435293 0.207745 0.420432
0.540298 0.209352 0.421467
0.644601 0.210319 0.421877
0.748344 0.210772 0.421787
0.847263 0.210627 0.421134
0.846331 0.206198 0.416795
0.135763 0.309665 0.420891
0.237732 0.311021 0.421681
0.341818 0.311788 0.421897
0.445381 0.312078 0.421647
0.548506 0.311965 0.421005
0.651253 0.311508 0.420025
0.753669 0.310747 0.418752
0.855793 0.309719 0.417216
0.865116 0.304803 0.412345
0.144017 0.413330 0.421455
0.245342 0.413086 0.420685
0.347964 0.412514 0.419594
0.450270 0.411652 0.418221
0.552294 0.410533 0.416597
0.654064 0.409182 0.414747
0.755604 0.407619 0.412690
0.856932 0.405863 0.410445
0.883392 0.400986 0.405524
0.148200 0.512523 0.417658
0.248761 0.511317 0.415949
0.350445 0.509886 0.414021
0.451906 0.508251 0.411893
0.560625 0.505209 0.399680
0.677110 0.499528 0.388306
0.788940 0.494417 0.382716
0.900606 0.489156 0.376979
0.951398 0.483091 0.370768
0.149567 0.608859 0.411073
0.249365 0.606971 0.408700
0.350366 0.604915 0.406162
0.451195 0.602702 0.403471
0.551864 0.600343 0.400637
0.663171 0.597056 0.373724
0.784608 0.590018 0.352324
0.899438 0.583331 0.345173
0.975264 0.576430 0.338012
0.148702 0.703110 0.402455
0.247864 0.700699 0.399572
0.348330 0.698155 0.396558
0.448658 0.695483 0.393420
0.548856 0.692692 0.390165
0.648929 0.689788 0.386800
0.760509 0.686822 0.348642
0.881914 0.679797 0.320320
0.982323 0.672610 0.312753
0.145936 0.795730 0.392248
0.244691 0.792897 0.388952
0.344721 0.789953 0.385548
0.444635 0.786903 0.382041
0.544439 0.783752 0.378436
0.644138 0.780506 0.374737
0.743737 0.777167 0.370948
0.855700 0.774622 0.321643
0.977172 0.767701 0.286489
0.141482 0.880793 0.380740
0.240137 0.878174 0.377100
0.339799 0.875460 0.373367
0.439362 0.872654 0.369547
0.538830 0.869758 0.365642
0.638207 0.866774 0.361655
0.737497 0.863705 0.357591
0.836546 0.860551 0.353451
0.947025 0.858772 0.293066
0.137359 0.956016 0.368199
0.234408 0.953332 0.364200
0.333753 0.950629 0.360184
0.433012 0.947840 0.356092
0.532187 0.944966 0.351926
0.631283 0.942010 0.347688
0.730301 0.938972 0.343381
0.829130 0.935855 0.339007
0.924363 0.932660 0.334568
0.121366 0.198097 0.513690
0.224330 0.203034 0.517972
0.331077 0.206237 0.520563
0.436658 0.208373 0.522114
0.541405 0.209745 0.522919
0.645505 0.210526 0.523148
0.749080 0.210826 0.522908
0.849210 0.210604 0.522174
0.848256 0.206067 0.517728
0.136851 0.310200 0.522482
0.238760 0.311341 0.523063
0.342657 0.311936 0.523110
0.446064 0.312081 0.522719
0.549054 0.311846 0.521958
0.651684 0.311281 0.520874
0.753997 0.310427 0.519508
0.856028 0.309314 0.517890
0.866982 0.304388 0.513002
0.144593 0.413287 0.522482
0.245846 0.412926 0.521598
0.348356 0.412252 0.520408
0.450563 0.411300 0.518947
0.552498 0.410099 0.517243
0.654187 0.408674 0.515320
0.755653 0.407044 0.513198
0.856913 0.405225 0.510892
0.885214 0.400366 0.505979
0.148453 0.512140 0.518353
0.248935 0.510855 0.516567
0.350541 0.509353 0.514570
0.451930 0.507653 0.512379
0.553119 0.505769 0.510010
0.654124 0.503717 0.507476
0.754957 0.501508 0.504789
0.855630 0.499152 0.501958
0.903074 0.494567 0.497216
0.149574 0.608237 0.511536
0.249300 0.606291 0.509106
0.350241 0.604181 0.506515
0.451015 0.601917 0.503774
0.551632 0.599510 0.500894
0.659566 0.595749 0.487980
0.775316 0.589395 0.475950
0.886456 0.583653 0.469744
0.962144 0.577412 0.463231
0.148505 0.702307 0.502741
0.247614 0.699850 0.499813
0.348032 0.697261 0.496755
0.448315 0.694548 0.493577
0.548470 0.691718 0.490284
0.648502 0.688776 0.486883
0.759208 0.684939 0.459432
0.880074 0.677379 0.437523
0.983031 0.670167 0.429918
0.145560 0.794781 0.492391
0.244290 0.791910 0.489058
0.344280 0.788929 0.485619
0.444156 0.785844 0.482078
0.543924 0.782660 0.478440
0.643589 0.779382 0.474710
0.743154 0.776012 0.470891
0.854249 0.772603 0.432300
0.975190 0.765153 0.403564
0.140944 0.879914 0.480764
0.239609 0.877263 0.477092
0.339237 0.874517 0.473330
0.438767 0.871680 0.469480
0.538204 0.868754 0.465547
0.637551 0.865741 0.461534
0.736812 0.862643 0.457443
0.835816 0.859462 0.453278
0.945225 0.856947 0.403612
0.138977 0.955224 0.468199
0.233771 0.952424 0.464095
0.333086 0.949691 0.460053
0.432316 0.946873 0.455935
0.531464 0.943971 0.451744
0.630533 0.940987 0.447483
0.729525 0.937923 0.443153
0.828361 0.934779 0.438757
0.923378 0.931558 0.434297
0.123647 0.200045 0.616659
0.226358 0.204270 0.620246
0.332658 0.207063 0.622437
0.437928 0.208914 0.623711
0.542438 0.210070 0.624305
0.646349 0.210677 0.624365
0.749766 0.210833 0.623984
0.851150 0.210542 0.623176
0.850174 0.205902 0.618629
0.137871 0.310656 0.623997
0.239720 0.311599 0.624383
0.343441 0.312032 0.624273
0.446698 0.312041 0.623750
0.549561 0.311689 0.622873
0.652079 0.311022 0.621690
0.754293 0.310076 0.620235
0.856234 0.308881 0.618537
0.868842 0.303950 0.613636
0.145132 0.413202 0.623469
0.246310 0.412731 0.622476
0.348713 0.411958 0.621190
0.450824 0.410919 0.619644
0.552673 0.409639 0.617864
0.654285 0.408142 0.615871
0.755679 0.406446 0.613684
0.856873 0.404568 0.611320
0.887033 0.399727 0.606416
0.148678 0.511729 0.619022
0.249081 0.510368 0.617162
0.350611 0.508797 0.615097
0.451931 0.507033 0.612843
0.553056 0.505091 0.610417
0.654001 0.502984 0.607830
0.754778 0.500724 0.605093
0.855399 0.498320 0.602216
0.904859 0.493772 0.597499
0.149559 0.607596 0.611979
0.249215 0.605592 0.609493
0.350098 0.603429 0.606850
0.450817 0.601115 0.604061
0.551383 0.598661 0.601136
0.651804 0.596076 0.598082
0.752090 0.593366 0.594906
0.852248 0.590539 0.591616
0.922392 0.586422 0.587216
0.148289 0.701488 0.603012
0.247347 0.698985 0.600038
0.347719 0.696353 0.596939
0.447957 0.693600 0.593721
0.548070 0.690731 0.590391
0.648062 0.687753 0.586954
0.755406 0.683452 0.573513
0.870595 0.676585 0.560982
0.972723 0.670262 0.554253
0.145168 0.793819 0.592522
0.243875 0.790909 0.589152
0.343826 0.787893 0.585677
0.443665 0.784774 0.582103
0.543397 0.781557 0.578433
0.643027 0.778247 0.574673
0.742560 0.774848 0.570825
0.852788 0.770574 0.542948
0.973167 0.762595 0.520631
0.140391 0.879024 0.580778
0.239069 0.876341 0.577075
0.338663 0.873564 0.573282
0.438162 0.870696 0.569403
0.537568 0.867741 0.565443
0.636885 0.864699 0.561403
0.736117 0.861572 0.557287
0.835081 0.858363 0.553098
0.943424 0.855112 0.514150
0.140599 0.954422 0.568191
0.233124 0.951505 0.563981
0.332410 0.948744 0.559913
0.431612 0.945897 0.555770
0.530732 0.942967 0.551555
0.629775 0.939956 0.547270
0.728742 0.936864 0.542917
0.827589 0.933694 0.538499
0.922391 0.930446 0.534018
0.125675 0.201692 0.719334
0.228213 0.205346 0.722365
0.334122 0.207782 0.724208
0.439111 0.209376 0.725230
0.543403 0.210332 0.725630
0.647136 0.210777 0.725531
0.750404 0.210796 0.725017
0.853082 0.210444 0.724142
0.852085 0.205704 0.719498
0.138829 0.311040 0.725440
0.240616 0.311798 0.725646
0.344170 0.312079 0.725388
0.447287 0.311960 0.724739
0.550028 0.311496 0.723754
0.652438 0.310730 0.722475
0.754556 0.309697 0.720935
0.856412 0.308423 0.719160
0.870698 0.303490 0.714247
0.145634 0.413078 0.724417
0.246736 0.412500 0.723321
0.349037 0.411634 0.721943
0.451056 0.410510 0.720314
0.552822 0.409154 0.718460
0.654357 0.407588 0.716399
0.755681 0.405828 0.714151
0.856811 0.403890 0.711728
0.888848 0.399072 0.706836
0.148877 0.511292 0.719664
0.249201 0.509857 0.717732
0.350658 0.508219 0.715602
0.451909 0.506393 0.713288
0.552972 0.504393 0.710806
0.653859 0.502233 0.708167
0.754582 0.499923 0.705381
0.855151 0.497473 0.702459
0.906641 0.492962 0.697769
0.149522 0.606934 0.712403
0.249109 0.604875 0.709863
0.349935 0.602659 0.707169
0.450601 0.600297 0.704333
0.551117 0.597798 0.701363
0.651492 0.595169 0.698267
0.751733 0.592419 0.695051
0.851849 0.589553 0.691724
0.924148 0.585486 0.687362
0.148054 0.700653 0.703267
0.247064 0.698105 0.700250
0.347390 0.695432 0.697109
0.447585 0.692638 0.693853
0.547656 0.689732 0.690486
0.647609 0.686718 0.687013
0.747451 0.683601 0.683441
0.847186 0.680387 0.679774
0.941414 0.676867 0.675835
0.144758 0.792843 0.692639
0.243447 0.789897 0.689233
0.343359 0.786845 0.685724
0.443161 0.783692 0.682117
0.542858 0.780444 0.678416
0.642455 0.777103 0.674626
0.741956 0.773674 0.670749
0.848828 0.768942 0.656888
0.963239 0.761662 0.643954
0.139823 0.878124 0.680780
0.238518 0.875408 0.677046
0.338079 0.872600 0.673224
0.437545 0.869702 0.669317
0.536921 0.866717 0.665329
0.636209 0.863646 0.661263
0.735413 0.860491 0.657122
0.834342 0.857255 0.652909
0.941624 0.853266 0.624679
0.142225 0.953610 0.668174
0.232467 0.950577 0.663858
0.331724 0.947786 0.659764
0.430897 0.944911 0.655597
0.529991 0.941953 0.651357
0.629008 0.938915 0.647049
0.727950 0.935796 0.642674
0.826814 0.932600 0.638234
0.921402 0.929326 0.633732
0.127508 0.203107 0.821783
0.229918 0.206286 0.824350
0.335481 0.208405 0.825885
0.440214 0.209765 0.826678
0.544304 0.210535 0.826897
0.647870 0.210827 0.826649
0.750996 0.210717 0.826009
0.853745 0.210261 0.825032
0.853989 0.205476 0.820337
0.139727 0.311357 0.826818
0.241452 0.311943 0.826857
0.344850 0.312080 0.826458
0.447833 0.311838 0.825690
0.550457 0.311268 0.824601
0.652764 0.310408 0.823230
0.754790 0.309290 0.821607
0.856562 0.307940 0.819758
0.872549 0.303007 0.814836
0.146101 0.412917 0.825328
0.247126 0.412237 0.824133
0.349328 0.411280 0.822667
0.451258 0.410074 0.820959
0.552943 0.408645 0.819032
0.654405 0.407011 0.816906
0.755662 0.405189 0.814597
0.856729 0.403194 0.812118
0.890659 0.398399 0.807240
0.149050 0.510829 0.820282
0.249295 0.509323 0.818280
0.350680 0.507619 0.816086
0.451866 0.505732 0.813713
0.552868 0.503677 0.811177
0.653697 0.501465 0.808487
0.754367 0.499107 0.805654
0.854887 0.496610 0.802687
0.908421 0.492139 0.798025
0.149464 0.606253 0.812808
0.248984 0.604140 0.810214
0.349754 0.601873 0.807471
0.450368 0.599463 0.804589
0.550835 0.596919 0.801575
0.651164 0.594248 0.798438
0.751362 0.591458 0.795184
0.851436 0.588554 0.791819
0.925901 0.584538 0.787496
0.147800 0.699802 0.803506
0.246765 0.697211 0.800447
0.347046 0.694496 0.797266
0.447198 0.691664 0.793971
0.547228 0.688720 0.790568
0.647143 0.685671 0.787061
0.746948 0.682520 0.783457
0.846648 0.679274 0.779758
0.943145 0.675813 0.775866
0.144332 0.791855 0.792745
0.243005 0.788872 0.789303
0.342879 0.785785 0.785760
0.442645 0.782599 0.782121
0.542308 0.779319 0.778389
0.641871 0.775948 0.774569
0.741340 0.772491 0.770664
0.840718 0.768950 0.766678
0.939487 0.765328 0.762614
0.139239 0.877212 0.780772
0.237955 0.874465 0.777008
0.337484 0.871626 0.773157
0.436919 0.868698 0.769222
0.536264 0.865684 0.765207
0.635523 0.862584 0.761115
0.734699 0.859401 0.756949
0.833599 0.856137 0.752712
0.937397 0.851755 0.738502
0.143856 0.952789 0.768147
0.231799 0.949639 0.763726
0.331028 0.946819 0.759607
0.430174 0.943916 0.755415
0.529241 0.940930 0.751152
0.628232 0.937864 0.746820
0.727149 0.934719 0.742423
0.825995 0.931496 0.737962
0.920410 0.928197 0.733439
0.128859 0.204084 0.896998
0.231129 0.206873 0.899172
0.336428 0.208738 0.901337
0.440984 0.209920 0.903507
0.544952 0.210561 0.905690
0.648437 0.210758 0.907892
0.751513 0.210578 0.910115
0.854177 0.210035 0.910448
0.855888 0.205218 0.906970
0.140367 0.311460 0.904300
0.242067 0.311930 0.906489
0.345396 0.311983 0.908699
0.448337 0.311679 0.910930
0.550850 0.311007 0.910129
0.653058 0.310056 0.909119
0.754995 0.308857 0.907922
0.856685 0.307432 0.906552
0.874395 0.302503 0.902833
0.146533 0.412719 0.910668
0.247482 0.411941 0.909784
0.349588 0.410897 0.908704
0.451432 0.409613 0.907443
0.553039 0.408112 0.906012
0.654429 0.406413 0.904422
0.755620 0.404531 0.902680
0.856626 0.402479 0.900795
0.892466 0.397710 0.897033
0.149197 0.510341 0.906941
0.249364 0.508766 0.905451
0.350680 0.506998 0.903805
0.451802 0.505053 0.902010
0.552744 0.502943 0.900074
0.653518 0.500680 0.898002
0.754136 0.498274 0.895800
0.854606 0.495733 0.893471
0.910197 0.491302 0.889800
0.149385 0.605553 0.901321
0.248839 0.603386 0.899335
0.349555 0.601070 0.897215
0.450118 0.598614 0.894967
0.550538 0.596026 0.892593
0.650821 0.593314 0.890098
0.750976 0.590484 0.887486
0.851009 0.587543 0.884759
0.927652 0.583579 0.881276
0.147528 0.698937 0.894117
0.246451 0.696303 0.891699
0.346687 0.693547 0.889161
0.446797 0.690676 0.886506
0.546788 0.687696 0.883738
0.646664 0.684612 0.880859
0.746433 0.681429 0.877871
0.846098 0.678150 0.874776
0.944874 0.674751 0.871554
0.143889 0.790854 0.885512
0.242550 0.787835 0.882703
0.342387 0.784714 0.879783
0.442118 0.781496 0.876756
0.541746 0.778184 0.873623
0.641277 0.774784 0.870386
0.740714 0.771297 0.867046
0.840056 0.767729 0.863605
0.938561 0.764081 0.860065
0.138639 0.876289 0.875628
0.237381 0.873511 0.872456
0.336878 0.870642 0.869182
0.436282 0.867684 0.865805
0.535598 0.864640 0.862328
0.634828 0.861512 0.858752
0.733976 0.858302 0.855079
0.832852 0.855010 0.851309
0.929151 0.851639 0.847443
0.145491 0.951957 0.864934
0.231122 0.948691 0.861038
0.330322 0.945843 0.857426
0.429442 0.942911 0.853717
0.528483 0.939898 0.849912
0.627448 0.936805 0.846013
0.726340 0.933633 0.842019
0.825162 0.930385 0.837683
0.919416 0.927060 0.833140
0.128529 0.203712 0.896968
0.230344 0.206151 0.899111
0.335368 0.207764 0.901251
0.439710 0.208749 0.903401
0.543505 0.209230 0.905567
0.646844 0.209292 0.907752
0.749794 0.208997 0.909961
0.852405 0.208390 0.912194
0.855709 0.203605 0.911907
0.139234 0.310227 0.904187
0.240564 0.310547 0.906360
0.343755 0.310473 0.908553
0.446576 0.310060 0.910771
0.549075 0.309349 0.913013
0.651286 0.308374 0.915283
0.753240 0.307161 0.917580
0.854959 0.305734 0.919906
0.874524 0.300881 0.919984
0.144996 0.411083 0.911584
0.245706 0.410273 0.913837
0.347821 0.409208 0.916116
0.449686 0.407915 0.918424
0.551326 0.406414 0.920760
0.652758 0.404723 0.923125
0.754000 0.402856 0.925520
0.855064 0.400826 0.927944
0.892953 0.396161 0.928522
0.147652 0.508642 0.919271
0.247665 0.507070 0.921617
0.349027 0.505313 0.923993
0.450202 0.503385 0.926399
0.551205 0.501298 0.928834
0.652047 0.499064 0.931300
0.752739 0.496691 0.933796
0.853289 0.494188 0.936322
0.911080 0.489881 0.937525
0.147944 0.603893 0.927282
0.247325 0.601752 0.929729
0.348111 0.599466 0.932205
0.448750 0.597044 0.934712
0.549250 0.594495 0.937249
0.649620 0.591826 0.939816
0.749865 0.589043 0.942414
0.849993 0.586151 0.945042
0.928960 0.582327 0.946992
0.146267 0.697381 0.935632
0.245194 0.694787 0.938180
0.345518 0.692076 0.940758
0.445720 0.689252 0.943367
0.545806 0.686323 0.946007
0.645783 0.683292 0.948676
0.745655 0.680165 0.951376
0.845427 0.676946 0.954107
0.945070 0.673618 0.955641
0.142861 0.789448 0.944325
0.241605 0.786481 0.946975
0.341543 0.783415 0.949656
0.441378 0.780253 0.952367
0.541114 0.777002 0.955108
0.640672 0.773609 0.954644
0.740078 0.770094 0.951833
0.839351 0.766499 0.948920
0.937629 0.762825 0.945906
0.137887 0.875277 0.953362
0.236789 0.872543 0.956114
0.336261 0.869647 0.953632
0.435635 0.866660 0.950785
0.534921 0.863588 0.947835
0.634123 0.860431 0.944783
0.733245 0.857193 0.941633
0.832100 0.853874 0.938384
0.928181 0.850477 0.935038
0.147197 0.951116 0.950293
0.230435 0.947733 0.946735
0.329608 0.944856 0.943648
0.428700 0.941897 0.940461
0.527715 0.938857 0.937177
0.626655 0.935737 0.933796
0.725524 0.932539 0.930319
0.824322 0.929264 0.926747
0.918419 0.925914 0.923082
