library/luts/pastel_soft.cube
# CrabbyCut preset LUT — sinh bởi scripts/generate_preset_luts.js
TITLE "Pastel dịu"
LUT_3D_SIZE 17
0.070825 0.060825 0.074450
0.151598 0.061768 0.074952
0.218543 0.062732 0.075546
0.280775 0.063779 0.076248
0.339974 0.064915 0.077052
0.396909 0.066139 0.077954
0.452022 0.067450 0.078950
0.505600 0.068845 0.080038
0.557845 0.070324 0.081214
0.608906 0.071883 0.082476
0.658899 0.073523 0.083823
0.707916 0.075242 0.085251
0.756031 0.077037 0.086760
0.803305 0.078909 0.088348
0.848632 0.080856 0.090013
0.889637 0.082877 0.091755
0.929927 0.084970 0.093572
0.073997 0.143828 0.076138
0.154771 0.144771 0.076640
0.222035 0.145607 0.077554
0.284566 0.146536 0.078555
0.344053 0.147557 0.079646
0.401266 0.148670 0.080827
0.456651 0.149873 0.082095
0.510495 0.151162 0.083448
0.563001 0.152536 0.084886
0.614320 0.153994 0.086406
0.664567 0.155532 0.088006
0.713835 0.157151 0.089685
0.762198 0.158848 0.091442
0.809718 0.160622 0.093276
0.854610 0.162471 0.095185
0.895599 0.164396 0.097168
0.935875 0.166395 0.099224
0.077239 0.213051 0.078137
0.157660 0.214089 0.078734
0.224957 0.214957 0.079233
0.287739 0.215786 0.080485
0.347466 0.216712 0.081817
0.404912 0.217732 0.083230
0.460524 0.218844 0.084726
0.514591 0.220045 0.086302
0.567316 0.221332 0.087959
0.618850 0.222703 0.089694
0.669310 0.224157 0.091507
0.718788 0.225692 0.093396
0.767358 0.227306 0.095360
0.815084 0.228998 0.097399
0.859569 0.230767 0.099512
0.900543 0.232612 0.101697
0.940805 0.234530 0.103953
0.080764 0.277759 0.080497
0.160855 0.278886 0.081183
0.227876 0.279829 0.081757
0.290714 0.280714 0.082295
0.350666 0.281550 0.083852
0.408331 0.282483 0.085484
0.464155 0.283510 0.087193
0.518431 0.284628 0.088978
0.571361 0.285833 0.090840
0.623098 0.287124 0.092777
0.673757 0.288499 0.094789
0.723431 0.289955 0.096875
0.772196 0.291492 0.099034
0.820114 0.293107 0.101266
0.864182 0.294800 0.103569
0.905140 0.296569 0.105943
0.945387 0.298413 0.108387
0.084586 0.339644 0.083202
0.164361 0.340857 0.083974
0.231117 0.341871 0.084619
0.293707 0.342822 0.085224
0.353735 0.343735 0.085804
0.411609 0.344585 0.087646
0.467638 0.345530 0.089559
0.522114 0.346568 0.091544
0.575241 0.347695 0.093603
0.627171 0.348909 0.095734
0.678022 0.350207 0.097937
0.727885 0.351589 0.100211
0.776836 0.353051 0.102557
0.824939 0.354593 0.104974
0.868574 0.356213 0.107460
0.909515 0.357910 0.110016
0.949747 0.359682 0.112640
0.088703 0.399473 0.086237
0.168172 0.400768 0.087091
0.234672 0.401852 0.087806
0.297021 0.402868 0.088476
0.356818 0.403843 0.089118
0.414787 0.404787 0.089741
0.471015 0.405654 0.091852
0.525685 0.406614 0.094032
0.579003 0.407666 0.096281
0.631121 0.408805 0.098600
0.682156 0.410029 0.100988
0.732202 0.411338 0.103446
0.781335 0.412728 0.105973
0.829617 0.414199 0.108569
0.872800 0.415748 0.111232
0.913724 0.417375 0.113964
0.953940 0.419078 0.116762
0.093112 0.457684 0.089590
0.172282 0.459060 0.090524
0.238531 0.460211 0.091306
0.300645 0.461291 0.092040
0.360218 0.462326 0.092743
0.417969 0.463330 0.093425
0.474309 0.464309 0.094090
0.529168 0.465194 0.096459
0.582672 0.466171 0.098894
0.634973 0.467237 0.101396
0.686189 0.468390 0.103965
0.736414 0.469627 0.106602
0.785723 0.470947 0.109305
0.834180 0.472348 0.112075
0.876894 0.473828 0.114912
0.917800 0.475387 0.117815
0.957998 0.477022 0.120784
0.097806 0.514560 0.093249
0.176683 0.516015 0.094262
0.242687 0.517233 0.095111
0.304571 0.518374 0.095906
0.363923 0.519469 0.096669
0.421460 0.520531 0.097408
0.477592 0.521566 0.098130
0.532581 0.522581 0.098837
0.586267 0.523485 0.101454
0.638747 0.524480 0.104136
0.690141 0.525562 0.106882
0.740540 0.526730 0.109693
0.790022 0.527981 0.112569
0.838651 0.529313 0.115511
0.880876 0.530726 0.118517
0.921764 0.532218 0.121588
0.961944 0.533786 0.124724
0.102779 0.570300 0.097205
0.181368 0.571833 0.098297
0.247131 0.573115 0.099210
0.308790 0.574318 0.100066
0.367925 0.575471 0.100888
0.425252 0.576589 0.101684
0.481179 0.577680 0.102461
0.535967 0.578749 0.103222
0.589799 0.579799 0.103969
0.642456 0.580723 0.106827
0.694023 0.581736 0.109747
0.744594 0.582835 0.112730
0.794247 0.584019 0.115777
0.843043 0.585285 0.118886
0.884762 0.586631 0.122059
0.925630 0.588057 0.125296
0.965791 0.589560 0.128595
0.108026 0.625049 0.101451
0.186332 0.626658 0.102619
0.251858 0.628005 0.103597
0.313294 0.629268 0.104513
0.372216 0.630479 0.105392
0.429337 0.631653 0.106244
0.485061 0.632798 0.107075
0.539652 0.633920 0.107890
0.593289 0.635022 0.108690
0.646108 0.636108 0.109478
0.697846 0.637052 0.112569
0.748587 0.638084 0.115721
0.798406 0.639201 0.118935
0.846973 0.640401 0.122210
0.888563 0.641682 0.125548
0.929410 0.643043 0.128946
0.969552 0.644482 0.132407
0.113543 0.678919 0.105980
0.191569 0.680604 0.107223
0.256861 0.682014 0.108264
0.318077 0.683335 0.109240
0.376789 0.684603 0.110175
0.433706 0.685832 0.111083
0.489231 0.687031 0.111968
0.543627 0.688206 0.112834
0.597073 0.689360 0.113686
0.649702 0.690496 0.114525
0.701617 0.691617 0.115352
0.752525 0.692583 0.118672
0.802509 0.693634 0.122051
0.850718 0.694768 0.125489
0.892286 0.695985 0.128988
0.933112 0.697282 0.132548
0.973234 0.698658 0.136167
0.119324 0.731998 0.110785
0.197073 0.733757 0.112103
0.262134 0.735230 0.113206
0.323134 0.736610 0.114240
0.381638 0.737934 0.115232
0.438353 0.739217 0.116194
0.493682 0.740469 0.117132
0.547885 0.741696 0.118051
0.601142 0.742901 0.118954
0.653585 0.744088 0.119843
0.705316 0.745258 0.120720
0.756415 0.746415 0.121586
0.806562 0.747401 0.125128
0.854394 0.748471 0.128728
0.895939 0.749624 0.132387
0.936743 0.750858 0.136105
0.976844 0.752171 0.139881
0.125364 0.784358 0.115861
0.202841 0.786191 0.117253
0.267673 0.787725 0.118418
0.328459 0.789163 0.119510
0.386757 0.790542 0.120557
0.443273 0.791880 0.121572
0.498408 0.793184 0.122563
0.552420 0.794462 0.123533
0.605490 0.795718 0.124487
0.657749 0.796954 0.125426
0.709298 0.798174 0.126352
0.760217 0.799379 0.127266
0.810570 0.800570 0.128171
0.858006 0.801577 0.131931
0.899527 0.802667 0.135748
0.940308 0.803839 0.139622
0.980387 0.805090 0.143554
0.131661 0.835916 0.121203
0.208867 0.837687 0.122668
0.273473 0.839165 0.123894
0.334047 0.840548 0.125043
0.392142 0.841871 0.126145
0.448460 0.843152 0.127214
0.503403 0.844398 0.128256
0.557227 0.845617 0.129277
0.610111 0.846813 0.130281
0.662188 0.847988 0.131269
0.713557 0.849144 0.132244
0.764299 0.850285 0.133206
0.814476 0.851411 0.134158
0.861559 0.852523 0.135101
0.903055 0.853453 0.139074
0.943813 0.854457 0.143104
0.983869 0.855531 0.147190
0.138210 0.882833 0.126806
0.215149 0.884591 0.128343
0.279530 0.886058 0.129630
0.339894 0.887430 0.130836
0.397787 0.888743 0.131992
0.453910 0.890013 0.133114
0.508662 0.891250 0.134208
0.562300 0.892459 0.135279
0.615001 0.893645 0.136332
0.666897 0.894810 0.137369
0.718088 0.895957 0.138392
0.768653 0.897087 0.139402
0.818656 0.898203 0.140401
0.864989 0.899306 0.141390
0.906527 0.900396 0.142369
0.947260 0.901293 0.146553
0.987293 0.902262 0.150791
0.145008 0.928915 0.132666
0.221681 0.930659 0.134275
0.285841 0.932115 0.135621
0.345996 0.933476 0.136884
0.403689 0.934779 0.138094
0.459619 0.936039 0.139268
0.514182 0.937265 0.140413
0.567634 0.938464 0.141534
0.620153 0.939640 0.142636
0.671870 0.940795 0.143722
0.722885 0.941932 0.144792
0.773276 0.943053 0.145849
0.823106 0.944159 0.146895
0.868627 0.945252 0.147930
0.909865 0.946332 0.148955
0.950653 0.947401 0.149971
0.990662 0.948266 0.154361
0.152051 0.974202 0.138779
0.228461 0.975933 0.140459
0.292400 0.977377 0.141865
0.352349 0.978728 0.143183
0.409844 0.980020 0.144447
0.465582 0.981269 0.145673
0.519957 0.982486 0.146868
0.573226 0.983674 0.148039
0.625565 0.984840 0.149190
0.677104 0.985985 0.150323
0.727943 0.987112 0.151441
0.778161 0.988223 0.152545
0.827821 0.989320 0.153637
0.872465 0.990403 0.154718
0.913408 0.991473 0.155788
0.953903 0.992532 0.156849
0.993979 0.993580 0.157902
0.071145 0.061145 0.154451
0.151919 0.062088 0.154952
0.218896 0.063084 0.155132
0.281158 0.064162 0.155445
0.340386 0.065327 0.155877
0.397349 0.066579 0.156418
0.452489 0.067917 0.157062
0.506094 0.069339 0.157804
0.558365 0.070844 0.158641
0.609453 0.072430 0.159569
0.659472 0.074095 0.160586
0.708514 0.075839 0.161689
0.756653 0.077660 0.162876
0.803953 0.079556 0.164145
0.849238 0.081528 0.165495
0.890241 0.083573 0.166925
0.930530 0.085691 0.168431
0.074318 0.144148 0.156139
0.155091 0.145091 0.156640
0.222739 0.145865 0.157045
0.285631 0.146734 0.157568
0.345462 0.147700 0.158202
0.403010 0.148758 0.158938
0.458721 0.149907 0.159773
0.512885 0.151144 0.160703
0.565706 0.152467 0.161723
0.617334 0.153874 0.162832
0.667887 0.155363 0.164028
0.717456 0.156932 0.165307
0.766117 0.158580 0.166668
0.813932 0.160306 0.168110
0.858630 0.162108 0.169631
0.899850 0.163985 0.171230
0.940355 0.165937 0.172905
0.077591 0.213403 0.157724
0.157694 0.214568 0.158001
0.225342 0.215342 0.158405
0.288484 0.216112 0.159179
0.348556 0.216981 0.160053
0.406337 0.217947 0.161023
0.462275 0.219006 0.162085
0.516662 0.220154 0.163237
0.569701 0.221390 0.164477
0.621545 0.222711 0.165801
0.672310 0.224115 0.167209
0.722089 0.225600 0.168698
0.770958 0.227166 0.170267
0.818978 0.228810 0.171915
0.863285 0.230531 0.173639
0.904489 0.232328 0.175439
0.944978 0.234200 0.177315
0.081146 0.278142 0.159695
0.160619 0.279515 0.159762
0.227992 0.280364 0.160241
0.291159 0.281159 0.160690
0.351456 0.281939 0.161789
0.409456 0.282817 0.162977
0.465607 0.283791 0.164252
0.520203 0.284856 0.165613
0.573447 0.286010 0.167058
0.625493 0.287251 0.168585
0.676457 0.288576 0.170192
0.726433 0.289983 0.171878
0.775496 0.291471 0.173641
0.823710 0.293038 0.175481
0.867615 0.294683 0.177397
0.908803 0.296405 0.179386
0.949276 0.298202 0.181449
0.084997 0.340056 0.162027
0.163867 0.341629 0.161892
0.230974 0.342549 0.162443
0.293893 0.343411 0.162959
0.354238 0.344238 0.163454
0.412447 0.345033 0.164851
0.468803 0.345925 0.166331
0.523598 0.346911 0.167892
0.577040 0.347987 0.169534
0.629279 0.349150 0.171254
0.680435 0.350399 0.173052
0.730600 0.351731 0.174927
0.779849 0.353144 0.176877
0.828248 0.354638 0.178902
0.871738 0.356210 0.181001
0.912908 0.357860 0.183172
0.953365 0.359585 0.185414
0.089143 0.399913 0.164701
0.167428 0.401680 0.164370
0.234279 0.402669 0.164990
0.296957 0.403596 0.165571
0.357071 0.404485 0.166128
0.415347 0.405347 0.166668
0.471901 0.406160 0.168346
0.526891 0.407068 0.170102
0.580523 0.408068 0.171934
0.632950 0.409157 0.173842
0.684291 0.410332 0.175825
0.734639 0.411591 0.177883
0.784069 0.412932 0.180014
0.832647 0.414355 0.182218
0.875705 0.415856 0.184494
0.916857 0.417436 0.186841
0.957297 0.419091 0.189258
0.093579 0.458151 0.167701
0.171293 0.460107 0.167179
0.237894 0.461163 0.167867
0.300338 0.462154 0.168511
0.360226 0.463104 0.169129
0.418284 0.464025 0.169728
0.474923 0.464923 0.170312
0.530102 0.465756 0.172257
0.583920 0.466682 0.174275
0.636531 0.467697 0.176367
0.688053 0.468800 0.178531
0.738579 0.469988 0.180767
0.788186 0.471259 0.183075
0.836938 0.472612 0.185454
0.879548 0.474045 0.187903
0.920681 0.475556 0.190421
0.961104 0.477144 0.193008
0.098300 0.515054 0.171015
0.175454 0.517195 0.170306
0.241810 0.518318 0.171060
0.304024 0.519370 0.171766
0.363692 0.520380 0.172443
0.421536 0.521359 0.173100
0.477967 0.522313 0.173741
0.533249 0.523249 0.174368
0.587249 0.524102 0.176569
0.640039 0.525046 0.178840
0.691738 0.526078 0.181181
0.742439 0.527197 0.183592
0.792219 0.528399 0.186073
0.841143 0.529684 0.188623
0.883287 0.531049 0.191242
0.924400 0.532493 0.193928
0.964804 0.534014 0.196682
0.103300 0.570821 0.174632
0.179905 0.573143 0.173740
0.246020 0.574331 0.174558
0.308008 0.575445 0.175325
0.367459 0.576513 0.176061
0.425093 0.577548 0.176775
0.481319 0.578558 0.177471
0.536400 0.579547 0.178153
0.590520 0.580520 0.178823
0.643486 0.581393 0.181270
0.695359 0.582357 0.183785
0.746232 0.583407 0.186368
0.796182 0.584541 0.189019
0.845097 0.585759 0.191737
0.886936 0.587058 0.194522
0.928028 0.588436 0.197374
0.968412 0.589892 0.200292
0.108573 0.625596 0.178544
0.184637 0.628097 0.177471
0.250515 0.629349 0.178353
0.312280 0.630523 0.179181
0.371519 0.631648 0.179974
0.428946 0.632739 0.180743
0.484970 0.633804 0.181494
0.539853 0.634847 0.182229
0.593779 0.635871 0.182952
0.646880 0.636880 0.183663
0.698924 0.637775 0.186349
0.749966 0.638758 0.189102
0.800084 0.639826 0.191920
0.848687 0.640978 0.194804
0.890504 0.642211 0.197753
0.931575 0.643525 0.200767
0.971939 0.644917 0.203846
0.114115 0.679491 0.182743
0.189646 0.682170 0.181492
0.255289 0.683484 0.182437
0.316836 0.684717 0.183324
0.375863 0.685900 0.184174
0.433087 0.687046 0.184999
0.488912 0.688164 0.185803
0.543600 0.689260 0.186591
0.597334 0.690336 0.187365
0.650247 0.691396 0.188127
0.702441 0.692441 0.188879
0.753650 0.693357 0.191798
0.803933 0.694360 0.194781
0.852206 0.695446 0.197828
0.894000 0.696615 0.200939
0.935049 0.697865 0.204114
0.975392 0.699194 0.207353
0.119921 0.732595 0.187223
0.194925 0.735448 0.185795
0.260337 0.736826 0.186803
0.321667 0.738117 0.187748
0.380487 0.739356 0.188655
0.437508 0.740556 0.189533
0.493137 0.741727 0.190391
0.547633 0.742875 0.191230
0.601177 0.744002 0.192056
0.653904 0.745113 0.192868
0.705915 0.746208 0.193670
0.757289 0.747289 0.194461
0.807735 0.748227 0.197608
0.855660 0.749249 0.200816
0.897430 0.750354 0.204087
0.938457 0.751541 0.207420
0.978777 0.752807 0.210816
0.125987 0.784980 0.191977
0.200469 0.788006 0.190375
0.265653 0.789445 0.191445
0.326768 0.790794 0.192448
0.385383 0.792088 0.193410
0.442205 0.793342 0.194342
0.497639 0.794566 0.195252
0.551945 0.795765 0.196143
0.605302 0.796943 0.197019
0.657845 0.798103 0.197881
0.709674 0.799247 0.198732
0.760869 0.800377 0.199572
0.811495 0.801495 0.200403
0.859054 0.802454 0.203771
0.900799 0.803496 0.207200
0.941802 0.804620 0.210690
0.982101 0.805824 0.214241
0.132308 0.836518 0.197001
0.206275 0.839472 0.195226
0.271232 0.840861 0.196356
0.332136 0.842159 0.197417
0.390547 0.843402 0.198434
0.447172 0.844605 0.199419
0.502414 0.845775 0.200381
0.556531 0.846920 0.201323
0.609703 0.848043 0.202249
0.662063 0.849146 0.203160
0.713712 0.850232 0.204060
0.764730 0.851304 0.204948
0.815180 0.852361 0.205826
0.862392 0.853406 0.206695
0.904112 0.854292 0.210281
0.945091 0.855251 0.213926
0.985366 0.856281 0.217631
0.138882 0.883431 0.202288
0.212337 0.886457 0.200342
0.277071 0.887834 0.201533
0.337764 0.889122 0.202650
0.395973 0.890354 0.203722
0.452403 0.891547 0.204760
0.507454 0.892708 0.205773
0.561385 0.893842 0.206766
0.614374 0.894955 0.207741
0.666553 0.896049 0.208702
0.718024 0.897126 0.209649
0.768865 0.898187 0.210585
0.819142 0.899235 0.211510
0.865633 0.900270 0.212426
0.907372 0.901294 0.213333
0.948326 0.902147 0.217132
0.988576 0.903072 0.220989
0.145704 0.929508 0.207835
0.218653 0.932603 0.205720
0.283164 0.933969 0.206971
0.343649 0.935247 0.208145
0.401659 0.936469 0.209270
0.457895 0.937651 0.210361
0.512757 0.938802 0.211425
0.566502 0.939927 0.212467
0.619309 0.941030 0.213492
0.671310 0.942114 0.214500
0.722604 0.943181 0.215495
0.773271 0.944232 0.216478
0.823375 0.945270 0.217450
0.869084 0.946296 0.218412
0.910523 0.947310 0.219365
0.951510 0.948313 0.220309
0.991736 0.949134 0.224318
0.152771 0.974791 0.213638
0.225217 0.977955 0.211355
0.289509 0.979309 0.212666
0.349787 0.980576 0.213895
0.407599 0.981788 0.215073
0.463643 0.982960 0.216216
0.518317 0.984100 0.217331
0.571879 0.985215 0.218423
0.624506 0.986308 0.219496
0.676329 0.987382 0.220552
0.727448 0.988439 0.221595
0.777942 0.989481 0.222624
0.827874 0.990510 0.223642
0.872738 0.991525 0.224650
0.913881 0.992529 0.225648
0.954574 0.993522 0.226638
0.994847 0.994505 0.227619
0.071472 0.061472 0.220634
0.151894 0.062510 0.221231
0.219191 0.063379 0.221730
0.281478 0.064482 0.221718
0.340730 0.065672 0.221838
0.397717 0.066947 0.222076
0.452880 0.068308 0.222425
0.506507 0.069753 0.222879
0.558801 0.071280 0.223432
0.609910 0.072887 0.224081
0.659950 0.074574 0.224822
0.709014 0.076339 0.225652
0.757174 0.078181 0.226570
0.804494 0.080098 0.227573
0.849745 0.082090 0.228659
0.890747 0.084155 0.229826
0.931034 0.086293 0.231073
0.074964 0.144348 0.222641
0.155354 0.145354 0.223652
0.223002 0.146127 0.224057
0.285919 0.147022 0.224255
0.345774 0.148012 0.224577
0.403346 0.149094 0.225011
0.459080 0.150266 0.225551
0.513266 0.151525 0.226192
0.566109 0.152870 0.226929
0.617759 0.154299 0.227758
0.668333 0.155809 0.228678
0.717924 0.157400 0.229685
0.766605 0.159069 0.230777
0.814441 0.160815 0.231952
0.859102 0.162638 0.233209
0.900320 0.164536 0.234546
0.940823 0.166507 0.235961
0.077886 0.213698 0.224321
0.157956 0.214831 0.225013
0.225605 0.215605 0.225417
0.289048 0.216325 0.225792
0.349409 0.217148 0.226282
0.407470 0.218068 0.226880
0.463681 0.219082 0.227580
0.518335 0.220186 0.228377
0.571638 0.221379 0.229268
0.623741 0.222658 0.230249
0.674761 0.224020 0.231318
0.724793 0.225465 0.232472
0.773911 0.226989 0.233710
0.822178 0.228593 0.235030
0.866339 0.230274 0.236430
0.907735 0.232031 0.237908
0.948415 0.233864 0.239464
0.081467 0.278462 0.225968
0.160907 0.279803 0.226449
0.228029 0.280751 0.226677
0.291472 0.281472 0.227052
0.352058 0.282205 0.227767
0.410338 0.283038 0.228584
0.466763 0.283967 0.229497
0.521626 0.284988 0.230503
0.575133 0.286099 0.231598
0.627438 0.287298 0.232782
0.678658 0.288581 0.234050
0.728886 0.289947 0.235401
0.778199 0.291394 0.236834
0.826659 0.292921 0.238346
0.870433 0.294526 0.239937
0.911812 0.296208 0.241605
0.952475 0.297966 0.243348
0.085342 0.340401 0.227988
0.164179 0.341942 0.228268
0.230796 0.343057 0.228327
0.293991 0.343844 0.228768
0.354600 0.344600 0.229192
0.413089 0.345349 0.230218
0.469718 0.346197 0.231335
0.524781 0.347139 0.232541
0.578486 0.348171 0.233834
0.630984 0.349292 0.235211
0.682395 0.350499 0.236670
0.732812 0.351790 0.238210
0.782312 0.353163 0.239829
0.830957 0.354617 0.241526
0.874330 0.356149 0.243300
0.915691 0.357759 0.245150
0.956338 0.359445 0.247073
0.089511 0.400281 0.230360
0.167763 0.402015 0.230443
0.233891 0.403293 0.230339
0.296845 0.404145 0.230845
0.357223 0.404963 0.231331
0.415756 0.405756 0.231802
0.472583 0.406524 0.233117
0.527840 0.407389 0.234518
0.581735 0.408346 0.236001
0.634422 0.409392 0.237565
0.686018 0.410525 0.239210
0.736618 0.411743 0.240933
0.786298 0.413044 0.242733
0.835123 0.414426 0.244610
0.878082 0.415888 0.246561
0.919424 0.417427 0.248586
0.960052 0.419044 0.250684
0.093970 0.458542 0.233065
0.171652 0.460466 0.232957
0.237301 0.461901 0.232693
0.300021 0.462817 0.233263
0.360174 0.463695 0.233809
0.418489 0.464547 0.234339
0.475378 0.465378 0.234856
0.530825 0.466167 0.236446
0.584906 0.467050 0.238115
0.637776 0.468023 0.239863
0.689552 0.469084 0.241688
0.740331 0.470231 0.243590
0.790188 0.471462 0.245566
0.839187 0.472774 0.247618
0.881716 0.474167 0.249742
0.923038 0.475638 0.251939
0.963648 0.477187 0.254207
0.098713 0.515468 0.236089
0.175836 0.517577 0.235795
0.241017 0.519167 0.235375
0.303507 0.520145 0.236006
0.363440 0.521083 0.236612
0.421541 0.521992 0.237200
0.478221 0.522879 0.237773
0.533748 0.523748 0.238334
0.588012 0.524558 0.240186
0.641061 0.525460 0.242113
0.693015 0.526451 0.244116
0.743968 0.527528 0.246192
0.793998 0.528690 0.248342
0.843169 0.529934 0.250564
0.885251 0.531259 0.252858
0.926553 0.532664 0.255223
0.967144 0.534146 0.257658
0.103735 0.571256 0.239423
0.180308 0.573547 0.238945
0.245030 0.575289 0.238370
0.307294 0.576328 0.239063
0.367010 0.577325 0.239728
0.424901 0.578291 0.240372
0.481377 0.579233 0.241000
0.536703 0.580156 0.241616
0.591063 0.581063 0.242221
0.644289 0.581895 0.244325
0.696417 0.582816 0.246501
0.747542 0.583825 0.248749
0.797742 0.584919 0.251069
0.846672 0.586097 0.253459
0.888701 0.587355 0.255920
0.929982 0.588694 0.258450
0.970552 0.590111 0.261049
0.109030 0.626053 0.243055
0.185062 0.628523 0.242396
0.249332 0.630415 0.241671
0.311373 0.631514 0.242424
0.370876 0.632568 0.243146
0.428560 0.633590 0.243846
0.484834 0.634587 0.244529
0.539963 0.635563 0.245198
0.594129 0.636523 0.245855
0.647468 0.637468 0.246502
0.699767 0.638321 0.248850
0.751062 0.639262 0.251267
0.801429 0.640290 0.253754
0.850070 0.641401 0.256311
0.892075 0.642594 0.258935
0.933334 0.643868 0.261628
0.973884 0.645221 0.264388
0.114594 0.679970 0.246979
0.190092 0.682616 0.246142
0.253915 0.684656 0.245266
0.315737 0.685814 0.246078
0.375030 0.686925 0.246857
0.432509 0.688002 0.247612
0.488585 0.689053 0.248349
0.543518 0.690082 0.249071
0.597493 0.691093 0.249780
0.650643 0.692089 0.250478
0.703072 0.693072 0.251167
0.754533 0.693947 0.253751
0.805065 0.694908 0.256403
0.853399 0.695954 0.259123
0.895382 0.697083 0.261909
0.936618 0.698293 0.264762
0.977145 0.699583 0.267682
0.120421 0.733095 0.251186
0.195392 0.735916 0.250173
0.258774 0.738102 0.249150
0.320380 0.739319 0.250020
0.379464 0.740486 0.250856
0.436742 0.741617 0.251665
0.492621 0.742721 0.252455
0.547362 0.743802 0.253228
0.601148 0.744865 0.253988
0.654112 0.745911 0.254737
0.706356 0.746943 0.255475
0.757962 0.747962 0.256205
0.808657 0.748859 0.259020
0.856668 0.749841 0.261901
0.898626 0.750906 0.264847
0.939838 0.752053 0.267859
0.980343 0.753280 0.270935
0.126508 0.785501 0.255671
0.200958 0.788494 0.254483
0.263903 0.790825 0.253315
0.325295 0.792100 0.254243
0.384174 0.793322 0.255134
0.441253 0.794507 0.255997
0.496937 0.795663 0.256839
0.551488 0.796796 0.257664
0.605086 0.797909 0.258475
0.657866 0.799005 0.259273
0.709929 0.800086 0.260060
0.761355 0.801154 0.260838
0.812210 0.802210 0.261607
0.859880 0.803128 0.264648
0.901812 0.804130 0.267752
0.943001 0.805215 0.270920
0.983482 0.806380 0.274152
0.132850 0.837021 0.260428
0.206784 0.839944 0.259067
0.269298 0.842224 0.257754
0.330477 0.843452 0.258740
0.389153 0.844628 0.259685
0.446035 0.845765 0.260602
0.501527 0.846872 0.261496
0.555889 0.847955 0.262372
0.609302 0.849017 0.263233
0.661899 0.850061 0.264080
0.713782 0.851088 0.264916
0.765031 0.852102 0.265742
0.815710 0.853102 0.266558
0.863039 0.854090 0.267367
0.904945 0.854939 0.270628
0.946109 0.855861 0.273951
0.986567 0.856855 0.277337
0.139444 0.883930 0.265451
0.212867 0.886925 0.263920
0.274953 0.889264 0.262464
0.335922 0.890482 0.263506
0.394397 0.891647 0.264506
0.451083 0.892775 0.265475
0.506384 0.893872 0.266421
0.560560 0.894945 0.267347
0.613790 0.895997 0.268257
0.666206 0.897031 0.269154
0.717911 0.898050 0.270038
0.768984 0.899053 0.270911
0.819488 0.900044 0.271775
0.866121 0.901023 0.272629
0.908029 0.901990 0.273476
0.949166 0.902807 0.276953
0.989600 0.903696 0.280491
0.146287 0.930003 0.270737
0.219203 0.933068 0.269036
0.280865 0.935466 0.267438
0.341626 0.936673 0.268537
0.399900 0.937828 0.269590
0.456393 0.938945 0.270612
0.511506 0.940033 0.271609
0.565496 0.941096 0.272585
0.618544 0.942138 0.273544
0.670782 0.943163 0.274489
0.722310 0.944171 0.275421
0.773208 0.945165 0.276341
0.823540 0.946146 0.277251
0.869416 0.947115 0.278152
0.911023 0.948073 0.279044
0.952176 0.949021 0.279929
0.992584 0.949806 0.283618
0.153374 0.975283 0.276280
0.225788 0.978415 0.274411
0.287030 0.980871 0.272673
0.347584 0.982067 0.273827
0.405660 0.983212 0.274934
0.461961 0.984319 0.276008
0.516886 0.985396 0.277055
0.570693 0.986450 0.278081
0.623560 0.987482 0.279089
0.675621 0.988497 0.280081
0.726974 0.989495 0.281060
0.777699 0.990480 0.282028
0.827860 0.991451 0.282984
0.872916 0.992410 0.283930
0.914227 0.993359 0.284868
0.955086 0.994297 0.285798
0.995522 0.995226 0.286720
0.071828 0.061828 0.282056
0.151920 0.062955 0.282742
0.218941 0.063898 0.283316
0.281778 0.064783 0.283854
0.341053 0.065995 0.283681
0.398062 0.067292 0.283636
0.453247 0.068675 0.283709
0.506895 0.070141 0.283892
0.559209 0.071688 0.284179
0.610339 0.073316 0.284565
0.660399 0.075023 0.285048
0.709482 0.076808 0.285623
0.757663 0.078669 0.286288
0.805002 0.080606 0.287041
0.850219 0.082617 0.287879
0.891220 0.084702 0.288801
0.931507 0.086859 0.289805
0.075620 0.144585 0.284363
