library/luts/pastel_soft.cube
# CrabbyCut preset LUT — sinh bởi scripts/generate_preset_luts.js
TITLE "Pastel dịu"
LUT_3D_SIZE 9
0.070825 0.060825 0.074450
0.218543 0.062732 0.075546
0.339974 0.064915 0.077052
0.452022 0.067450 0.078950
0.557845 0.070324 0.081214
0.658899 0.073523 0.083823
0.756031 0.077037 0.086760
0.848632 0.080856 0.090013
0.929927 0.084970 0.093572
0.077239 0.213051 0.078137
0.224957 0.214957 0.079233
0.347466 0.216712 0.081817
0.460524 0.218844 0.084726
0.567316 0.221332 0.087959
0.669310 0.224157 0.091507
0.767358 0.227306 0.095360
0.859569 0.230767 0.099512
0.940805 0.234530 0.103953
0.084586 0.339644 0.083202
0.231117 0.341871 0.084619
0.353735 0.343735 0.085804
0.467638 0.345530 0.089559
0.575241 0.347695 0.093603
0.678022 0.350207 0.097937
0.776836 0.353051 0.102557
0.868574 0.356213 0.107460
0.949747 0.359682 0.112640
0.093112 0.457684 0.089590
0.238531 0.460211 0.091306
0.360218 0.462326 0.092743
0.474309 0.464309 0.094090
0.582672 0.466171 0.098894
0.686189 0.468390 0.103965
0.785723 0.470947 0.109305
0.876894 0.473828 0.114912
0.957998 0.477022 0.120784
0.102779 0.570300 0.097205
0.247131 0.573115 0.099210
0.367925 0.575471 0.100888
0.481179 0.577680 0.102461
0.589799 0.579799 0.103969
0.694023 0.581736 0.109747
0.794247 0.584019 0.115777
0.884762 0.586631 0.122059
0.965791 0.589560 0.128595
0.113543 0.678919 0.105980
0.256861 0.682014 0.108264
0.376789 0.684603 0.110175
0.489231 0.687031 0.111968
0.597073 0.689360 0.113686
0.701617 0.691617 0.115352
0.802509 0.693634 0.122051
0.892286 0.695985 0.128988
0.973234 0.698658 0.136167
0.125364 0.784358 0.115861
0.267673 0.787725 0.118418
0.386757 0.790542 0.120557
0.498408 0.793184 0.122563
0.605490 0.795718 0.124487
0.709298 0.798174 0.126352
0.810570 0.800570 0.128171
0.899527 0.802667 0.135748
0.980387 0.805090 0.143554
0.138210 0.882833 0.126806
0.279530 0.886058 0.129630
0.397787 0.888743 0.131992
0.508662 0.891250 0.134208
0.615001 0.893645 0.136332
0.718088 0.895957 0.138392
0.818656 0.898203 0.140401
0.906527 0.900396 0.142369
0.987293 0.902262 0.150791
0.152051 0.974202 0.138779
0.292400 0.977377 0.141865
0.409844 0.980020 0.144447
0.519957 0.982486 0.146868
0.625565 0.984840 0.149190
0.727943 0.987112 0.151441
0.827821 0.989320 0.153637
0.913408 0.991473 0.155788
0.993979 0.993580 0.157902
0.071472 0.061472 0.220634
0.219191 0.063379 0.221730
0.340730 0.065672 0.221838
0.452880 0.068308 0.222425
0.558801 0.071280 0.223432
0.659950 0.074574 0.224822
0.757174 0.078181 0.226570
0.849745 0.082090 0.228659
0.931034 0.086293 0.231073
0.077886 0.213698 0.224321
0.225605 0.215605 0.225417
0.349409 0.217148 0.226282
0.463681 0.219082 0.227580
0.571638 0.221379 0.229268
0.674761 0.224020 0.231318
0.773911 0.226989 0.233710
0.866339 0.230274 0.236430
0.948415 0.233864 0.239464
0.085342 0.340401 0.227988
0.230796 0.343057 0.228327
0.354600 0.344600 0.229192
0.469718 0.346197 0.231335
0.578486 0.348171 0.233834
0.682395 0.350499 0.236670
0.782312 0.353163 0.239829
0.874330 0.356149 0.243300
0.956338 0.359445 0.247073
0.093970 0.458542 0.233065
0.237301 0.461901 0.232693
0.360174 0.463695 0.233809
0.475378 0.465378 0.234856
0.584906 0.467050 0.238115
0.689552 0.469084 0.241688
0.790188 0.471462 0.245566
0.881716 0.474167 0.249742
0.963648 0.477187 0.254207
0.103735 0.571256 0.239423
0.245030 0.575289 0.238370
0.367010 0.577325 0.239728
0.481377 0.579233 0.241000
0.591063 0.581063 0.242221
0.696417 0.582816 0.246501
0.797742 0.584919 0.251069
0.888701 0.587355 0.255920
0.970552 0.590111 0.261049
0.114594 0.679970 0.246979
0.253915 0.684656 0.245266
0.375030 0.686925 0.246857
0.488585 0.689053 0.248349
0.597493 0.691093 0.249780
0.703072 0.693072 0.251167
0.805065 0.694908 0.256403
0.895382 0.697083 0.261909
0.977145 0.699583 0.267682
0.126508 0.785501 0.255671
0.263903 0.790825 0.253315
0.384174 0.793322 0.255134
0.496937 0.795663 0.256839
0.605086 0.797909 0.258475
0.709929 0.800086 0.260060
0.812210 0.802210 0.261607
0.901812 0.804130 0.267752
0.983482 0.806380 0.274152
0.139444 0.883930 0.265451
0.274953 0.889264 0.262464
0.394397 0.891647 0.264506
0.506384 0.893872 0.266421
0.613790 0.895997 0.268257
0.717911 0.898050 0.270038
0.819488 0.900044 0.271775
0.908029 0.901990 0.273476
0.989600 0.903696 0.280491
0.153374 0.975283 0.276280
0.287030 0.980871 0.272673
0.405660 0.983212 0.274934
0.516886 0.985396 0.277055
0.623560 0.987482 0.279089
0.726974 0.989495 0.281060
0.827860 0.991451 0.282984
0.914227 0.993359 0.284868
0.995522 0.995226 0.286720
0.072214 0.062214 0.340392
0.218746 0.064441 0.341809
0.341363 0.066305 0.342994
0.453598 0.069027 0.342485
0.559601 0.072080 0.342440
0.660830 0.075454 0.342809
0.758131 0.079138 0.343563
0.850674 0.083123 0.344677
0.931960 0.087401 0.346134
0.079706 0.214010 0.345157
0.226129 0.216129 0.347972
0.349933 0.217672 0.348837
0.464291 0.219691 0.349038
0.572329 0.222070 0.349673
0.675532 0.224791 0.350703
0.774759 0.227837 0.352101
0.867151 0.231198 0.353846
0.949221 0.234862 0.355923
0.085975 0.341033 0.349145
0.231320 0.343581 0.350881
0.355124 0.345124 0.351746
0.471258 0.346555 0.352542
0.581001 0.348370 0.353747
0.685855 0.350544 0.355330
0.786693 0.353057 0.357266
0.878963 0.355895 0.359539
0.961667 0.359046 0.362135
0.094688 0.459260 0.353124
0.237911 0.462510 0.354151
0.359938 0.464642 0.354422
0.476073 0.466073 0.355217
0.586575 0.467585 0.357183
0.692167 0.469465 0.359502
0.793724 0.471692 0.362158
0.885569 0.474250 0.365135
0.968193 0.477125 0.368423
0.104535 0.572056 0.358430
0.245721 0.575980 0.358776
0.366045 0.578676 0.358477
0.481343 0.580333 0.359498
0.591922 0.581922 0.360478
0.698220 0.583521 0.363504
0.800467 0.585473 0.366849
0.891818 0.587761 0.370502
0.974356 0.590372 0.374454
0.115473 0.680849 0.364967
0.254686 0.685427 0.364652
0.373358 0.688669 0.363801
0.487844 0.690545 0.365041
0.597645 0.692344 0.366230
0.704089 0.694089 0.367384
0.807004 0.695775 0.371397
0.897796 0.697803 0.375705
0.980241 0.700157 0.380301
0.127465 0.786458 0.372664
0.264751 0.791673 0.371705
0.381812 0.795448 0.370315
0.495506 0.797538 0.371769
0.604548 0.799543 0.373164
0.710256 0.801486 0.374515
0.813382 0.803382 0.375834
0.903550 0.805155 0.380781
0.985898 0.807260 0.386004
0.140477 0.884847 0.381469
0.275877 0.890075 0.379880
0.391360 0.893891 0.377961
0.504278 0.895881 0.379625
0.612576 0.897782 0.381220
0.717563 0.899617 0.382767
0.819985 0.901401 0.384276
0.909114 0.903142 0.385754
0.991358 0.904714 0.391592
0.154481 0.976185 0.391341
0.288028 0.981667 0.389131
0.401960 0.985697 0.386694
0.514116 0.987647 0.388563
0.621684 0.989509 0.390356
0.725962 0.991306 0.392094
0.827693 0.993052 0.393789
0.914743 0.994755 0.395450
0.996644 0.996421 0.397082
0.073075 0.063075 0.450550
0.218494 0.065602 0.452267
0.340181 0.067717 0.453704
0.454272 0.069700 0.455051
0.560351 0.072830 0.454019
0.661654 0.076278 0.453432
0.759028 0.080035 0.453253
0.851545 0.084091 0.453453
0.932826 0.088439 0.454012
0.081577 0.214469 0.456326
0.226785 0.216785 0.460751
0.349658 0.218580 0.461868
0.464862 0.220262 0.462914
0.572977 0.222718 0.462564
0.676254 0.225513 0.462637
0.775554 0.228632 0.463102
0.867911 0.232064 0.463933
0.949975 0.235798 0.465112
0.088691 0.341155 0.461159
0.232822 0.343901 0.464507
0.355610 0.345610 0.466720
0.471744 0.347041 0.467515
0.581563 0.348933 0.467734
0.686492 0.351181 0.468360
0.787403 0.353767 0.469364
0.879634 0.356676 0.470723
0.962331 0.359897 0.472421
0.095362 0.459934 0.465690
0.238482 0.463082 0.468027
0.360424 0.465128 0.469395
0.476559 0.466559 0.470190
0.587975 0.467922 0.470944
0.694453 0.469657 0.472088
0.796874 0.471743 0.473597
0.889032 0.474162 0.475451
0.972303 0.476902 0.477635
0.105285 0.572806 0.470010
0.246370 0.576628 0.471666
0.366608 0.579238 0.472464
0.481145 0.581198 0.472725
0.592562 0.582562 0.473478
0.699746 0.584015 0.475330
0.802857 0.585827 0.477528
0.894593 0.587977 0.480058
0.977774 0.590452 0.482906
0.116298 0.681674 0.475590
0.255408 0.686149 0.476586
0.373995 0.689306 0.476831
0.486983 0.691778 0.476574
0.597622 0.693352 0.477538
0.704877 0.694877 0.478472
0.808657 0.696422 0.481339
0.899913 0.698311 0.484524
0.982997 0.700530 0.488016
0.128362 0.787355 0.482354
0.265547 0.792468 0.482707
0.382522 0.796158 0.482413
0.494000 0.799131 0.481650
0.603879 0.800909 0.482819
0.710398 0.802633 0.483952
0.814315 0.804315 0.485057
0.905037 0.805950 0.488881
0.988018 0.807919 0.493000
0.141445 0.885705 0.490246
0.276744 0.890833 0.489967
0.392140 0.894568 0.489146
0.502138 0.897611 0.487888
0.611273 0.899302 0.489258
0.717072 0.900935 0.490585
0.820285 0.902522 0.491880
0.909991 0.904071 0.493149
0.992864 0.905518 0.497883
0.155519 0.977030 0.499219
0.288964 0.982412 0.498321
0.402810 0.986360 0.496980
0.511354 0.989605 0.495236
0.619758 0.991258 0.496803
0.724848 0.992853 0.498322
0.827371 0.994402 0.499804
0.915088 0.995914 0.501255
0.997555 0.997393 0.502681
0.074051 0.064051 0.554268
0.218403 0.066866 0.556273
0.339197 0.069222 0.557951
0.452451 0.071431 0.559524
0.561070 0.073549 0.561032
0.662445 0.077069 0.559529
0.759889 0.080895 0.558455
0.852378 0.085020 0.557779
0.933655 0.089434 0.557477
0.083522 0.215059 0.561013
0.227566 0.217566 0.566984
0.349546 0.219601 0.568341
0.463912 0.221510 0.569614
0.573599 0.223340 0.570834
0.676947 0.226206 0.569991
0.776316 0.229395 0.569561
0.868639 0.232895 0.569516
0.950697 0.236696 0.569834
0.091447 0.341422 0.566657
0.234413 0.344358 0.571550
0.356226 0.346226 0.575056
0.471524 0.347883 0.576077
0.582103 0.349473 0.577057
0.687103 0.351792 0.576766
0.788084 0.354448 0.576875
0.880277 0.357425 0.577358
0.962966 0.360713 0.578195
0.098878 0.459898 0.571948
0.240834 0.463236 0.575831
0.361801 0.465441 0.578492
0.477022 0.467022 0.580499
0.588438 0.468385 0.581253
0.694987 0.470192 0.581480
0.797478 0.472347 0.582094
0.889596 0.474835 0.583072
0.972859 0.477641 0.584395
0.106005 0.573526 0.577023
0.246991 0.577250 0.579937
0.367148 0.579778 0.581787
0.481608 0.581661 0.583034
0.593024 0.583024 0.583787
0.701058 0.584340 0.584511
0.804998 0.586015 0.585610
0.897120 0.588033 0.587063
0.980917 0.590378 0.588853
0.117089 0.682465 0.581686
0.256101 0.686842 0.583940
0.374606 0.689917 0.585237
0.487518 0.692313 0.585966
0.597449 0.694168 0.586223
0.705483 0.695483 0.586947
0.810092 0.696892 0.588714
0.901812 0.698649 0.590822
0.985508 0.700738 0.593255
0.129222 0.788216 0.587556
0.266309 0.793231 0.589166
0.383203 0.796839 0.589924
0.494604 0.799735 0.590148
0.603086 0.802069 0.589920
0.710384 0.803583 0.590843
0.815060 0.805060 0.591743
0.906332 0.806562 0.594489
0.989920 0.808401 0.597550
0.142374 0.886527 0.594571
0.277574 0.891560 0.595550
0.392889 0.895216 0.595780
0.502810 0.898186 0.595509
0.609873 0.900622 0.594806
0.716450 0.902061 0.595924
0.820423 0.903460 0.597014
0.910704 0.904826 0.598082
0.994179 0.906153 0.601758
0.156515 0.977839 0.602683
0.289862 0.983126 0.603042
0.403626 0.986996 0.602753
0.512093 0.990167 0.601996
0.617761 0.992797 0.600827
0.723630 0.994199 0.602135
0.826911 0.995561 0.603412
0.915292 0.996889 0.604663
0.998302 0.998189 0.605892
0.075137 0.065137 0.653009
0.218455 0.068232 0.655293
0.338384 0.070822 0.657205
0.450826 0.073250 0.658997
0.558667 0.075578 0.660715
0.663212 0.077836 0.662382
0.760723 0.081729 0.660440
0.853186 0.085920 0.658914
0.934458 0.090400 0.657778
0.085548 0.215771 0.660693
0.228463 0.218463 0.668162
0.349577 0.220732 0.669753
0.463132 0.222859 0.671245
0.572041 0.224900 0.672676
0.677619 0.226878 0.674063
0.777056 0.230134 0.672765
0.869344 0.233700 0.671870
0.951396 0.237567 0.671353
0.094260 0.341822 0.667123
0.236096 0.344942 0.673514
0.356965 0.346965 0.678274
0.471450 0.348841 0.679515
0.581252 0.350640 0.680704
0.687696 0.352385 0.681857
0.788744 0.355108 0.681099
0.880899 0.358151 0.680732
0.963581 0.361504 0.680734
0.102427 0.460004 0.673152
0.243254 0.463527 0.678533
0.363276 0.465886 0.682447
0.477611 0.467611 0.685630
0.588249 0.469185 0.686593
0.695505 0.470710 0.687528
0.798064 0.472933 0.687275
0.890143 0.475486 0.687403
0.973398 0.478358 0.687891
0.110261 0.573350 0.678934
0.250118 0.577259 0.683346
0.369330 0.579941 0.686449
0.482904 0.581969 0.688871
0.593471 0.583471 0.690752
0.701505 0.584786 0.691476
0.805513 0.586530 0.691708
0.897596 0.588613 0.692311
0.981383 0.591023 0.693265
0.117855 0.683231 0.684539
0.256773 0.687514 0.688011
0.375198 0.690509 0.690328
0.488036 0.692831 0.692014
0.597896 0.694614 0.693188
0.705930 0.695930 0.693912
0.811342 0.697208 0.694613
0.903530 0.698836 0.695676
0.987817 0.700798 0.697083
0.130056 0.789050 0.689542
0.267048 0.793970 0.692370
0.383863 0.797499 0.694148
0.495189 0.800320 0.695328
0.603600 0.802583 0.696017
0.710230 0.804364 0.696271
0.815642 0.805642 0.696973
0.907466 0.807015 0.698675
0.991642 0.808728 0.700710
0.143274 0.887322 0.695707
0.278380 0.892264 0.697904
0.393615 0.895843 0.699155
0.503462 0.898743 0.699840
0.610454 0.901111 0.700054
0.715707 0.903024 0.699848
0.820416 0.904242 0.700739
0.911275 0.905430 0.701612
0.995334 0.906642 0.704262
0.157480 0.978622 0.702984
0.290733 0.983817 0.704562
0.404417 0.987610 0.705293
0.512810 0.990711 0.705492
0.618407 0.993274 0.705240
0.722308 0.995376 0.704581
0.826326 0.996557 0.705659
0.915372 0.997708 0.706715
0.998908 0.998835 0.707753
0.076331 0.066331 0.747624
0.218640 0.069698 0.750181
0.337724 0.072515 0.752320
0.449374 0.075157 0.754326
0.556457 0.077691 0.756249
0.660265 0.080147 0.758114
0.761537 0.082543 0.759934
0.853972 0.086798 0.757579
0.935240 0.091341 0.755628
0.087658 0.216600 0.756225
0.229471 0.219471 0.765155
0.349741 0.221968 0.766974
0.462505 0.224309 0.768679
0.570654 0.226555 0.770315
0.675496 0.228732 0.771901
0.777777 0.230856 0.773448
0.870031 0.234486 0.771724
0.952077 0.238416 0.770393
0.097136 0.342345 0.763421
0.237872 0.345645 0.771274
0.357818 0.347818 0.777257
0.471512 0.349908 0.778711
0.580554 0.351913 0.780106
0.686262 0.353856 0.781458
0.789387 0.355751 0.782776
0.881505 0.358859 0.781581
0.964180 0.362276 0.780768
0.106023 0.460241 0.770169
0.245748 0.463943 0.777011
0.364849 0.466453 0.782149
0.478319 0.468319 0.786478
0.588198 0.470098 0.787647
0.694718 0.471822 0.788780
0.798635 0.473504 0.789885
0.890676 0.476122 0.789184
0.973922 0.479057 0.788858
0.114547 0.573312 0.776641
0.253302 0.577401 0.782514
0.371592 0.580234 0.786840
0.484302 0.582403 0.790409
0.594040 0.584040 0.793390
0.701338 0.585554 0.794312
0.806014 0.587031 0.795213
0.898061 0.589179 0.794987
0.981838 0.591652 0.795127
0.122809 0.682927 0.782915
0.260625 0.687390 0.787848
0.378129 0.690536 0.791388
0.490102 0.692998 0.794220
0.599133 0.694917 0.796494
0.706364 0.696364 0.798284
0.811776 0.697642 0.798985
0.903930 0.699335 0.799219
0.988206 0.701360 0.799812
0.130870 0.789864 0.789035
0.267770 0.794691 0.793052
0.384506 0.798142 0.795825
0.495760 0.800891 0.797938
0.604102 0.803085 0.799522
0.710664 0.804798 0.800643
0.816076 0.806076 0.801345
0.908458 0.807324 0.802028
0.993206 0.808913 0.803062
0.144152 0.888097 0.794372
0.279166 0.892949 0.797758
0.394324 0.896454 0.800003
0.504098 0.899285 0.801621
0.611020 0.901588 0.802730
0.716206 0.903438 0.803391
0.820275 0.904883 0.803644
0.911719 0.905899 0.804327
0.996346 0.906999 0.805976
0.158422 0.979384 0.800835
0.291582 0.984490 0.803601
0.405189 0.988209 0.805327
0.513509 0.991241 0.806459
0.619036 0.993738 0.807101
0.722870 0.995777 0.807310
0.825621 0.997407 0.807121
0.915339 0.998387 0.807987
0.999386 0.999345 0.808838
0.077628 0.067628 0.838672
0.218948 0.071262 0.841189
0.337205 0.074302 0.843289
0.448080 0.077154 0.845265
0.554418 0.079888 0.847167
0.657505 0.082539 0.849017
0.758074 0.085125 0.850828
0.854742 0.087658 0.852607
0.936005 0.092264 0.850116
0.089853 0.217539 0.847143
0.230586 0.220586 0.856489
0.350030 0.223307 0.858342
0.462017 0.225858 0.860087
0.569423 0.228304 0.861765
0.673544 0.230676 0.863398
0.775121 0.232989 0.864996
0.870704 0.235256 0.866566
0.952744 0.239247 0.864645
0.100082 0.342985 0.854315
0.239739 0.346461 0.862752
0.358782 0.348782 0.869304
0.471700 0.351081 0.870848
0.579999 0.353287 0.872335
0.684986 0.355424 0.873780
0.787407 0.357510 0.875195
0.882098 0.359553 0.876586
0.964766 0.363032 0.875146
0.109674 0.460600 0.861121
0.248319 0.464479 0.868696
0.366517 0.467136 0.874521
0.479141 0.469141 0.879554
0.588276 0.471120 0.880856
0.694075 0.473039 0.882122
0.797288 0.474911 0.883361
0.891197 0.476745 0.884579
0.974435 0.479742 0.883593
0.118873 0.573403 0.867723
0.256549 0.577668 0.874462
0.373936 0.580648 0.879583
0.485799 0.582955 0.883951
0.594725 0.584725 0.887745
0.701302 0.586434 0.888835
0.805275 0.588101 0.889902
0.898515 0.589734 0.890950
0.982282 0.592269 0.890401
0.127790 0.682757 0.874192
0.264527 0.687396 0.880113
0.381128 0.690689 0.884543
0.492254 0.693290 0.888260
0.600473 0.695342 0.891426
0.706917 0.696917 0.894120
0.811625 0.698385 0.895016
0.904321 0.699823 0.895897
0.988586 0.701911 0.895774
0.136490 0.789439 0.880569
0.272311 0.794443 0.885684
0.388144 0.798041 0.889434
0.498552 0.800929 0.892509
0.606081 0.803255 0.895055
0.711856 0.805096 0.897146
0.816500 0.806500 0.898825
0.908789 0.807748 0.899538
0.993526 0.809399 0.899834
0.145013 0.888856 0.886879
0.279935 0.893620 0.891196
0.395018 0.897053 0.894273
0.504720 0.899816 0.896714
0.611574 0.902055 0.898648
0.716694 0.903843 0.900141
0.820699 0.905228 0.901234
0.912046 0.906243 0.901955
0.997230 0.907234 0.902663
0.159344 0.980130 0.892355
0.292414 0.985149 0.896124
0.405945 0.988795 0.898739
0.514194 0.991760 0.900743
0.619653 0.994193 0.902255
0.723420 0.996170 0.903336
0.826107 0.997740 0.904024
0.915200 0.998937 0.904346
0.999748 0.999731 0.905061
0.079025 0.069025 0.917396
0.219374 0.072921 0.920290
0.336818 0.076181 0.922722
0.446931 0.079238 0.925009
0.552539 0.082170 0.927210
0.654917 0.085012 0.929351
0.754795 0.087785 0.931445
0.851216 0.090501 0.933503
0.936756 0.093170 0.935531
0.092132 0.218585 0.927182
0.231806 0.221806 0.937963
0.350436 0.224746 0.940153
0.461662 0.227502 0.942212
0.568336 0.230146 0.944194
0.671749 0.232709 0.946121
0.772635 0.235209 0.948006
0.867904 0.237658 0.949858
0.953398 0.240065 0.951683
0.103100 0.343737 0.935477
0.241696 0.347386 0.945358
0.359852 0.349852 0.953122
0.472009 0.352357 0.954985
0.579576 0.354760 0.956777
0.683854 0.357089 0.958520
0.785585 0.359361 0.960226
0.879897 0.361587 0.961901
0.965341 0.363774 0.963552
0.113384 0.461076 0.943344
0.250969 0.465129 0.952370
0.368279 0.467931 0.959413
0.480071 0.470071 0.965591
0.588476 0.472248 0.967202
0.693566 0.474358 0.968768
0.796088 0.476417 0.970301
0.889549 0.478433 0.971806
0.974938 0.480415 0.973290
0.123246 0.573615 0.950969
0.259862 0.578053 0.959167
0.376362 0.581178 0.965511
0.487394 0.583621 0.971030
0.595522 0.585522 0.975930
0.701390 0.587422 0.977323
0.804672 0.589275 0.978686
0.897389 0.591091 0.980025
0.982718 0.592875 0.981343
0.132807 0.682713 0.958435
0.268484 0.687525 0.965822
0.384198 0.690963 0.971482
0.494492 0.693700 0.976355
0.601913 0.695882 0.980632
0.707583 0.697583 0.984406
0.811601 0.699238 0.985601
0.903695 0.700859 0.986775
0.988959 0.702452 0.987931
0.142135 0.789145 0.965791
0.276895 0.794322 0.972378
0.391842 0.798065 0.977363
0.501417 0.801088 0.981600
0.608149 0.803545 0.985263
0.713150 0.805513 0.988439
0.817039 0.807039 0.991179
0.908644 0.808471 0.992188
0.993839 0.809877 0.993182
0.151273 0.888337 0.973065
0.285135 0.893258 0.978861
0.399330 0.896821 0.983180
0.508201 0.899706 0.986787
0.614257 0.902061 0.989842
0.718603 0.903963 0.992425
0.821854 0.905458 0.994584
0.912366 0.906580 0.996352
0.997486 0.907570 0.997184
0.160251 0.980863 0.980278
0.293231 0.985795 0.985289
0.406688 0.989370 0.988946
0.514867 0.992269 0.991929
0.620259 0.994638 0.994382
0.723961 0.996556 0.996378
0.826584 0.998067 0.997960
0.915516 0.999207 0.999160
1.000000 1.000000 1.000000
