library/luts/pastel_soft.cube
# CrabbyCut preset LUT — sinh bởi scripts/generate_preset_luts.js
TITLE "Pastel dịu"
LUT_3D_SIZE 5
0.070825 0.060825 0.074450
0.339974 0.064915 0.077052
0.557845 0.070324 0.081214
0.756031 0.077037 0.086760
0.929927 0.084970 0.093572
0.084586 0.339644 0.083202
0.353735 0.343735 0.085804
0.575241 0.347695 0.093603
0.776836 0.353051 0.102557
0.949747 0.359682 0.112640
0.102779 0.570300 0.097205
0.367925 0.575471 0.100888
0.589799 0.579799 0.103969
0.794247 0.584019 0.115777
0.965791 0.589560 0.128595
0.125364 0.784358 0.115861
0.386757 0.790542 0.120557
0.605490 0.795718 0.124487
0.810570 0.800570 0.128171
0.980387 0.805090 0.143554
0.152051 0.974202 0.138779
0.409844 0.980020 0.144447
0.625565 0.984840 0.149190
0.827821 0.989320 0.153637
0.993979 0.993580 0.157902
0.072214 0.062214 0.340392
0.341363 0.066305 0.342994
0.559601 0.072080 0.342440
0.758131 0.079138 0.343563
0.931960 0.087401 0.346134
0.085975 0.341033 0.349145
0.355124 0.345124 0.351746
0.581001 0.348370 0.353747
0.786693 0.353057 0.357266
0.961667 0.359046 0.362135
0.104535 0.572056 0.358430
0.366045 0.578676 0.358477
0.591922 0.581922 0.360478
0.800467 0.585473 0.366849
0.974356 0.590372 0.374454
0.127465 0.786458 0.372664
0.381812 0.795448 0.370315
0.604548 0.799543 0.373164
0.813382 0.803382 0.375834
0.985898 0.807260 0.386004
0.154481 0.976185 0.391341
0.401960 0.985697 0.386694
0.621684 0.989509 0.390356
0.827693 0.993052 0.393789
0.996644 0.996421 0.397082
0.074051 0.064051 0.554268
0.339197 0.069222 0.557951
0.561070 0.073549 0.561032
0.759889 0.080895 0.558455
0.933655 0.089434 0.557477
0.091447 0.341422 0.566657
0.356226 0.346226 0.575056
0.582103 0.349473 0.577057
0.788084 0.354448 0.576875
0.962966 0.360713 0.578195
0.106005 0.573526 0.577023
0.367148 0.579778 0.581787
0.593024 0.583024 0.583787
0.804998 0.586015 0.585610
0.980917 0.590378 0.588853
0.129222 0.788216 0.587556
0.383203 0.796839 0.589924
0.603086 0.802069 0.589920
0.815060 0.805060 0.591743
0.989920 0.808401 0.597550
0.156515 0.977839 0.602683
0.403626 0.986996 0.602753
0.617761 0.992797 0.600827
0.826911 0.995561 0.603412
0.998302 0.998189 0.605892
0.076331 0.066331 0.747624
0.337724 0.072515 0.752320
0.556457 0.077691 0.756249
0.761537 0.082543 0.759934
0.935240 0.091341 0.755628
0.097136 0.342345 0.763421
0.357818 0.347818 0.777257
0.580554 0.351913 0.780106
0.789387 0.355751 0.782776
0.964180 0.362276 0.780768
0.114547 0.573312 0.776641
0.371592 0.580234 0.786840
0.594040 0.584040 0.793390
0.806014 0.587031 0.795213
0.981838 0.591652 0.795127
0.130870 0.789864 0.789035
0.384506 0.798142 0.795825
0.604102 0.803085 0.799522
0.816076 0.806076 0.801345
0.993206 0.808913 0.803062
0.158422 0.979384 0.800835
0.405189 0.988209 0.805327
0.619036 0.993738 0.807101
0.825621 0.997407 0.807121
0.999386 0.999345 0.808838
0.079025 0.069025 0.917396
0.336818 0.076181 0.922722
0.552539 0.082170 0.927210
0.754795 0.087785 0.931445
0.936756 0.093170 0.935531
0.103100 0.343737 0.935477
0.359852 0.349852 0.953122
0.579576 0.354760 0.956777
0.785585 0.359361 0.960226
0.965341 0.363774 0.963552
0.123246 0.573615 0.950969
0.376362 0.581178 0.965511
0.595522 0.585522 0.975930
0.804672 0.589275 0.978686
0.982718 0.592875 0.981343
0.142135 0.789145 0.965791
0.391842 0.798065 0.977363
0.608149 0.803545 0.985263
0.817039 0.807039 0.991179
0.993839 0.809877 0.993182
0.160251 0.980863 0.980278
0.406688 0.989370 0.988946
0.620259 0.994638 0.994382
0.826584 0.998067 0.997960
1.000000 1.000000 1.000000
