library/luts/porcelain.cube
# CrabbyCut preset LUT — sinh bởi scripts/generate_preset_luts.js
TITLE "Sứ"
LUT_3D_SIZE 9
0.064066 0.091528 0.183086
0.175996 0.116314 0.203251
0.298946 0.128697 0.212209
0.418170 0.137536 0.217965
0.535184 0.144271 0.221821
0.650649 0.149534 0.224345
0.764935 0.153675 0.225857
0.878278 0.156918 0.226557
0.879180 0.155616 0.225335
0.105017 0.248939 0.219551
0.211534 0.255085 0.222874
0.331644 0.259073 0.218225
0.456114 0.260345 0.213336
0.576640 0.261280 0.211756
0.696430 0.261515 0.209543
0.815587 0.261148 0.206787
0.934194 0.260257 0.203556
0.941797 0.257211 0.200585
0.121573 0.373615 0.226439
0.228621 0.376303 0.226637
0.340685 0.378330 0.226238
0.459530 0.379245 0.208939
0.584876 0.377181 0.195046
0.705325 0.374995 0.190582
0.825353 0.372410 0.185755
0.945000 0.369462 0.180602
0.964836 0.365232 0.176287
0.130686 0.488938 0.224875
0.237512 0.489724 0.223355
0.347823 0.490083 0.221449
0.457728 0.490056 0.219195
0.575218 0.489711 0.192890
0.699170 0.486337 0.173094
0.818039 0.482648 0.167271
0.936620 0.478687 0.161202
0.972190 0.473680 0.155849
0.134959 0.598708 0.218294
0.241215 0.598210 0.215615
0.350299 0.597402 0.212654
0.459081 0.596306 0.209434
0.567582 0.594945 0.205974
0.684349 0.593939 0.171205
0.807442 0.589764 0.145966
0.925191 0.585010 0.139180
0.979342 0.579445 0.132935
0.135501 0.704590 0.208201
0.241176 0.703136 0.204657
0.349327 0.701440 0.200895
0.457239 0.699518 0.196927
0.564928 0.697382 0.192768
0.672405 0.695046 0.188427
0.788781 0.693696 0.145481
0.911309 0.689001 0.115051
0.986328 0.683030 0.108007
0.132921 0.807514 0.195435
0.238238 0.805304 0.191208
0.345642 0.802898 0.186804
0.452850 0.800306 0.182231
0.559873 0.797537 0.177499
0.666720 0.794600 0.172616
0.773398 0.791504 0.167588
0.889586 0.790003 0.116639
0.993176 0.784785 0.081390
0.127593 0.902036 0.180526
0.232950 0.899340 0.175738
0.339735 0.896506 0.170802
0.446354 0.893540 0.165723
0.552816 0.890451 0.160509
0.659127 0.887245 0.155166
0.765294 0.883927 0.149698
0.870445 0.880504 0.144111
0.983348 0.879109 0.091200
0.116325 0.967118 0.162886
0.222768 0.970105 0.157869
0.330054 0.973073 0.152729
0.437217 0.976022 0.147471
0.544069 0.977652 0.143365
0.650027 0.973976 0.144300
0.755859 0.970208 0.145230
0.860120 0.966353 0.146155
0.960243 0.962414 0.147075
0.073743 0.103868 0.302228
0.181414 0.121086 0.315555
0.302815 0.131995 0.323182
0.421182 0.140019 0.328201
0.537615 0.146202 0.331558
0.652647 0.151053 0.333711
0.766592 0.154868 0.334928
0.879652 0.157843 0.335386
0.880872 0.156334 0.333965
0.107185 0.251200 0.329586
0.213795 0.256854 0.332464
0.328402 0.261300 0.334251
0.442005 0.264791 0.335175
0.554782 0.267496 0.335390
0.666861 0.269538 0.335004
0.778339 0.271006 0.334101
0.889287 0.271972 0.332744
0.897127 0.268999 0.329835
0.122766 0.374609 0.335329
0.229819 0.377061 0.335314
0.341670 0.378885 0.334732
0.458054 0.379329 0.326881
0.579375 0.377605 0.319285
0.697181 0.375952 0.315367
0.814581 0.373913 0.311100
0.931612 0.371523 0.306515
0.952360 0.367344 0.302229
0.131312 0.489256 0.333155
0.238090 0.489892 0.331499
0.348258 0.490115 0.329471
0.458034 0.489966 0.327106
0.574835 0.488936 0.308050
0.698335 0.485116 0.292570
0.817104 0.481333 0.286662
0.935593 0.477282 0.280512
0.972921 0.472211 0.275064
0.135170 0.598575 0.326167
0.241364 0.597969 0.323390
0.350342 0.597061 0.320339
0.459027 0.595873 0.317035
0.567438 0.594425 0.313497
0.683548 0.592766 0.286005
0.806219 0.588173 0.265108
0.923893 0.583348 0.258258
0.980054 0.577736 0.251928
0.135375 0.704125 0.315773
0.241001 0.702587 0.312153
0.349068 0.700812 0.308320
0.456903 0.698816 0.304286
0.564519 0.696611 0.300063
0.671927 0.694209 0.295663
0.787666 0.692225 0.260011
0.909789 0.687128 0.233938
0.987025 0.681122 0.226817
0.132502 0.806787 0.302770
0.237804 0.804509 0.298482
0.345140 0.802038 0.294019
0.452284 0.799385 0.289392
0.559246 0.796558 0.284607
0.666035 0.793566 0.279674
0.772658 0.790418 0.274599
0.888221 0.788294 0.230955
0.993460 0.782709 0.200044
0.126913 0.901136 0.287668
0.232302 0.898393 0.282828
0.339029 0.895513 0.277843
0.445594 0.892505 0.272718
0.552004 0.889375 0.267459
0.658266 0.886130 0.262073
0.764385 0.882776 0.256564
0.869401 0.879318 0.250938
0.981405 0.877339 0.199415
0.115704 0.968135 0.269947
0.222285 0.971115 0.264887
0.329529 0.974077 0.259706
0.436651 0.977020 0.254410
0.543077 0.976378 0.248861
0.648881 0.972604 0.243082
0.754561 0.968738 0.237196
0.858689 0.964785 0.231206
0.958531 0.960749 0.225117
0.079493 0.110980 0.416647
0.186169 0.125227 0.427289
0.306347 0.134973 0.433865
0.423975 0.142293 0.438249
0.539887 0.147981 0.441158
0.654521 0.152453 0.442969
0.768146 0.155965 0.443912
0.880942 0.158688 0.444142
0.882554 0.156985 0.442534
0.109216 0.253276 0.439455
0.215911 0.258484 0.441930
0.330152 0.262582 0.443403
0.443458 0.265791 0.444072
0.555986 0.268259 0.444072
0.667851 0.270097 0.443502
0.779141 0.271388 0.442438
0.889925 0.272196 0.440939
0.898725 0.269120 0.437915
0.123890 0.375518 0.444143
0.230941 0.377746 0.443926
0.342588 0.379376 0.443169
0.453687 0.380485 0.441940
0.564300 0.381132 0.440294
0.674478 0.381365 0.438275
0.784264 0.381224 0.435917
0.893691 0.380742 0.433252
0.914212 0.376934 0.429314
0.131891 0.489521 0.441387
0.238618 0.490012 0.439600
0.348649 0.490105 0.437454
0.458300 0.489836 0.434981
0.572712 0.488404 0.425435
0.692247 0.484981 0.416304
0.808424 0.481778 0.410986
0.924327 0.478316 0.405432
0.962535 0.473425 0.400134
0.135344 0.598405 0.434006
0.241476 0.597694 0.431133
0.350352 0.596688 0.427994
0.458941 0.595409 0.424609
0.567264 0.593877 0.420994
0.682720 0.591568 0.400782
0.804969 0.586558 0.384228
0.922570 0.581663 0.377315
0.980764 0.576006 0.370902
0.135217 0.703630 0.423319
0.240796 0.702010 0.419625
0.348783 0.700158 0.415722
0.456542 0.698090 0.411623
0.564086 0.695817 0.407339
0.671427 0.693351 0.402880
0.786529 0.690733 0.374523
0.908248 0.685235 0.352807
0.987721 0.679196 0.345610
0.132057 0.806035 0.410084
0.237346 0.803691 0.405735
0.344616 0.801157 0.401216
0.451697 0.798444 0.396534
0.558599 0.795560 0.391698
0.665331 0.792514 0.386716
0.771900 0.789314 0.381594
0.886839 0.786569 0.345255
0.993679 0.780617 0.318683
0.126209 0.900220 0.394791
0.231633 0.897429 0.389901
0.338305 0.894505 0.384867
0.444817 0.891455 0.379696
0.551176 0.888286 0.374394
0.657388 0.885003 0.368965
0.763460 0.881613 0.363416
0.868350 0.878121 0.357751
0.979492 0.875592 0.313541
0.115062 0.969149 0.376992
0.221788 0.972123 0.371891
0.328989 0.975078 0.366671
0.436071 0.978015 0.361336
0.542091 0.975107 0.355661
0.647852 0.971301 0.349845
0.753491 0.967405 0.343923
0.857575 0.963424 0.337899
0.957144 0.959360 0.331777
0.084137 0.116599 0.529716
0.190420 0.128889 0.538591
0.309594 0.137679 0.544303
0.426573 0.144382 0.548129
0.542013 0.149621 0.550632
0.656280 0.153744 0.552127
0.769606 0.156971 0.552814
0.882151 0.159456 0.552829
0.884225 0.157572 0.551044
0.111121 0.255187 0.549174
0.217893 0.259987 0.551281
0.331795 0.263763 0.552462
0.444821 0.266706 0.552891
0.557113 0.268949 0.552688
0.668774 0.270593 0.551943
0.779886 0.271713 0.550725
0.890510 0.272371 0.549089
0.900315 0.269197 0.545955
0.124949 0.376347 0.552885
0.231991 0.378362 0.552475
0.343444 0.379808 0.551551
0.454371 0.380754 0.550176
0.564832 0.381255 0.548399
0.674872 0.381357 0.546261
0.784532 0.381097 0.543796
0.893845 0.380506 0.541032
0.915745 0.376648 0.537019
0.132425 0.489735 0.549573
0.239098 0.490086 0.547660
0.348996 0.490052 0.545399
0.458526 0.489669 0.542823
0.567719 0.488965 0.539956
0.676602 0.487966 0.536824
0.785198 0.486694 0.533444
0.893528 0.485168 0.529835
0.930682 0.480991 0.525219
0.135483 0.598198 0.541811
0.241552 0.597384 0.538846
0.350328 0.596283 0.535621
0.458825 0.594917 0.532156
0.567062 0.593302 0.528468
0.680162 0.590622 0.517794
0.798476 0.586037 0.507613
0.913510 0.581748 0.501313
0.972413 0.576410 0.495180
0.135029 0.703107 0.530838
0.240563 0.701406 0.527072
0.348471 0.699480 0.523101
0.456156 0.697340 0.518938
0.563630 0.695000 0.514594
0.670904 0.692471 0.510078
0.785371 0.689222 0.489016
0.906687 0.683323 0.471659
0.988416 0.677252 0.464386
0.131584 0.805261 0.517377
0.236865 0.802851 0.512969
0.344069 0.800255 0.508393
0.451089 0.797483 0.503659
0.557932 0.794543 0.498773
0.664608 0.791444 0.493742
0.771123 0.788193 0.488574
0.885356 0.784828 0.459541
0.993897 0.778509 0.437309
0.125479 0.899288 0.501897
0.230946 0.896451 0.496958
0.337562 0.893483 0.491876
0.444021 0.890392 0.486660
0.550330 0.887183 0.481314
0.656494 0.883864 0.475844
0.762520 0.880438 0.470255
0.867292 0.876912 0.464552
0.977575 0.873836 0.427655
0.114398 0.970161 0.484024
0.221276 0.973129 0.478881
0.328436 0.976078 0.473621
0.435245 0.977569 0.468192
0.541090 0.973825 0.462448
0.646809 0.969988 0.456596
0.752407 0.966063 0.450639
0.856455 0.962053 0.444581
0.955754 0.957963 0.438426
0.088129 0.121331 0.641984
0.194269 0.132168 0.649546
0.312593 0.140150 0.654528
0.428995 0.146305 0.657859
0.544004 0.151133 0.659991
0.657930 0.154931 0.661193
0.770976 0.157892 0.661638
0.883284 0.160152 0.661450
0.885887 0.158097 0.659497
0.112912 0.256947 0.658757
0.219752 0.261374 0.660526
0.333338 0.264848 0.661436
0.446101 0.267540 0.661638
0.558168 0.269570 0.661242
0.669635 0.271029 0.660330
0.780574 0.271986 0.658964
0.891045 0.272498 0.657196
0.901899 0.269233 0.653957
0.125946 0.377101 0.661558
0.232972 0.378913 0.660966
0.344239 0.380182 0.659882
0.455002 0.380971 0.658365
0.565315 0.381332 0.656461
0.675222 0.381307 0.654209
0.784761 0.380932 0.651639
0.893962 0.380235 0.648780
0.917273 0.376331 0.644696
0.132914 0.489900 0.657715
0.239531 0.490116 0.655680
0.349300 0.489960 0.653308
0.458713 0.489464 0.650630
0.567798 0.488657 0.647671
0.676581 0.487563 0.644453
0.785085 0.486203 0.640994
0.893327 0.484595 0.637310
0.932167 0.480401 0.632643
0.135586 0.597955 0.649585
0.241594 0.597041 0.646529
0.350273 0.595848 0.643220
0.458679 0.594395 0.639678
0.566831 0.592701 0.635917
0.674745 0.590779 0.631950
0.782434 0.588645 0.627792
0.889913 0.586310 0.623452
0.946681 0.582066 0.618375
0.134810 0.702556 0.638333
0.240303 0.700777 0.634496
0.348134 0.698776 0.630458
0.455745 0.696568 0.626232
0.563150 0.694162 0.621829
0.670359 0.691571 0.617257
0.782491 0.687969 0.605751
0.899888 0.682512 0.594782
0.982052 0.676906 0.587930
0.131083 0.804464 0.624649
0.236361 0.801990 0.620183
0.343502 0.799333 0.615553
0.450461 0.796503 0.610766
0.557246 0.793509 0.605830
0.663866 0.790357 0.600752
0.770329 0.787055 0.595539
0.883785 0.783070 0.573812
0.994113 0.776386 0.555920
0.124724 0.898340 0.608986
0.230239 0.895457 0.603998
0.336802 0.892447 0.598870
0.443209 0.889315 0.593609
0.549468 0.886068 0.588220
0.655584 0.882712 0.582709
0.761564 0.879252 0.577081
0.866226 0.875693 0.571340
0.975655 0.872069 0.541756
0.113714 0.971171 0.591041
0.220749 0.974132 0.585858
0.327869 0.977075 0.580559
0.434273 0.976308 0.575004
0.540075 0.972532 0.569223
0.645752 0.968665 0.563334
0.751309 0.964710 0.557343
0.855331 0.960673 0.551251
0.954359 0.956556 0.545064
0.091664 0.125442 0.753691
0.197784 0.135130 0.760215
0.315374 0.142414 0.764566
0.431259 0.148075 0.767451
0.545872 0.152527 0.769244
0.659480 0.156023 0.770172
0.772261 0.158733 0.770390
0.884344 0.160778 0.770008
0.887539 0.158564 0.767896
0.114599 0.258571 0.768216
0.221496 0.262651 0.769673
0.334786 0.265843 0.770327
0.447300 0.268299 0.770316
0.559154 0.270126 0.769736
0.670434 0.271407 0.768664
0.781208 0.272207 0.767157
0.891532 0.272578 0.765262
0.903477 0.269228 0.761921
0.126882 0.377782 0.770166
0.233887 0.379402 0.769400
0.344976 0.380501 0.768163
0.455581 0.381140 0.766510
0.565751 0.381365 0.764484
0.675530 0.381218 0.762120
0.784950 0.380730 0.759449
0.894043 0.379931 0.756497
0.918797 0.375984 0.752344
0.133361 0.490017 0.765813
0.239919 0.490103 0.763660
0.349564 0.489828 0.761182
0.458862 0.489224 0.758406
0.567842 0.488317 0.755357
0.676528 0.487130 0.752054
0.784941 0.485684 0.748517
0.893099 0.483995 0.744761
0.933649 0.479786 0.740046
0.135653 0.597677 0.757326
0.241601 0.596666 0.754183
0.350186 0.595383 0.750793
0.458504 0.593846 0.747174
0.566573 0.592073 0.743342
0.674409 0.590078 0.739309
0.782026 0.587874 0.735088
0.889436 0.585473 0.730689
0.948128 0.581235 0.725578
0.134562 0.701977 0.745803
0.240016 0.700121 0.741896
0.347771 0.698049 0.737794
0.455311 0.695772 0.733506
0.562648 0.693302 0.729045
0.669794 0.690650 0.724418
0.776757 0.687824 0.719635
0.883546 0.684834 0.714703
0.962300 0.680737 0.709316
0.130557 0.803645 0.731902
0.235836 0.801107 0.727379
0.342914 0.798391 0.722694
0.449812 0.795504 0.717856
0.556541 0.792455 0.712871
0.663107 0.789252 0.707747
0.769518 0.785901 0.702489
0.880516 0.781575 0.690328
0.989299 0.775333 0.678771
0.123945 0.897376 0.716058
0.229514 0.894449 0.711021
0.336023 0.891397 0.705848
0.442379 0.888225 0.700543
0.548589 0.884940 0.695112
0.654658 0.881548 0.689561
0.760593 0.878054 0.683894
0.865153 0.874463 0.678115
0.973732 0.870292 0.655846
0.113010 0.972179 0.698044
0.220209 0.975134 0.692821
0.327289 0.978071 0.687484
0.433286 0.975036 0.681803
0.539045 0.971229 0.675985
0.644681 0.967331 0.670061
0.750198 0.963348 0.664035
0.854202 0.959283 0.657911
0.952961 0.955140 0.651691
0.094852 0.129080 0.864971
0.201016 0.137822 0.870640
0.317961 0.144493 0.874437
0.433377 0.149708 0.876919
0.547624 0.153812 0.878397
0.660934 0.157025 0.879070
0.773466 0.159497 0.879073
0.885335 0.161338 0.878507
0.889182 0.158975 0.876244
0.116187 0.260067 0.877561
0.223133 0.263826 0.878727
0.336144 0.266754 0.879143
0.448423 0.268985 0.878929
0.560074 0.270619 0.878174
0.671175 0.271730 0.876948
0.781791 0.272379 0.875305
0.891971 0.272614 0.873287
0.905048 0.269184 0.869850
0.127762 0.378395 0.878713
0.234740 0.379830 0.877780
0.345658 0.380767 0.876396
0.456110 0.381260 0.874612
0.566143 0.381355 0.872467
0.675796 0.381089 0.869996
0.785102 0.380492 0.867227
0.894090 0.379593 0.864184
0.920315 0.375606 0.859965
0.133765 0.490089 0.873871
0.240264 0.490048 0.871604
0.349787 0.489658 0.869021
0.458974 0.488949 0.866150
0.567852 0.487944 0.863012
0.676443 0.486667 0.859629
0.784767 0.485137 0.856015
0.892842 0.483369 0.852188
0.935126 0.479148 0.847427
0.135687 0.597366 0.865037
0.241576 0.596260 0.861808
0.350068 0.594888 0.858339
0.458300 0.593270 0.854646
0.566288 0.591420 0.850744
0.674048 0.589352 0.846646
0.781593 0.587080 0.842363
0.888935 0.584615 0.837906
0.949572 0.580384 0.832763
0.134284 0.701372 0.853249
0.239703 0.699441 0.849274
0.347384 0.697298 0.845108
0.454854 0.694955 0.840760
0.562124 0.692422 0.836242
0.669207 0.689709 0.831561
0.776110 0.686827 0.826726
0.882842 0.683782 0.821745
0.963715 0.679708 0.816336
0.130003 0.802804 0.839134
0.235289 0.800205 0.834556
0.342305 0.797429 0.829818
0.449145 0.794487 0.824929
0.555817 0.791385 0.819896
0.662330 0.788130 0.814726
0.768689 0.784731 0.809424
0.874439 0.781192 0.803996
0.975182 0.777404 0.798410
0.123142 0.896396 0.823113
0.228771 0.893426 0.818030
0.335227 0.890333 0.812811
0.441533 0.887122 0.807462
0.547694 0.883800 0.801990
0.653717 0.880373 0.796399
0.759607 0.876845 0.790694
0.864074 0.873222 0.784878
0.970172 0.868757 0.772181
0.112497 0.973184 0.805033
0.219655 0.976133 0.799771
0.326441 0.977500 0.794335
0.432284 0.973754 0.788589
0.538001 0.969915 0.782735
0.643596 0.965988 0.776776
0.749074 0.961977 0.770716
0.853068 0.957885 0.764559
0.951559 0.953716 0.758308
0.097762 0.132340 0.942852
0.204002 0.140281 0.945136
0.320375 0.146406 0.946759
0.435361 0.151213 0.947880
0.549269 0.154994 0.948591
0.662299 0.157941 0.948951
0.774595 0.160188 0.948998
0.886260 0.161835 0.948762
0.890817 0.159332 0.947333
0.117685 0.261447 0.948183
0.224670 0.264906 0.948761
0.337419 0.267584 0.949002
0.449474 0.269603 0.948943
0.560930 0.271051 0.948610
0.671861 0.272000 0.948021
0.782323 0.272503 0.947192
0.892366 0.272607 0.946135
0.906614 0.269102 0.943927
0.128586 0.378942 0.948853
0.235532 0.380201 0.948424
0.346286 0.380982 0.947746
0.456590 0.381335 0.946833
0.566490 0.381303 0.945695
0.676022 0.380922 0.944342
0.785217 0.380219 0.942782
0.894102 0.379222 0.941021
0.921829 0.375200 0.938225
0.134128 0.490116 0.946444
0.240566 0.489953 0.945227
0.349972 0.489452 0.943798
0.459051 0.488639 0.942164
0.567829 0.487540 0.940331
0.676327 0.486175 0.938304
0.784565 0.484562 0.936087
0.892559 0.482717 0.933685
0.936600 0.478487 0.930423
0.135687 0.597021 0.941519
0.241519 0.595823 0.939615
0.349920 0.594366 0.937519
0.458067 0.592667 0.935234
0.565977 0.590741 0.932765
0.673662 0.588603 0.930115
0.781137 0.586264 0.927287
0.888413 0.583736 0.924283
0.951012 0.579514 0.920631
0.133976 0.700741 0.934357
0.239364 0.698737 0.931821
0.346972 0.696524 0.929106
0.454373 0.694115 0.926213
0.561579 0.691520 0.923146
0.668599 0.688749 0.919905
0.775443 0.685811 0.916493
0.882120 0.682712 0.912913
0.965128 0.678662 0.908920
0.129424 0.801941 0.925117
0.234720 0.799281 0.921986
0.341675 0.796448 0.918683
0.448458 0.793451 0.915209
0.555075 0.790296 0.911567
0.661535 0.786992 0.907758
0.767844 0.783544 0.903784
0.873429 0.779959 0.899645
0.976144 0.776207 0.895332
0.122315 0.895402 0.913903
0.228009 0.892389 0.910200
0.334413 0.889255 0.906331
0.440669 0.886006 0.902296
0.546783 0.882648 0.898097
0.652761 0.879186 0.893736
0.758607 0.875625 0.889213
0.862988 0.871971 0.884529
0.963905 0.868226 0.879686
0.111970 0.974188 0.900457
0.219087 0.977130 0.896430
0.325468 0.976238 0.892108
0.431268 0.972460 0.887526
0.536943 0.968591 0.882784
0.642498 0.964635 0.877883
0.747937 0.960596 0.872822
0.851930 0.956478 0.867604
0.950154 0.952283 0.862228
0.099154 0.134033 0.946292
0.205026 0.141246 0.946856
0.320859 0.146863 0.947489
0.435443 0.151290 0.948186
0.549040 0.154773 0.948943
0.661824 0.157482 0.949758
0.773921 0.159534 0.950627
0.885424 0.161021 0.951549
0.890789 0.158417 0.951522
0.117653 0.261407 0.948455
0.224345 0.264592 0.949233
0.336866 0.267050 0.950068
0.448738 0.268887 0.950957
0.560044 0.270186 0.951898
0.670853 0.271010 0.952889
0.781218 0.271409 0.953930
0.891182 0.271427 0.955018
0.906699 0.267896 0.955055
0.127913 0.378169 0.951294
0.234598 0.379288 0.952253
0.345240 0.379952 0.953263
0.455454 0.380208 0.954320
0.565282 0.380096 0.955425
0.674758 0.379647 0.956576
0.783911 0.378891 0.957771
0.892766 0.377850 0.959010
0.922097 0.373849 0.959202
0.133106 0.488958 0.954717
0.239336 0.488720 0.955839
0.348691 0.488156 0.957006
0.457733 0.487294 0.958217
0.566485 0.486155 0.959472
0.674967 0.484759 0.960770
0.783199 0.483123 0.962109
0.891196 0.481263 0.963489
0.937100 0.477087 0.963932
0.134480 0.595660 0.958669
0.240167 0.594425 0.959940
0.348557 0.592940 0.961253
0.456701 0.591221 0.962607
0.564616 0.589283 0.964002
0.672314 0.587139 0.965437
0.779809 0.584800 0.966911
0.887110 0.582276 0.968424
0.951785 0.578134 0.969221
0.132686 0.699290 0.963110
0.238007 0.697276 0.964520
0.345630 0.695059 0.965969
0.453053 0.692652 0.967457
0.560287 0.690064 0.968985
0.667341 0.687305 0.970550
0.774224 0.684382 0.972152
0.880944 0.681304 0.973792
0.966204 0.677353 0.975047
0.128124 0.800480 0.968009
0.233440 0.797829 0.969550
0.340430 0.795009 0.971129
0.447253 0.792029 0.972745
0.553916 0.788897 0.974398
0.660426 0.785618 0.976087
0.766789 0.782200 0.977812
0.872332 0.778647 0.979572
0.975848 0.774951 0.980375
0.121056 0.894092 0.973342
0.226868 0.891102 0.975008
0.333324 0.887995 0.976711
0.439635 0.884776 0.978449
0.545808 0.881452 0.980222
0.651789 0.877987 0.979090
0.757592 0.874394 0.975448
0.861896 0.870709 0.971640
0.962536 0.866935 0.967667
0.111313 0.975119 0.978570
0.218497 0.978120 0.980834
0.324481 0.974966 0.977784
0.430237 0.971156 0.974081
0.535871 0.967257 0.970212
0.641386 0.963272 0.966179
0.746787 0.959206 0.961982
0.850788 0.955061 0.957622
0.948746 0.950842 0.953100
