library/luts/porcelain.cube
# CrabbyCut preset LUT — sinh bởi scripts/generate_preset_luts.js
TITLE "Sứ"
LUT_3D_SIZE 5
0.064066 0.091528 0.183086
0.298946 0.128697 0.212209
0.535184 0.144271 0.221821
0.764935 0.153675 0.225857
0.879180 0.155616 0.225335
0.121573 0.373615 0.226439
0.340685 0.378330 0.226238
0.584876 0.377181 0.195046
0.825353 0.372410 0.185755
0.964836 0.365232 0.176287
0.134959 0.598708 0.218294
0.350299 0.597402 0.212654
0.567582 0.594945 0.205974
0.807442 0.589764 0.145966
0.979342 0.579445 0.132935
0.132921 0.807514 0.195435
0.345642 0.802898 0.186804
0.559873 0.797537 0.177499
0.773398 0.791504 0.167588
0.993176 0.784785 0.081390
0.116325 0.967118 0.162886
0.330054 0.973073 0.152729
0.544069 0.977652 0.143365
0.755859 0.970208 0.145230
0.960243 0.962414 0.147075
0.079493 0.110980 0.416647
0.306347 0.134973 0.433865
0.539887 0.147981 0.441158
0.768146 0.155965 0.443912
0.882554 0.156985 0.442534
0.123890 0.375518 0.444143
0.342588 0.379376 0.443169
0.564300 0.381132 0.440294
0.784264 0.381224 0.435917
0.914212 0.376934 0.429314
0.135344 0.598405 0.434006
0.350352 0.596688 0.427994
0.567264 0.593877 0.420994
0.804969 0.586558 0.384228
0.980764 0.576006 0.370902
0.132057 0.806035 0.410084
0.344616 0.801157 0.401216
0.558599 0.795560 0.391698
0.771900 0.789314 0.381594
0.993679 0.780617 0.318683
0.115062 0.969149 0.376992
0.328989 0.975078 0.366671
0.542091 0.975107 0.355661
0.753491 0.967405 0.343923
0.957144 0.959360 0.331777
0.088129 0.121331 0.641984
0.312593 0.140150 0.654528
0.544004 0.151133 0.659991
0.770976 0.157892 0.661638
0.885887 0.158097 0.659497
0.125946 0.377101 0.661558
0.344239 0.380182 0.659882
0.565315 0.381332 0.656461
0.784761 0.380932 0.651639
0.917273 0.376331 0.644696
0.135586 0.597955 0.649585
0.350273 0.595848 0.643220
0.566831 0.592701 0.635917
0.782434 0.588645 0.627792
0.946681 0.582066 0.618375
0.131083 0.804464 0.624649
0.343502 0.799333 0.615553
0.557246 0.793509 0.605830
0.770329 0.787055 0.595539
0.994113 0.776386 0.555920
0.113714 0.971171 0.591041
0.327869 0.977075 0.580559
0.540075 0.972532 0.569223
0.751309 0.964710 0.557343
0.954359 0.956556 0.545064
0.094852 0.129080 0.864971
0.317961 0.144493 0.874437
0.547624 0.153812 0.878397
0.773466 0.159497 0.879073
0.889182 0.158975 0.876244
0.127762 0.378395 0.878713
0.345658 0.380767 0.876396
0.566143 0.381355 0.872467
0.785102 0.380492 0.867227
0.920315 0.375606 0.859965
0.135687 0.597366 0.865037
0.350068 0.594888 0.858339
0.566288 0.591420 0.850744
0.781593 0.587080 0.842363
0.949572 0.580384 0.832763
0.130003 0.802804 0.839134
0.342305 0.797429 0.829818
0.555817 0.791385 0.819896
0.768689 0.784731 0.809424
0.975182 0.777404 0.798410
0.112497 0.973184 0.805033
0.326441 0.977500 0.794335
0.538001 0.969915 0.782735
0.749074 0.961977 0.770716
0.951559 0.953716 0.758308
0.099154 0.134033 0.946292
0.320859 0.146863 0.947489
0.549040 0.154773 0.948943
0.773921 0.159534 0.950627
0.890789 0.158417 0.951522
0.127913 0.378169 0.951294
0.345240 0.379952 0.953263
0.565282 0.380096 0.955425
0.783911 0.378891 0.957771
0.922097 0.373849 0.959202
0.134480 0.595660 0.958669
0.348557 0.592940 0.961253
0.564616 0.589283 0.964002
0.779809 0.584800 0.966911
0.951785 0.578134 0.969221
0.128124 0.800480 0.968009
0.340430 0.795009 0.971129
0.553916 0.788897 0.974398
0.766789 0.782200 0.977812
0.975848 0.774951 0.980375
0.111313 0.975119 0.978570
0.324481 0.974966 0.977784
0.535871 0.967257 0.970212
0.746787 0.959206 0.961982
0.948746 0.950842 0.953100
