library/luts/porcelain.cube
# CrabbyCut preset LUT — sinh bởi scripts/generate_preset_luts.js
TITLE "Sứ"
LUT_3D_SIZE 17
0.064066 0.091528 0.183086
0.117641 0.107483 0.196386
0.175996 0.116314 0.203251
0.238106 0.123110 0.208276
0.298946 0.128697 0.212209
0.358897 0.133438 0.215378
0.418170 0.137536 0.217965
0.476902 0.141118 0.220086
0.535184 0.144271 0.221821
0.593082 0.147060 0.223226
0.650649 0.149534 0.224345
0.707922 0.151728 0.225213
0.764935 0.153675 0.225857
0.821713 0.155398 0.226299
0.878278 0.156918 0.226557
0.879299 0.156369 0.226029
0.879180 0.155616 0.225335
0.091506 0.179635 0.209812
0.138365 0.184883 0.213440
0.198264 0.189268 0.215533
0.259135 0.192745 0.216777
0.320671 0.195426 0.217271
0.381040 0.197852 0.218142
0.440683 0.200015 0.218933
0.500010 0.201878 0.219452
0.559057 0.203474 0.219731
0.617853 0.204831 0.219793
0.676422 0.205973 0.219661
0.734785 0.206918 0.219351
0.792959 0.207684 0.218879
0.850957 0.208283 0.218257
0.908795 0.208728 0.217495
0.912304 0.207710 0.216482
0.912147 0.206471 0.215340
0.105017 0.248939 0.219551
0.153537 0.252202 0.221384
0.211534 0.255085 0.222874
0.270571 0.257539 0.220995
0.331644 0.259073 0.218225
0.394787 0.259720 0.214592
0.456114 0.260345 0.213336
0.516477 0.260907 0.212632
0.576640 0.261280 0.211756
0.636620 0.261478 0.210722
0.696430 0.261515 0.209543
0.756082 0.261401 0.208228
0.815587 0.261148 0.206787
0.874955 0.260764 0.205227
0.934194 0.260257 0.203556
0.941954 0.258848 0.202096
0.941797 0.257211 0.200585
0.114521 0.312872 0.224435
0.164426 0.315043 0.225282
0.221416 0.316968 0.225906
0.278174 0.318671 0.226330
0.336708 0.320181 0.220639
0.398167 0.320665 0.213939
0.462567 0.320137 0.206244
0.524587 0.319614 0.203322
0.585432 0.319112 0.201623
0.646134 0.318473 0.199801
0.706701 0.317707 0.197864
0.767142 0.316820 0.195817
0.827464 0.315819 0.193668
0.887672 0.314712 0.191422
0.947774 0.313502 0.189084
0.961215 0.311751 0.187192
0.961066 0.309778 0.185371
0.121573 0.373615 0.226439
0.172336 0.375049 0.226619
0.228621 0.376303 0.226637
0.284733 0.377393 0.226507
0.340685 0.378330 0.226238
0.398618 0.379275 0.218070
0.459530 0.379245 0.208939
0.523429 0.378248 0.198853
0.584876 0.377181 0.195046
0.645156 0.376141 0.192862
0.705325 0.374995 0.190582
0.765389 0.373750 0.188211
0.825353 0.372410 0.185755
0.885222 0.370979 0.183217
0.945000 0.369462 0.180602
0.965006 0.367482 0.178365
0.964836 0.365232 0.176287
0.126840 0.432126 0.226424
0.178096 0.433010 0.226108
0.233846 0.433755 0.225666
0.289459 0.434370 0.225106
0.344943 0.434862 0.224436
0.400306 0.435239 0.223662
0.457829 0.435802 0.213181
0.518362 0.435418 0.201764
0.581911 0.434095 0.189417
0.642919 0.432612 0.184841
0.702755 0.431149 0.182274
0.762501 0.429601 0.179630
0.822161 0.427972 0.176913
0.881740 0.426264 0.174126
0.941239 0.424482 0.171270
0.968730 0.422323 0.168716
0.968542 0.419830 0.166414
0.130686 0.488938 0.224875
0.182191 0.489388 0.224166
0.237512 0.489724 0.223355
0.292721 0.489954 0.222448
0.347823 0.490083 0.221449
0.402823 0.490116 0.220364
0.457728 0.490056 0.219195
0.514957 0.490346 0.206501
0.575218 0.489711 0.192890
0.638513 0.488153 0.178364
0.699170 0.486337 0.173094
0.758641 0.484528 0.170215
0.818039 0.482648 0.167271
0.877364 0.480700 0.164266
0.936620 0.478687 0.161202
0.972395 0.476385 0.158348
0.972190 0.473680 0.155849
0.133341 0.544388 0.222095
0.184937 0.544481 0.221064
0.239902 0.544479 0.219948
0.294772 0.544388 0.218750
0.349552 0.544210 0.217474
0.404245 0.543950 0.216124
0.458856 0.543611 0.214703
0.513386 0.543196 0.213213
0.570401 0.543289 0.198374
0.630461 0.542469 0.182630
0.693569 0.540740 0.165982
0.753936 0.538650 0.160072
0.813102 0.536550 0.156929
0.872204 0.534389 0.153732
0.931244 0.532170 0.150482
0.976007 0.529758 0.147343
0.975789 0.526862 0.144669
0.134959 0.598708 0.218294
0.186553 0.598500 0.216991
0.241215 0.598210 0.215615
0.295796 0.597843 0.214168
0.350299 0.597402 0.212654
0.404726 0.596889 0.211075
0.459081 0.596306 0.209434
0.513365 0.595658 0.207733
0.567582 0.594945 0.205974
0.624438 0.594893 0.189037
0.684349 0.593939 0.171205
0.747318 0.592084 0.152478
0.807442 0.589764 0.145966
0.866344 0.587414 0.142597
0.925191 0.585010 0.139180
0.979573 0.582513 0.135768
0.979342 0.579445 0.132935
0.135651 0.652066 0.213624
0.187201 0.651598 0.212087
0.241602 0.651060 0.210485
0.295931 0.650453 0.208822
0.350190 0.649780 0.207099
0.404384 0.649045 0.205319
0.458513 0.648248 0.203484
0.512579 0.647391 0.201595
0.566586 0.646478 0.199655
0.620534 0.645509 0.197664
0.677272 0.645352 0.178667
0.737074 0.644301 0.158780
0.799941 0.642357 0.138005
0.859856 0.639840 0.130921
0.918527 0.637269 0.127354
0.977150 0.634653 0.123745
0.982854 0.631485 0.120700
0.135501 0.704590 0.208201
0.187007 0.703895 0.206457
0.241176 0.703136 0.204657
0.295282 0.702318 0.202802
0.349327 0.701440 0.200895
0.403312 0.700507 0.198936
0.457239 0.699518 0.196927
0.511111 0.698476 0.194871
0.564928 0.697382 0.192768
0.618692 0.696239 0.190619
0.672405 0.695046 0.188427
0.729058 0.694815 0.167396
0.788781 0.693696 0.145481
0.851576 0.691690 0.122683
0.911309 0.689001 0.115051
0.969776 0.686236 0.111308
0.986328 0.683030 0.108007
0.134574 0.756380 0.202114
0.186067 0.755482 0.200187
0.240031 0.754528 0.198210
0.293937 0.753520 0.196184
0.347789 0.752459 0.194111
0.401587 0.751347 0.191991
0.455332 0.750185 0.189826
0.509027 0.748975 0.187618
0.562673 0.747718 0.185367
0.616270 0.746416 0.183075
0.669821 0.745069 0.180743
0.723326 0.743679 0.178372
0.779919 0.743398 0.155329
0.839587 0.742234 0.131407
0.902332 0.740187 0.106606
0.961906 0.737348 0.098445
0.989768 0.734118 0.094893
0.132921 0.807514 0.195435
0.184460 0.806435 0.193344
0.238238 0.805304 0.191208
0.291965 0.804125 0.189027
0.345642 0.802898 0.186804
0.399270 0.801624 0.184538
0.452850 0.800306 0.182231
0.506384 0.798943 0.179885
0.559873 0.797537 0.177499
0.613318 0.796089 0.175076
0.666720 0.794600 0.172616
0.720079 0.793072 0.170120
0.773398 0.791504 0.167588
0.829952 0.791193 0.142552
0.889586 0.790003 0.116639
0.952301 0.787934 0.089852
0.993176 0.784785 0.081390
0.130582 0.856172 0.188223
0.182251 0.855020 0.185983
0.235861 0.853827 0.183703
0.289424 0.852596 0.181381
0.342942 0.851328 0.179021
0.396414 0.850023 0.176621
0.449843 0.848683 0.174185
0.503230 0.847309 0.171711
0.556575 0.845902 0.169202
0.609879 0.844462 0.166658
0.663143 0.842991 0.164080
0.716369 0.841490 0.161468
0.769557 0.839958 0.158824
0.822701 0.838398 0.156148
0.878884 0.838115 0.129132
0.937715 0.837038 0.101244
0.992417 0.834869 0.075101
0.127593 0.902036 0.180526
0.179493 0.900706 0.178151
0.232950 0.899340 0.175738
0.286363 0.897940 0.173288
0.339735 0.896506 0.170802
0.393064 0.895039 0.168280
0.446354 0.893540 0.165723
0.499604 0.892011 0.163133
0.552816 0.890451 0.160509
0.605990 0.888862 0.157853
0.659127 0.887245 0.155166
0.712228 0.885599 0.152447
0.765294 0.883927 0.149698
0.818325 0.882228 0.146919
0.870445 0.880504 0.144111
0.925599 0.880202 0.117421
0.983348 0.879109 0.091200
0.123983 0.947157 0.172387
0.176246 0.945663 0.169888
0.229549 0.944137 0.167353
0.282824 0.942580 0.164784
0.336060 0.940992 0.162182
0.389258 0.939375 0.159546
0.442419 0.937728 0.156879
0.495542 0.936054 0.154180
0.548631 0.934352 0.151450
0.601684 0.932624 0.148690
0.654702 0.930869 0.145901
0.707689 0.929091 0.143194
0.760695 0.927320 0.143663
0.813669 0.925526 0.144130
0.865354 0.923709 0.144596
0.916324 0.921868 0.145061
0.970406 0.921519 0.118112
0.116325 0.967118 0.162886
0.169176 0.968614 0.160393
0.222768 0.970105 0.157869
0.276427 0.971591 0.155314
0.330054 0.973073 0.152729
0.383651 0.974550 0.150115
0.437217 0.976022 0.147471
0.490754 0.977490 0.144800
0.544069 0.977652 0.143365
0.597064 0.975825 0.143833
0.650027 0.973976 0.144300
0.702958 0.972103 0.144766
0.755859 0.970208 0.145230
0.808730 0.968291 0.145693
0.860120 0.966353 0.146155
0.910384 0.964394 0.146615
0.960243 0.962414 0.147075
0.070039 0.099200 0.244013
0.120491 0.110808 0.253387
0.178802 0.118792 0.259486
0.240420 0.125120 0.264088
0.300926 0.130390 0.267735
0.360628 0.134895 0.270690
0.419706 0.138805 0.273108
0.478275 0.142233 0.275090
0.536420 0.145257 0.276707
0.594201 0.147934 0.278011
0.651664 0.150308 0.279042
0.708846 0.152416 0.279831
0.765777 0.154284 0.280404
0.822480 0.155936 0.280781
0.878976 0.157391 0.280981
0.880155 0.156790 0.280401
0.880028 0.155984 0.279658
0.093146 0.181517 0.265509
0.139909 0.186483 0.268881
0.199280 0.190755 0.271626
0.258162 0.194479 0.273876
0.316569 0.197752 0.275718
0.374575 0.200644 0.277216
0.432235 0.203206 0.278416
0.489592 0.205480 0.279356
0.546679 0.207497 0.280063
0.603524 0.209284 0.280563
0.660150 0.210863 0.280874
0.716575 0.212250 0.281013
0.772817 0.213463 0.280993
0.828888 0.214514 0.280828
0.884801 0.215414 0.280526
0.888485 0.214403 0.279516
0.888284 0.213132 0.278345
0.106119 0.250094 0.274590
0.154809 0.253221 0.276301
0.212683 0.255987 0.277685
0.270867 0.258336 0.277940
0.329930 0.260093 0.277629
0.389904 0.261288 0.276780
0.448900 0.262408 0.276471
0.507322 0.263409 0.276212
0.565550 0.264226 0.275787
0.623599 0.264873 0.275208
0.681483 0.265363 0.274486
0.739213 0.265706 0.273633
0.796799 0.265913 0.272656
0.854251 0.265992 0.271563
0.911576 0.265950 0.270361
0.919519 0.264594 0.268946
0.919309 0.262934 0.267415
0.115330 0.313638 0.279124
0.165342 0.315723 0.279892
0.222250 0.317570 0.280446
0.278934 0.319203 0.280807
0.336796 0.320540 0.277919
0.396809 0.321066 0.274238
0.458988 0.320795 0.269776
0.519430 0.320578 0.267759
0.578978 0.320365 0.266355
0.638385 0.320019 0.264829
0.697661 0.319548 0.263191
0.756813 0.318958 0.261446
0.815848 0.318258 0.259600
0.874773 0.317452 0.257659
0.933592 0.316546 0.255628
0.947326 0.314856 0.253787
0.947135 0.312864 0.251949
0.122178 0.374123 0.280894
0.173005 0.375494 0.281017
0.229230 0.376691 0.280984
0.285286 0.377728 0.280805
0.341186 0.378615 0.280492
0.398927 0.379371 0.274120
0.459651 0.379155 0.266787
0.523364 0.377974 0.258502
0.584742 0.376840 0.255028
0.644983 0.375763 0.252810
0.705116 0.374583 0.250499
0.765146 0.373305 0.248099
0.825077 0.371934 0.245615
0.884915 0.370473 0.243050
0.944663 0.368927 0.240408
0.965385 0.366928 0.238139
0.965213 0.364651 0.236037
0.127288 0.432443 0.280707
0.178579 0.433278 0.280346
0.234281 0.433978 0.279864
0.289849 0.434550 0.279266
0.345292 0.435003 0.278560
0.400615 0.435343 0.277751
0.457958 0.435726 0.269075
0.518313 0.435166 0.259466
0.581685 0.433667 0.248927
0.642632 0.432125 0.244690
0.702436 0.430633 0.242097
0.762153 0.429057 0.239428
0.821785 0.427401 0.236687
0.881336 0.425668 0.233876
0.940810 0.423861 0.230998
0.969102 0.421685 0.228413
0.968912 0.419170 0.226090
0.131005 0.489104 0.279021
0.182526 0.489514 0.278277
0.237807 0.489814 0.277433
0.292979 0.490009 0.276494
0.348046 0.490105 0.275465
0.403014 0.490105 0.274351
0.457886 0.490016 0.273155
0.514943 0.490134 0.262273
0.575031 0.489328 0.250474
0.638155 0.487600 0.237762
0.698757 0.485731 0.232836
0.758203 0.483898 0.229935
0.817576 0.481994 0.226970
0.876877 0.480024 0.223945
0.936111 0.477988 0.220860
0.972762 0.475674 0.217977
0.972556 0.472948 0.215460
0.133549 0.544430 0.276130
0.185148 0.544491 0.275069
0.240080 0.544458 0.273925
0.294920 0.544337 0.272700
0.349670 0.544131 0.271399
0.404334 0.543843 0.270024
0.458917 0.543478 0.268579
0.513422 0.543039 0.267067
0.570268 0.542964 0.254044
0.630160 0.541978 0.240116
0.693102 0.540084 0.225286
0.753418 0.537944 0.219723
0.812562 0.535823 0.216562
0.871643 0.533642 0.213347
0.930662 0.531404 0.210079
0.976369 0.528982 0.206912
0.976149 0.526067 0.204221
0.135069 0.598646 0.272235
0.186660 0.598410 0.270907
0.241294 0.598094 0.269506
0.295848 0.597702 0.268036
0.350325 0.597236 0.266500
0.404727 0.596699 0.264900
0.459058 0.596093 0.263238
0.513319 0.595423 0.261517
0.567514 0.594688 0.259738
0.624205 0.594473 0.244621
0.683952 0.593356 0.228608
0.746758 0.591339 0.211701
0.806834 0.588972 0.205540
0.865717 0.586603 0.202154
0.924545 0.584182 0.198722
0.979931 0.581678 0.195282
0.979698 0.578593 0.192434
0.135673 0.651915 0.267484
0.187218 0.651423 0.265925
0.241594 0.650861 0.264302
0.295899 0.650232 0.262618
0.350136 0.649537 0.260876
0.404307 0.648781 0.259077
0.458415 0.647963 0.257223
0.512461 0.647088 0.255317
0.566447 0.646155 0.253359
0.620376 0.645168 0.251352
0.676952 0.644850 0.234176
0.736593 0.643638 0.216111
0.799299 0.641535 0.197159
0.859168 0.638972 0.190427
0.917823 0.636386 0.186846
0.976429 0.633754 0.183222
0.983206 0.630582 0.180151
0.135442 0.704361 0.261990
0.186944 0.703644 0.260227
0.241092 0.702865 0.258408
0.295177 0.702026 0.256535
0.349201 0.701130 0.254610
0.403166 0.700177 0.252634
0.457074 0.699170 0.250609
0.510927 0.698110 0.248537
0.564726 0.697000 0.246418
0.618473 0.695839 0.244255
0.672169 0.694630 0.242048
0.728662 0.694241 0.222840
0.788226 0.692963 0.202748
0.850862 0.690799 0.181774
0.910551 0.688067 0.174497
0.969003 0.685288 0.170741
0.986677 0.682078 0.167414
0.134439 0.756081 0.255840
0.185934 0.755164 0.253897
0.239878 0.754191 0.251903
0.293766 0.753165 0.249860
0.347599 0.752087 0.247771
0.401379 0.750958 0.245636
0.455107 0.749780 0.243456
0.508785 0.748554 0.241233
0.562414 0.747281 0.238969
0.615995 0.745963 0.236663
0.669530 0.744602 0.234317
0.723020 0.743197 0.231933
0.779455 0.742759 0.210715
0.838966 0.741438 0.188618
0.901554 0.739235 0.165642
0.961086 0.736354 0.157837
0.990114 0.733123 0.154259
0.132715 0.807153 0.249105
0.184263 0.806056 0.246999
0.238024 0.804909 0.244847
0.291734 0.803714 0.242652
0.345394 0.802471 0.240414
0.399005 0.801182 0.238134
0.452570 0.799848 0.235814
0.506088 0.798470 0.233454
0.559562 0.797050 0.231055
0.612992 0.795588 0.228620
0.666380 0.794086 0.226147
0.719725 0.792544 0.223639
0.773030 0.790963 0.221096
0.829428 0.790496 0.197885
0.888906 0.789151 0.173799
0.951464 0.786927 0.148838
0.993351 0.783749 0.140719
0.130309 0.855785 0.241842
0.181996 0.854619 0.239588
0.235591 0.853413 0.237294
0.289138 0.852169 0.234959
0.342640 0.850889 0.232585
0.396098 0.849572 0.230173
0.449512 0.848220 0.227724
0.502885 0.846835 0.225238
0.556215 0.845417 0.222717
0.609506 0.843966 0.220161
0.662757 0.842485 0.217572
0.715970 0.840973 0.214949
0.769145 0.839431 0.212294
0.822277 0.837861 0.209607
0.878239 0.837439 0.184418
0.936847 0.836175 0.158357
0.992685 0.833850 0.133371
0.127256 0.901588 0.234099
0.179186 0.900246 0.231711
0.232628 0.898868 0.229285
0.286027 0.897456 0.226823
0.339384 0.896011 0.224324
0.392700 0.894533 0.221790
0.445976 0.893024 0.219222
0.499213 0.891484 0.216621
0.552412 0.889915 0.213986
0.605574 0.888316 0.211319
0.658699 0.886689 0.208621
0.711788 0.885034 0.205892
0.764841 0.883353 0.203133
0.817861 0.881645 0.200344
0.869924 0.879912 0.197526
0.924839 0.879454 0.170372
0.982361 0.878209 0.142348
0.123585 0.946653 0.225917
0.175899 0.945148 0.223406
0.229180 0.943612 0.220859
0.282442 0.942044 0.218279
0.335665 0.940446 0.215665
0.388850 0.938819 0.213019
0.441998 0.937163 0.210341
0.495109 0.935479 0.207631
0.548186 0.933768 0.204891
0.601227 0.932031 0.202121
0.654234 0.930268 0.199322
0.707208 0.928479 0.196493
0.760148 0.926667 0.193637
0.813057 0.924830 0.190753
0.864665 0.922970 0.187842
0.915538 0.921087 0.184904
0.969437 0.920605 0.155794
0.116017 0.967627 0.216418
0.168938 0.969121 0.213915
0.222529 0.970610 0.211380
0.276177 0.972095 0.208815
0.329793 0.973575 0.206219
0.383380 0.975051 0.203595
0.436936 0.976522 0.200942
0.490462 0.977988 0.198261
0.543564 0.977010 0.195457
0.596493 0.975143 0.192590
0.649390 0.973252 0.189696
0.702256 0.971338 0.186775
0.755091 0.969401 0.183828
0.807896 0.967443 0.180855
0.859244 0.965463 0.177856
0.909430 0.963462 0.174832
0.959223 0.961440 0.171783
0.073743 0.103868 0.302228
0.123065 0.113770 0.310059
0.181414 0.121086 0.315555
0.242607 0.127010 0.319792
0.302815 0.131995 0.323182
0.362288 0.136283 0.325941
0.421182 0.140019 0.328201
0.479600 0.143302 0.330053
0.537615 0.146202 0.331558
0.595284 0.148772 0.332765
0.652647 0.151053 0.333711
0.709741 0.153076 0.334424
0.766592 0.154868 0.334928
0.823222 0.156451 0.335243
0.879652 0.157843 0.335386
0.881008 0.157192 0.334756
0.880872 0.156334 0.333965
0.094709 0.183293 0.321110
0.141621 0.188003 0.324251
0.200869 0.192076 0.326816
0.259580 0.195637 0.328919
0.317844 0.198774 0.330638
0.375727 0.201549 0.332030
0.433280 0.204009 0.333138
0.490542 0.206192 0.333996
0.547544 0.208129 0.334630
0.604312 0.209843 0.335064
0.660868 0.211354 0.335315
0.717229 0.212681 0.335398
0.773411 0.213837 0.335328
0.829428 0.214836 0.335115
0.885290 0.215688 0.334770
0.889313 0.214644 0.333723
0.889105 0.213332 0.332514
0.107185 0.251200 0.329586
0.156037 0.254198 0.331180
0.213795 0.256854 0.332464
0.271238 0.259209 0.333478
0.328402 0.261300 0.334251
0.385316 0.263152 0.334810
0.442005 0.264791 0.335175
0.498488 0.266233 0.335364
0.554782 0.267496 0.335390
0.610902 0.268594 0.335266
0.666861 0.269538 0.335004
0.722670 0.270339 0.334613
0.778339 0.271006 0.334101
0.833875 0.271548 0.333476
0.889287 0.271972 0.332744
0.897393 0.270679 0.331383
0.897127 0.268999 0.329835
0.116115 0.314374 0.333786
0.166229 0.316375 0.334478
0.223058 0.318148 0.334965
0.279670 0.319712 0.335263
0.336721 0.320984 0.334544
0.394758 0.321765 0.333352
0.453796 0.322069 0.331698
0.511932 0.322371 0.330650
0.569560 0.322617 0.329709
0.627051 0.322733 0.328650
0.684412 0.322726 0.327480
0.741653 0.322603 0.326205
0.798778 0.322371 0.324832
0.855795 0.322036 0.323365
0.912708 0.321602 0.321809
0.926551 0.320028 0.320073
0.926297 0.318023 0.318224
0.122766 0.374609 0.335329
0.173653 0.375920 0.335398
0.229819 0.377061 0.335314
0.285821 0.378045 0.335089
0.341670 0.378885 0.334732
0.398759 0.379486 0.331180
0.458054 0.379329 0.326881
0.519562 0.378420 0.321842
0.579375 0.377605 0.319285
0.638332 0.376829 0.317372
0.697181 0.375952 0.315367
0.755930 0.374979 0.313275
0.814581 0.373913 0.311100
0.873140 0.372760 0.308845
0.931612 0.371523 0.306515
0.952580 0.369633 0.304342
0.952360 0.367344 0.302229
0.127722 0.432742 0.334974
0.179045 0.433531 0.334571
0.234701 0.434186 0.334048
0.290226 0.434717 0.333413
0.345627 0.435131 0.332671
0.400912 0.435433 0.331830
0.458074 0.435639 0.324960
0.518251 0.434902 0.317157
0.581447 0.433229 0.308427
0.642333 0.431628 0.304531
0.702108 0.430107 0.301912
0.761795 0.428503 0.299218
0.821400 0.426820 0.296452
0.880924 0.425062 0.293619
0.940372 0.423231 0.290719
0.969474 0.421040 0.288102
0.969283 0.418502 0.285759
0.131312 0.489256 0.333155
0.182846 0.489628 0.332376
0.238090 0.489892 0.331499
0.293226 0.490053 0.330529
0.348258 0.490115 0.329471
0.403193 0.490085 0.328329
0.458034 0.489966 0.327106
0.514918 0.489913 0.318035
0.574835 0.488936 0.308050
0.637789 0.487040 0.297151
0.698335 0.485116 0.292570
0.757756 0.483259 0.289647
0.817104 0.481333 0.286662
0.876383 0.479340 0.283616
0.935593 0.477282 0.280512
0.973128 0.474957 0.277600
0.972921 0.472211 0.275064
0.133747 0.544462 0.330154
0.185348 0.544490 0.329065
0.240248 0.544427 0.327893
0.295057 0.544276 0.326641
0.349777 0.544042 0.325315
0.404414 0.543728 0.323916
0.458970 0.543337 0.322448
0.513448 0.542873 0.320913
0.570127 0.542631 0.309706
0.629852 0.541480 0.297595
0.692627 0.539420 0.284583
0.752893 0.537230 0.279368
0.812015 0.535089 0.276188
0.871074 0.532888 0.272955
0.930074 0.530630 0.269670
0.976731 0.528199 0.266475
0.976509 0.525267 0.263767
0.135170 0.598575 0.326167
0.186757 0.598312 0.324814
0.241364 0.597969 0.323390
0.295891 0.597552 0.321897
0.350342 0.597061 0.320339
0.404720 0.596501 0.318717
0.459027 0.595873 0.317035
0.513265 0.595180 0.315294
0.567438 0.594425 0.313497
0.623964 0.594046 0.300198
0.683548 0.592766 0.286005
0.746191 0.590588 0.270919
0.806219 0.588173 0.265108
0.865083 0.585787 0.261706
0.923893 0.583348 0.258258
0.980288 0.580837 0.254792
0.980054 0.577736 0.251928
0.135686 0.651756 0.321337
0.187227 0.651240 0.319755
0.241578 0.650655 0.318112
0.295860 0.650003 0.316408
0.350074 0.649287 0.314646
0.404223 0.648510 0.312828
0.458310 0.647672 0.310957
0.512335 0.646777 0.309033
0.566302 0.645826 0.307058
0.620212 0.644820 0.305035
0.676626 0.644342 0.289680
0.736106 0.642970 0.273437
0.798652 0.640706 0.256307
0.858475 0.638099 0.249928
0.917113 0.635497 0.246332
0.975703 0.632850 0.242695
0.983558 0.629673 0.239597
0.135375 0.704125 0.315773
0.186874 0.703386 0.313991
0.241001 0.702587 0.312153
0.295065 0.701728 0.310262
0.349068 0.700812 0.308320
0.403014 0.699841 0.306327
0.456903 0.698816 0.304286
0.510738 0.697739 0.302198
0.564519 0.696611 0.300063
0.618248 0.695434 0.297885
0.671927 0.694209 0.295663
0.728261 0.693661 0.278279
0.787666 0.692225 0.260011
0.850143 0.689903 0.240861
0.909789 0.687128 0.233938
0.968226 0.684335 0.230169
0.987025 0.681122 0.226817
0.134297 0.755776 0.309561
0.185794 0.754840 0.307600
0.239719 0.753849 0.305589
0.293588 0.752805 0.303531
0.347402 0.751709 0.301426
0.401165 0.750563 0.299275
0.454876 0.749369 0.297081
0.508537 0.748127 0.294844
0.562150 0.746839 0.292565
0.615715 0.745506 0.290246
0.669235 0.744129 0.287887
0.722710 0.742710 0.285490
0.778987 0.742115 0.266096
0.838341 0.740637 0.245824
0.900771 0.738278 0.224674
0.960261 0.735356 0.217224
0.990459 0.732123 0.213622
0.132502 0.806787 0.302770
0.184060 0.805672 0.300648
0.237804 0.804509 0.298482
0.291496 0.803297 0.296272
0.345140 0.802038 0.294019
0.398735 0.800734 0.291725
0.452284 0.799385 0.289392
0.505787 0.797992 0.287019
0.559246 0.796558 0.284607
0.612661 0.795082 0.282159
0.666035 0.793566 0.279674
0.719366 0.792011 0.277154
0.772658 0.790418 0.274599
0.828899 0.789795 0.253215
0.888221 0.788294 0.230955
0.950624 0.785915 0.207820
0.993460 0.782709 0.200044
0.130030 0.855394 0.295456
0.181737 0.854214 0.293189
0.235315 0.852995 0.290880
0.288847 0.851739 0.288532
0.342334 0.850445 0.286145
0.395777 0.849117 0.283720
0.449177 0.847754 0.281259
0.502535 0.846357 0.278761
0.555852 0.844928 0.276228
0.609129 0.843466 0.273661
0.662367 0.841975 0.271060
0.715566 0.840453 0.268426
0.768729 0.838901 0.265760
0.821850 0.837322 0.263062
0.877592 0.836760 0.239701
0.935978 0.835267 0.215467
0.992948 0.832821 0.191711
0.126913 0.901136 0.287668
0.178874 0.899782 0.285267
0.232302 0.898393 0.282828
0.285686 0.896969 0.280353
0.339029 0.895513 0.277843
0.392332 0.894024 0.275297
0.445594 0.892505 0.272718
0.498818 0.890955 0.270105
0.552004 0.889375 0.267459
0.605153 0.887767 0.264781
0.658266 0.886130 0.262073
0.711343 0.884466 0.259333
0.764385 0.882776 0.256564
0.817393 0.881060 0.253765
0.869401 0.879318 0.250938
0.924101 0.878722 0.225611
0.981405 0.877339 0.199415
0.123180 0.946146 0.279443
0.175545 0.944630 0.276920
0.228806 0.943083 0.274362
0.282055 0.941505 0.271770
0.335265 0.939897 0.269145
0.388437 0.938260 0.266488
0.441573 0.936594 0.263799
0.494672 0.934901 0.261079
0.547736 0.933181 0.258329
0.600766 0.931435 0.255549
0.653762 0.929663 0.252739
0.706724 0.927866 0.249902
0.759654 0.926045 0.247036
0.812552 0.924201 0.244142
0.864125 0.922333 0.241222
0.914928 0.920442 0.238275
0.968615 0.919824 0.210994
0.115704 0.968135 0.269947
0.168695 0.969627 0.267432
0.222285 0.971115 0.264887
0.275923 0.972598 0.262312
0.329529 0.974077 0.259706
0.383105 0.975551 0.257072
0.436651 0.977020 0.254410
0.490126 0.978230 0.251709
0.543077 0.976378 0.248861
0.595995 0.974503 0.245986
0.648881 0.972604 0.243082
0.701736 0.970682 0.240152
0.754561 0.968738 0.237196
0.807355 0.966773 0.234214
0.858689 0.964785 0.231206
0.908806 0.962778 0.228174
0.958531 0.960749 0.225117
0.076807 0.107679 0.359667
0.125431 0.116457 0.366484
0.183863 0.123224 0.371483
0.244683 0.128793 0.375400
0.304619 0.133521 0.378557
0.363882 0.137608 0.381134
0.422604 0.141181 0.383247
0.480878 0.144327 0.384975
0.538770 0.147110 0.386374
0.596331 0.149577 0.387489
0.653599 0.151767 0.388352
0.710608 0.153709 0.388992
0.767381 0.155428 0.389430
0.823942 0.156945 0.389685
0.880308 0.158276 0.389773
0.881858 0.157577 0.389095
0.881714 0.156668 0.388257
0.096201 0.184974 0.376626
