library/luts/soft_peach.cube
# CrabbyCut preset LUT — sinh bởi scripts/generate_preset_luts.js
TITLE "Đào nhạt"
LUT_3D_SIZE 17
0.182834 0.127315 0.093062
0.247455 0.138079 0.102252
0.307601 0.144390 0.107558
0.366375 0.149335 0.111677
0.424317 0.153451 0.115076
0.481668 0.156980 0.117963
0.538564 0.160056 0.120457
0.595092 0.162766 0.122632
0.651313 0.165170 0.124541
0.707271 0.167312 0.126221
0.762999 0.169226 0.127701
0.818523 0.170937 0.129004
0.873866 0.172467 0.130148
0.918277 0.173833 0.131148
0.946830 0.175050 0.132015
0.949822 0.174097 0.131134
0.949724 0.172774 0.129946
0.206731 0.204663 0.112984
0.264438 0.208545 0.116179
0.322298 0.211784 0.118087
0.380999 0.214266 0.119322
0.440616 0.216067 0.119948
0.499141 0.217736 0.121044
0.557027 0.219248 0.122148
0.614693 0.220541 0.123061
0.672165 0.221640 0.123802
0.729461 0.222564 0.124389
0.786598 0.223331 0.124835
0.843590 0.223952 0.125152
0.900448 0.224440 0.125351
0.933205 0.224806 0.125439
0.962002 0.225056 0.125424
0.967173 0.223782 0.124232
0.967088 0.222092 0.122709
0.218119 0.269561 0.122069
0.274419 0.272044 0.124046
0.330444 0.274254 0.125785
0.387722 0.276117 0.124307
0.447310 0.277092 0.122020
0.509229 0.277200 0.118940
0.569283 0.277363 0.118244
0.628380 0.277531 0.118137
0.687337 0.277559 0.117905
0.746164 0.277457 0.117556
0.804871 0.277236 0.117099
0.863465 0.276902 0.116540
0.915728 0.276465 0.115886
0.945160 0.275929 0.115142
0.974249 0.275301 0.114313
0.982238 0.273719 0.112811
0.982181 0.271723 0.111007
0.225670 0.330642 0.127829
0.281178 0.332335 0.129116
0.336504 0.333850 0.130246
0.391668 0.335202 0.131233
0.448824 0.336414 0.126247
0.509202 0.336583 0.120297
0.572813 0.335720 0.113390
0.633921 0.334914 0.111219
0.693820 0.334179 0.110286
0.753616 0.333342 0.109259
0.813316 0.332410 0.108143
0.872925 0.331386 0.106943
0.921591 0.330278 0.105664
0.951020 0.329088 0.104309
0.980116 0.327822 0.102881
0.991340 0.325966 0.101090
0.991307 0.323713 0.099048
0.230895 0.389406 0.131559
0.285859 0.390559 0.132371
0.340689 0.391580 0.133065
0.395397 0.392478 0.133650
0.449991 0.393263 0.134135
0.506773 0.394103 0.126836
0.566814 0.393938 0.118598
0.630119 0.392771 0.109423
0.690827 0.391568 0.106486
0.750320 0.390429 0.105179
0.809733 0.389211 0.103797
0.869071 0.387917 0.102344
0.920186 0.386551 0.100823
0.949015 0.385117 0.099236
0.977523 0.383617 0.097586
0.992064 0.381645 0.095646
0.992029 0.379181 0.093406
0.234467 0.446527 0.133838
0.289021 0.447272 0.134287
0.343471 0.447913 0.134644
0.397822 0.448457 0.134913
0.452082 0.448908 0.135099
0.506254 0.449274 0.135207
0.562793 0.449873 0.125692
0.622612 0.449488 0.115249
0.685715 0.448121 0.103879
0.746116 0.446612 0.100253
0.805287 0.445153 0.098643
0.864394 0.443630 0.096971
0.918485 0.442044 0.095239
0.946746 0.440398 0.093450
0.974696 0.438696 0.091605
0.992758 0.436647 0.089544
0.992722 0.433998 0.087129
0.236768 0.502381 0.134990
0.290995 0.502801 0.135147
0.345137 0.503136 0.135228
0.399197 0.503390 0.135236
0.453181 0.503568 0.135174
0.507091 0.503672 0.135046
0.560931 0.503707 0.134854
0.617308 0.504146 0.123176
0.676979 0.503614 0.110576
0.739948 0.502114 0.097052
0.800103 0.500360 0.092785
0.859009 0.498637 0.090920
0.916557 0.496860 0.089002
0.944274 0.495030 0.087033
0.971690 0.493149 0.085014
0.993425 0.491053 0.082854
0.993387 0.488240 0.080283
0.238041 0.557213 0.135221
0.291997 0.557364 0.135135
0.345882 0.557443 0.134983
0.399697 0.557453 0.134769
0.453447 0.557398 0.134494
0.507133 0.557280 0.134162
0.560759 0.557101 0.133774
0.614327 0.556865 0.133332
0.670596 0.557197 0.119522
0.730170 0.556569 0.104792
0.793051 0.554982 0.089141
0.853003 0.553027 0.084266
0.911684 0.551080 0.082181
0.941647 0.549086 0.080049
0.968548 0.547047 0.077872
0.994065 0.544930 0.075632
0.994026 0.541970 0.072919
0.238455 0.611190 0.134676
0.292181 0.611112 0.134380
0.345845 0.610971 0.134027
0.399450 0.610772 0.133619
0.452997 0.610515 0.133158
0.506489 0.610203 0.132646
0.559927 0.609838 0.132084
0.613314 0.609422 0.131474
0.666652 0.608957 0.130817
0.722853 0.609222 0.114895
0.782366 0.608534 0.098053
0.845192 0.606894 0.080288
0.904975 0.604770 0.074831
0.938903 0.602629 0.072551
0.965306 0.600447 0.070229
0.991425 0.598225 0.067866
0.994640 0.595237 0.065079
0.238132 0.664435 0.133457
0.291659 0.664158 0.132977
0.345131 0.663826 0.132447
0.398551 0.663443 0.131867
0.451920 0.663008 0.131240
0.505240 0.662525 0.130567
0.558512 0.661995 0.129849
0.611739 0.661419 0.129088
0.664920 0.660799 0.128285
0.718059 0.660135 0.127440
0.774221 0.660363 0.109416
0.833701 0.659643 0.090470
0.896500 0.657977 0.070600
0.936074 0.655707 0.064579
0.961993 0.653396 0.062123
0.987634 0.651048 0.059630
0.995231 0.648083 0.056798
0.237168 0.717040 0.131644
0.290519 0.716588 0.131000
0.343821 0.716088 0.130311
0.397077 0.715541 0.129577
0.450287 0.714948 0.128801
0.503453 0.714312 0.127982
0.556576 0.713633 0.127123
0.609658 0.712914 0.126224
0.662699 0.712154 0.125286
0.715702 0.711354 0.124311
0.768666 0.710517 0.123299
0.824812 0.710730 0.103178
0.884281 0.710000 0.082133
0.932613 0.708327 0.060162
0.958635 0.705933 0.053590
0.983809 0.703469 0.050975
0.995799 0.700543 0.048107
0.235635 0.769080 0.129300
0.288829 0.768472 0.128507
0.341980 0.767820 0.127674
0.395088 0.767126 0.126800
0.448155 0.766391 0.125887
0.501182 0.765617 0.124936
0.554170 0.764804 0.123947
0.607120 0.763954 0.122921
0.660034 0.763066 0.121860
0.712912 0.762143 0.120763
0.765755 0.761186 0.119633
0.818564 0.760194 0.118469
0.874713 0.760410 0.096254
0.927664 0.759687 0.073111
0.954677 0.758025 0.049038
0.979969 0.755521 0.041926
0.996345 0.752647 0.039029
0.233594 0.820613 0.126472
0.286646 0.819864 0.125545
0.339659 0.819076 0.124580
0.392633 0.818249 0.123577
0.445570 0.817385 0.122539
0.498471 0.816484 0.121465
0.551336 0.815549 0.120356
0.604166 0.814579 0.119213
0.656963 0.813575 0.118037
0.709727 0.812539 0.116828
0.762458 0.811470 0.115587
0.815158 0.810370 0.114315
0.867827 0.809240 0.113012
0.923994 0.809473 0.088702
0.949241 0.808771 0.063460
0.975558 0.807133 0.037285
0.996869 0.804421 0.029586
0.231091 0.869441 0.123203
0.284015 0.868835 0.122152
0.336903 0.868207 0.121065
0.389755 0.867557 0.119943
0.442573 0.866886 0.118788
0.495358 0.866194 0.117600
0.548110 0.865484 0.116380
0.600829 0.864754 0.115128
0.653518 0.863712 0.113844
0.706176 0.862570 0.112530
0.758805 0.861399 0.111186
0.811404 0.860199 0.109813
0.863974 0.858970 0.108411
0.916517 0.857714 0.106980
0.945144 0.857978 0.080571
0.969678 0.857310 0.053401
0.995317 0.855726 0.028387
0.228170 0.908145 0.119527
0.280975 0.907361 0.118360
0.333748 0.906558 0.117160
0.386488 0.905735 0.115928
0.439197 0.904895 0.114664
0.491874 0.904037 0.113369
0.544521 0.903162 0.112044
0.597139 0.902271 0.110690
0.649728 0.901364 0.109306
0.702288 0.900443 0.107893
0.754820 0.899507 0.106452
0.807325 0.898557 0.104983
0.859823 0.897607 0.104718
0.912322 0.896665 0.106146
0.942387 0.895710 0.107573
0.965183 0.895965 0.082430
0.989060 0.895529 0.056592
0.224863 0.945908 0.115471
0.277560 0.944957 0.114196
0.330226 0.943989 0.112891
0.382862 0.943004 0.111555
0.435469 0.942004 0.110189
0.488048 0.940989 0.108795
0.540598 0.939959 0.107371
0.593120 0.938916 0.105920
0.645616 0.937859 0.104441
0.698121 0.936813 0.105238
0.750610 0.935761 0.106665
0.803074 0.934698 0.108092
0.855513 0.933623 0.109518
0.907928 0.932538 0.110943
0.941135 0.931442 0.112367
0.961994 0.930336 0.113790
0.984156 0.930512 0.087130
0.219038 0.970642 0.109349
0.272073 0.972023 0.108320
0.325084 0.973395 0.107265
0.378069 0.974758 0.106185
0.431031 0.976111 0.105079
0.483909 0.977089 0.104329
0.536414 0.975940 0.105757
0.588894 0.974780 0.107185
0.641349 0.973609 0.108611
0.693780 0.972426 0.110037
0.746186 0.971233 0.111461
0.798568 0.970030 0.112885
0.850928 0.968818 0.114308
0.903264 0.967596 0.115731
0.939861 0.966366 0.117152
0.960320 0.965127 0.118573
0.980545 0.963880 0.119994
0.187882 0.132320 0.145642
0.249844 0.140438 0.152607
0.309423 0.146185 0.157497
0.367877 0.150810 0.161408
0.425598 0.154707 0.164896
0.482782 0.158070 0.167973
0.539545 0.161014 0.170639
0.595963 0.163614 0.172968
0.652090 0.165925 0.175014
0.707967 0.167986 0.176814
0.763623 0.169828 0.178400
0.819084 0.171476 0.179795
0.874369 0.172949 0.181018
0.918570 0.174263 0.182086
0.947047 0.175432 0.183012
0.950212 0.174450 0.182020
0.950112 0.173088 0.180679
0.208144 0.206051 0.162676
0.265653 0.209736 0.166070
0.322673 0.212936 0.168987
0.379303 0.215747 0.171523
0.435610 0.218237 0.173743
0.491642 0.220452 0.175696
0.547435 0.222431 0.177415
0.603017 0.224200 0.178929
0.658412 0.225782 0.180259
0.713637 0.227195 0.181424
0.768708 0.228454 0.182439
0.823638 0.229574 0.183316
0.878438 0.230563 0.184065
0.921003 0.231433 0.184697
0.948775 0.232190 0.185219
0.953972 0.231013 0.184018
0.953850 0.229306 0.182338
0.219018 0.270438 0.172365
0.275220 0.272823 0.174483
0.331161 0.274949 0.176347
0.387563 0.276735 0.177077
0.445021 0.277982 0.177269
0.503559 0.278708 0.176945
0.561131 0.279429 0.177259
0.618165 0.280092 0.177678
0.675061 0.280618 0.177963
0.731831 0.281019 0.178125
0.788483 0.281303 0.178172
0.845026 0.281477 0.178112
0.901466 0.281550 0.177952
0.933914 0.281526 0.177697
0.961993 0.281412 0.177354
0.969970 0.279984 0.175882
0.969871 0.277979 0.173908
0.226289 0.331238 0.178536
0.281732 0.332869 0.179915
0.337002 0.334326 0.181123
0.392114 0.335626 0.182177
0.448571 0.336673 0.179782
0.507415 0.336908 0.176577
0.568654 0.336340 0.172571
0.628083 0.335881 0.171236
0.686603 0.335474 0.170595
0.745022 0.334966 0.169856
0.803347 0.334365 0.169024
0.861583 0.333675 0.168106
0.915373 0.332901 0.167105
0.944110 0.332048 0.166040
0.972522 0.331119 0.164987
0.983805 0.329403 0.163340
0.983742 0.327140 0.161279
0.231323 0.389813 0.182525
0.286240 0.390920 0.183390
0.341028 0.391898 0.184128
0.395696 0.392757 0.184750
0.450253 0.393505 0.185262
0.506846 0.394157 0.179283
0.566700 0.393805 0.172301
0.629820 0.392453 0.164436
0.690469 0.391190 0.161893
0.749934 0.390024 0.160617
0.809321 0.388780 0.159267
0.868634 0.387461 0.157847
0.920026 0.386072 0.156359
0.948796 0.384615 0.154807
0.977248 0.383093 0.153192
0.992136 0.381112 0.151262
0.992100 0.378627 0.148994
0.234752 0.446792 0.184948
0.289270 0.447501 0.185423
0.343686 0.448108 0.185798
0.398005 0.448620 0.186079
0.452234 0.449042 0.186272
0.506378 0.449379 0.186382
0.562736 0.449797 0.178043
0.622375 0.449232 0.168723
0.685300 0.447687 0.159029
0.745647 0.446124 0.155802
0.804796 0.444643 0.154226
0.863881 0.443098 0.152589
0.918300 0.441492 0.150892
0.946504 0.439827 0.149139
0.974400 0.438105 0.147330
0.992827 0.436050 0.145291
0.992790 0.433383 0.142849
0.236940 0.502534 0.186159
0.291137 0.502924 0.186321
0.345251 0.503231 0.186402
0.399285 0.503459 0.186404
0.453243 0.503611 0.186333
0.507129 0.503692 0.186191
0.560946 0.503703 0.185982
0.617147 0.503966 0.175360
0.676643 0.503259 0.164007
0.739437 0.501585 0.152352
0.799542 0.499781 0.148487
0.858429 0.498039 0.146658
0.916352 0.496244 0.144777
0.944015 0.494397 0.142844
0.971378 0.492499 0.140861
0.993491 0.490400 0.138735
0.993453 0.487572 0.136138
0.238119 0.557273 0.186386
0.292051 0.557399 0.186289
0.345912 0.557454 0.186122
0.399704 0.557441 0.185889
0.453432 0.557364 0.185593
0.507098 0.557226 0.185236
0.560704 0.557027 0.184821
0.614252 0.556772 0.184349
0.670349 0.556932 0.171498
0.729751 0.556132 0.158372
0.792460 0.554374 0.144597
0.852365 0.552371 0.140128
0.911030 0.550408 0.138080
0.941374 0.548399 0.135985
0.968225 0.546345 0.133846
0.994128 0.544226 0.131649
0.994089 0.541253 0.128911
0.238454 0.611171 0.185789
0.292159 0.611071 0.185470
0.345802 0.610910 0.185091
0.399387 0.610691 0.184656
0.452915 0.610415 0.184164
0.506389 0.610085 0.183620
0.559810 0.609703 0.183024
0.613180 0.609270 0.182378
0.666501 0.608788 0.181685
0.722532 0.608883 0.166748
0.781875 0.608026 0.151786
0.844533 0.606217 0.135906
0.904270 0.604048 0.130856
0.938621 0.601892 0.128614
0.964974 0.599697 0.126330
0.991045 0.597462 0.124006
0.994701 0.594475 0.121211
0.238063 0.664347 0.184483
0.291571 0.664051 0.183972
0.345025 0.663702 0.183409
0.398427 0.663301 0.182795
0.451779 0.662850 0.182131
0.505083 0.662350 0.181421
0.558339 0.661804 0.180665
0.611551 0.661213 0.179864
0.664718 0.660578 0.179021
0.717842 0.659901 0.178135
0.773836 0.659960 0.161419
0.833149 0.659073 0.144361
0.895781 0.657239 0.126383
0.935785 0.654927 0.120771
0.961656 0.652602 0.118354
0.987249 0.650242 0.115899
0.995289 0.647281 0.113071
0.237038 0.716892 0.182559
0.290372 0.716423 0.181878
0.343659 0.715907 0.181151
0.396898 0.715344 0.180378
0.450093 0.714737 0.179562
0.503245 0.714086 0.178703
0.556354 0.713394 0.177803
0.609422 0.712660 0.176863
0.662450 0.711886 0.175883
0.715439 0.711074 0.174866
0.768390 0.710225 0.173812
0.824370 0.710271 0.155333
0.883673 0.709375 0.136183
0.932334 0.707536 0.116111
0.958294 0.705100 0.109951
0.983421 0.702625 0.107374
0.995855 0.699703 0.104522
0.235451 0.768878 0.180086
0.288630 0.768255 0.179254
0.341766 0.767589 0.178380
0.394860 0.766881 0.177465
0.447913 0.766133 0.176510
0.500927 0.765345 0.175517
0.553903 0.764519 0.174487
0.606841 0.763656 0.173419
0.659742 0.762757 0.172316
0.712608 0.761822 0.171179
0.765439 0.760853 0.170008
0.818237 0.759850 0.168877
0.874220 0.759901 0.148562
0.927451 0.759012 0.127323
0.954349 0.757186 0.105157
0.979581 0.754641 0.098457
0.996399 0.751773 0.095587
0.233361 0.820363 0.177122
0.286400 0.819601 0.176153
0.339400 0.818799 0.175146
0.392361 0.817959 0.174102
0.445286 0.817083 0.173022
0.498174 0.816171 0.171906
0.551027 0.815223 0.170756
0.603846 0.814242 0.169600
0.656632 0.813227 0.168458
0.709384 0.812179 0.167283
0.762105 0.811100 0.166076
0.814794 0.809990 0.164838
0.867453 0.808849 0.163570
0.923456 0.808919 0.141166
0.948982 0.808053 0.117834
0.975185 0.806251 0.093572
0.996921 0.803515 0.086289
0.230815 0.869238 0.173713
0.283726 0.868624 0.172620
0.336602 0.867989 0.171492
0.389442 0.867331 0.170329
0.442249 0.866653 0.169188
0.495022 0.865955 0.168034
0.547763 0.865238 0.166847
0.600472 0.864449 0.165629
0.653151 0.863328 0.164380
0.705799 0.862176 0.163100
0.758417 0.860995 0.161791
0.811006 0.859785 0.160452
0.863567 0.858546 0.159084
0.916100 0.857281 0.157687
0.944950 0.857382 0.133192
0.969373 0.856550 0.107764
0.994898 0.854785 0.081403
0.227853 0.907881 0.169905
0.280647 0.907090 0.168772
0.333409 0.906280 0.167606
0.386138 0.905452 0.166408
0.438836 0.904605 0.165178
0.491503 0.903741 0.163918
0.544140 0.902861 0.162627
0.596748 0.901965 0.161307
0.649327 0.901053 0.159957
0.701877 0.900126 0.158578
0.754401 0.899186 0.157172
0.806897 0.898231 0.155737
0.859366 0.897263 0.154275
0.911810 0.896283 0.152786
0.942199 0.895290 0.151271
0.964891 0.895417 0.124680
0.988676 0.894865 0.097152
0.224509 0.945587 0.165964
0.277195 0.944630 0.164723
0.329851 0.943656 0.163451
0.382478 0.942666 0.162150
0.435075 0.941661 0.160819
0.487643 0.940641 0.159458
0.540184 0.939607 0.158070
0.592697 0.938558 0.156653
0.645183 0.937497 0.155208
0.697644 0.936423 0.153736
0.750078 0.935336 0.152238
0.802487 0.934238 0.150713
0.854871 0.933128 0.149162
0.907230 0.932008 0.147585
0.940866 0.930876 0.145984
0.961683 0.929735 0.144357
0.983775 0.929814 0.115664
0.218798 0.971112 0.160024
0.271825 0.972490 0.159041
0.324827 0.973858 0.158033
0.377804 0.975218 0.156999
0.430758 0.976569 0.155940
0.483467 0.976687 0.154675
0.535917 0.975506 0.153194
0.588342 0.974314 0.151686
0.640742 0.973110 0.150151
0.693117 0.971895 0.148591
0.745468 0.970670 0.147005
0.797795 0.969435 0.145394
0.850099 0.968190 0.143759
0.902379 0.966935 0.142099
0.939510 0.965672 0.140414
0.959938 0.964400 0.138706
0.980138 0.963120 0.136975
0.191138 0.135542 0.200660
0.251992 0.142557 0.207318
0.311121 0.147855 0.212293
0.369295 0.152203 0.216336
0.426817 0.155902 0.219743
0.483848 0.159112 0.222670
0.540487 0.161932 0.225215
0.596801 0.164429 0.227442
0.652839 0.166651 0.229401
0.708637 0.168635 0.231126
0.764225 0.170409 0.232644
0.819624 0.171995 0.233979
0.874853 0.173412 0.235148
0.918853 0.174675 0.236166
0.947255 0.175798 0.237046
0.950601 0.174790 0.236027
0.950498 0.173389 0.234648
0.209484 0.207365 0.217640
0.266812 0.210872 0.220858
0.323691 0.213930 0.223637
0.380205 0.216626 0.226060
0.436414 0.219018 0.228185
0.492361 0.221149 0.230054
0.548079 0.223054 0.231701
0.603596 0.224757 0.233150
0.658931 0.226280 0.234423
0.714102 0.227639 0.235535
0.769124 0.228850 0.236502
0.824009 0.229924 0.237334
0.878766 0.230871 0.238043
0.921207 0.231702 0.238636
0.948912 0.232423 0.239123
0.954342 0.231233 0.237907
0.954217 0.229496 0.236197
0.219883 0.271279 0.226865
0.275992 0.273572 0.228893
0.331852 0.275618 0.230678
0.387495 0.277446 0.232250
0.442943 0.279081 0.233633
0.498217 0.280543 0.234845
0.553332 0.281846 0.235903
0.608302 0.283006 0.236820
0.663140 0.284033 0.237606
0.717853 0.284937 0.238272
0.772452 0.285727 0.238826
0.826944 0.286410 0.239275
0.881335 0.286993 0.239626
0.922886 0.287483 0.239885
0.949959 0.287883 0.240057
0.957907 0.286621 0.238748
0.957766 0.284608 0.236767
0.226884 0.331812 0.232775
0.282267 0.333382 0.234093
0.337481 0.334785 0.235248
0.392543 0.336035 0.236253
0.448151 0.337032 0.236208
0.504889 0.337561 0.235697
0.562766 0.337630 0.234729
0.619730 0.337746 0.234450
0.676200 0.337848 0.234318
0.732571 0.337852 0.234091
0.788850 0.337764 0.233774
0.845042 0.337590 0.233371
0.901151 0.337332 0.232888
0.934016 0.336997 0.232327
0.961436 0.336587 0.231694
0.972629 0.335099 0.230134
0.972522 0.332833 0.227904
0.231734 0.390204 0.236584
0.286607 0.391266 0.237404
0.341353 0.392203 0.238102
0.395982 0.393023 0.238686
0.450503 0.393735 0.239163
0.506411 0.394235 0.236232
0.564743 0.393960 0.232527
0.625503 0.392915 0.228053
0.684481 0.392008 0.226278
0.742576 0.391177 0.225222
0.800593 0.390270 0.224091
0.858537 0.389290 0.222888
0.914536 0.388240 0.221616
0.942627 0.387123 0.220279
0.970406 0.385942 0.218879
0.985299 0.384155 0.216992
0.985232 0.381666 0.214541
0.235025 0.447044 0.238871
0.289507 0.447718 0.239311
0.343890 0.448292 0.239654
0.398178 0.448773 0.239904
0.452377 0.449166 0.240068
0.506493 0.449475 0.240151
0.562670 0.449713 0.233765
0.622130 0.448968 0.226398
0.684877 0.447245 0.218055
0.745170 0.445628 0.214937
0.804297 0.444125 0.213214
0.863360 0.442559 0.211429
0.918113 0.440933 0.209585
0.946261 0.439248 0.207684
0.974102 0.437508 0.205729
0.992895 0.435447 0.203535
0.992858 0.432763 0.200892
0.237102 0.502676 0.239974
0.291270 0.503038 0.240108
0.345356 0.503317 0.240161
0.399364 0.503519 0.240138
0.453297 0.503646 0.240042
0.507160 0.503703 0.239877
0.560954 0.503692 0.239646
0.616979 0.503780 0.230982
0.676300 0.502898 0.221351
0.738920 0.501050 0.210755
0.798975 0.499196 0.206979
0.857844 0.497436 0.205004
0.916145 0.495622 0.202976
0.943754 0.493758 0.200899
0.971065 0.491844 0.198773
0.993556 0.489741 0.196503
0.993518 0.486898 0.193703
0.238189 0.557324 0.240111
0.292096 0.557425 0.239990
0.345934 0.557457 0.239800
0.399704 0.557422 0.239546
0.453411 0.557324 0.239228
0.507056 0.557165 0.238851
0.560642 0.556947 0.238417
0.614171 0.556672 0.237927
0.670095 0.556660 0.227036
0.729326 0.555689 0.215187
0.791864 0.553760 0.202382
0.851722 0.551710 0.197987
0.910370 0.549731 0.195798
0.941101 0.547706 0.193563
0.967901 0.545637 0.191285
0.994191 0.543518 0.188960
0.994152 0.540530 0.186019
0.238445 0.611144 0.239437
0.292129 0.611023 0.239098
0.345753 0.610842 0.238700
0.399318 0.610603 0.238245
0.452827 0.610309 0.237735
0.506283 0.609961 0.237173
0.559686 0.609561 0.236560
0.613040 0.609111 0.235898
0.666344 0.608613 0.235189
0.722205 0.608539 0.222107
0.781380 0.607512 0.208075
0.843869 0.605535 0.193092
0.903560 0.603320 0.188110
0.938338 0.601151 0.185734
0.964642 0.598942 0.183319
0.990663 0.596694 0.180865
0.994762 0.593709 0.177888
0.237987 0.664253 0.238065
0.291476 0.663938 0.237537
0.344913 0.663571 0.236956
0.398298 0.663153 0.236325
0.451633 0.662685 0.235645
0.504920 0.662170 0.234919
0.558161 0.661609 0.234148
0.611357 0.661002 0.233332
0.664510 0.660353 0.232475
0.717620 0.659661 0.231575
0.773446 0.659553 0.216331
0.832591 0.658498 0.200140
0.895056 0.656498 0.183005
0.935496 0.654141 0.177459
0.961318 0.651805 0.174918
0.986864 0.649433 0.172343
0.995348 0.646474 0.169377
0.236902 0.716738 0.236083
0.290220 0.716253 0.235386
0.343490 0.715721 0.234644
0.396715 0.715143 0.233856
0.449895 0.714521 0.233025
0.503032 0.713856 0.232152
0.556127 0.713149 0.231238
0.609181 0.712402 0.230284
0.662196 0.711615 0.229292
0.715172 0.710790 0.228262
0.768111 0.709928 0.227196
0.823924 0.709808 0.209810
0.883061 0.708745 0.191482
0.932054 0.706742 0.172214
0.957953 0.704263 0.166342
0.983034 0.701777 0.163805
0.995911 0.698860 0.160970
0.235262 0.768672 0.233558
0.288427 0.768034 0.232712
0.341548 0.767353 0.231824
0.394628 0.766632 0.230895
0.447668 0.765870 0.229927
0.500668 0.765069 0.228921
0.553631 0.764230 0.227878
0.606556 0.763355 0.226799
0.659446 0.762443 0.225684
0.712300 0.761497 0.224535
0.765119 0.760516 0.223352
0.817906 0.759502 0.222137
0.873724 0.759388 0.202627
0.927238 0.758335 0.182179
0.954021 0.756344 0.161305
0.979194 0.753758 0.155019
0.996452 0.750896 0.152179
0.233124 0.820109 0.230547
0.286149 0.819333 0.229566
0.339136 0.818518 0.228546
0.392085 0.817666 0.227489
0.444997 0.816777 0.226397
0.497874 0.815853 0.225270
0.550715 0.814894 0.224108
0.603522 0.813901 0.222914
0.656297 0.812875 0.221686
0.709038 0.811816 0.220428
0.761748 0.810726 0.219138
0.814427 0.809605 0.217818
0.867076 0.808455 0.216469
0.922914 0.808361 0.194848
0.948721 0.807331 0.172293
0.974813 0.805366 0.149890
0.996973 0.802606 0.143024
0.230534 0.869032 0.227096
0.283433 0.868411 0.225990
0.336297 0.867768 0.224851
0.389126 0.867103 0.223677
0.441921 0.866418 0.222471
0.494683 0.865714 0.221232
0.547413 0.864990 0.219962
0.600112 0.864072 0.218661
0.652780 0.862940 0.217330
0.705418 0.861778 0.215970
0.758026 0.860587 0.214581
0.810606 0.859367 0.213164
0.863157 0.858120 0.211720
0.915681 0.856844 0.210248
0.944754 0.856783 0.186530
0.969070 0.855788 0.162331
0.994484 0.853860 0.137890
0.227532 0.907615 0.223242
0.280315 0.906817 0.222023
0.333066 0.906001 0.220773
0.385784 0.905166 0.219492
0.438472 0.904314 0.218180
0.491128 0.903444 0.216838
0.543755 0.902558 0.215468
0.596353 0.901657 0.214069
0.648923 0.900740 0.212642
0.701464 0.899808 0.211187
0.753978 0.898863 0.209706
0.806465 0.897904 0.208199
0.858925 0.896932 0.206666
0.911360 0.895947 0.205107
0.942066 0.894951 0.203524
0.964653 0.894960 0.177718
0.988332 0.894292 0.151882
0.224151 0.945264 0.219018
0.276827 0.944301 0.217695
0.329473 0.943322 0.216343
0.382089 0.942327 0.214962
0.434677 0.941316 0.213552
0.487236 0.940291 0.212115
0.539767 0.939252 0.210651
0.592271 0.938199 0.209160
0.644748 0.937133 0.207644
0.697200 0.936055 0.206101
0.749625 0.934964 0.204534
0.802025 0.933862 0.202942
0.854401 0.932749 0.201326
0.906752 0.931625 0.199686
0.940730 0.930490 0.198023
0.961507 0.929346 0.196338
0.983497 0.929309 0.168627
0.218555 0.971581 0.212847
0.271574 0.972956 0.211807
0.324567 0.974321 0.210743
0.377537 0.975678 0.209655
0.430482 0.977026 0.208544
0.483028 0.976287 0.207085
0.535470 0.975102 0.205534
0.587887 0.973906 0.203957
0.640278 0.972699 0.202357
0.692645 0.971480 0.200732
0.744987 0.970252 0.199084
0.797306 0.969013 0.197412
0.849602 0.967765 0.195718
0.901875 0.966507 0.194002
0.939372 0.965241 0.192264
0.959761 0.963967 0.190504
0.979922 0.962684 0.188723
0.193845 0.138217 0.256958
0.253956 0.144493 0.262891
0.312711 0.149419 0.267501
0.370639 0.153523 0.271305
0.427981 0.157042 0.274535
0.484869 0.160110 0.277323
0.541391 0.162814 0.279754
0.597607 0.165212 0.281886
0.653560 0.167350 0.283761
0.709284 0.169260 0.285413
0.764805 0.170967 0.286867
0.820144 0.172494 0.288144
0.875320 0.173858 0.289260
0.919127 0.175072 0.290230
0.947455 0.176149 0.291065
0.950987 0.175117 0.290020
0.950881 0.173678 0.288605
0.210756 0.208613 0.272539
