library/luts/soft_milk.cube
# CrabbyCut preset LUT — sinh bởi scripts/generate_preset_luts.js
TITLE "Sữa"
LUT_3D_SIZE 17
0.164485 0.168067 0.109791
0.225920 0.176472 0.117357
0.283966 0.181472 0.121786
0.340938 0.185393 0.125225
0.397254 0.188654 0.128058
0.453099 0.191443 0.130457
0.508581 0.193866 0.132521
0.563768 0.195993 0.134312
0.618707 0.197871 0.135875
0.673434 0.199536 0.137240
0.727975 0.201014 0.138432
0.782351 0.202326 0.139471
0.836579 0.203489 0.140372
0.885457 0.204517 0.141148
0.923522 0.205422 0.141808
0.926659 0.204061 0.140502
0.926499 0.202395 0.138926
0.182789 0.239769 0.126315
0.238917 0.242842 0.128976
0.295357 0.245368 0.130314
0.352811 0.247192 0.130994
0.411339 0.248375 0.131069
0.468773 0.249492 0.131739
0.525589 0.250502 0.132476
0.582227 0.251335 0.133047
0.638706 0.252008 0.133469
0.695043 0.252537 0.133757
0.751250 0.252937 0.133923
0.807338 0.253216 0.133975
0.863317 0.253386 0.133924
0.905636 0.253454 0.133776
0.944604 0.253427 0.133538
0.951515 0.251854 0.132005
0.951384 0.249877 0.130129
0.191359 0.301691 0.133850
0.246361 0.303633 0.135471
0.301143 0.305353 0.136887
0.357329 0.306762 0.134735
0.416044 0.307272 0.131721
0.477306 0.306900 0.127857
0.536612 0.306628 0.126714
0.594934 0.306400 0.126269
0.653141 0.306056 0.125715
0.711241 0.305605 0.125057
0.769242 0.305054 0.124305
0.827151 0.304412 0.123463
0.881859 0.303682 0.122537
0.922023 0.302871 0.121531
0.961940 0.301983 0.120451
0.973491 0.300167 0.118652
0.973406 0.297929 0.116523
0.196847 0.360516 0.138534
0.251209 0.361814 0.139560
0.305424 0.362964 0.140449
0.359506 0.363981 0.141213
0.415760 0.364884 0.135287
0.475502 0.364704 0.128307
0.538738 0.363447 0.120278
0.599323 0.362282 0.117606
0.658640 0.361218 0.116352
0.717872 0.360069 0.115014
0.777025 0.358841 0.113597
0.836104 0.357538 0.112106
0.889113 0.356163 0.110545
0.929763 0.354721 0.108915
0.970175 0.353215 0.107221
0.986940 0.351163 0.105155
0.986892 0.348706 0.102811
0.200448 0.417445 0.141463
0.254367 0.418297 0.142074
0.308177 0.419040 0.142583
0.361886 0.419682 0.142997
0.415501 0.420230 0.143323
0.471488 0.420864 0.134911
0.530991 0.420443 0.125465
0.594015 0.418972 0.114985
0.654278 0.417483 0.111546
0.713261 0.416083 0.109959
0.772177 0.414617 0.108306
0.831031 0.413088 0.106589
0.885701 0.411499 0.104812
0.925897 0.409852 0.102975
0.965866 0.408150 0.101083
0.987906 0.406026 0.098902
0.987855 0.403393 0.096381
0.202700 0.473017 0.143126
0.256282 0.473532 0.143420
0.309779 0.473961 0.143633
0.363196 0.474309 0.143770
0.416536 0.474580 0.143833
0.469804 0.474779 0.143828
0.525629 0.475249 0.133010
0.584987 0.474681 0.121164
0.647882 0.473081 0.108292
0.707899 0.471344 0.104150
0.766615 0.469676 0.102293
0.825277 0.467955 0.100380
0.881911 0.466181 0.098414
0.921681 0.464358 0.096396
0.961233 0.462486 0.094328
0.988846 0.460322 0.092057
0.988793 0.457533 0.089381
0.203907 0.527541 0.143801
0.257221 0.527786 0.143839
0.310464 0.527959 0.143810
0.363640 0.528066 0.143716
0.416753 0.528108 0.143561
0.469805 0.528090 0.143346
0.522799 0.528013 0.143076
0.578526 0.528384 0.129892
0.637799 0.527731 0.115684
0.700620 0.526054 0.100452
0.760440 0.524119 0.095649
0.818936 0.522231 0.093563
0.877386 0.520296 0.091429
0.917177 0.518317 0.089249
0.956331 0.516296 0.087023
0.989763 0.514117 0.084682
0.989708 0.511190 0.081865
0.204268 0.581213 0.143666
0.257358 0.581233 0.143489
0.310389 0.581193 0.143254
0.363362 0.581096 0.142964
0.416281 0.580943 0.142620
0.469147 0.580739 0.142225
0.521963 0.580483 0.141780
0.574731 0.580179 0.141288
0.630406 0.580497 0.125762
0.689635 0.579798 0.109213
0.752419 0.578084 0.091637
0.812078 0.575987 0.086202
0.870386 0.573910 0.083917
0.912432 0.571794 0.081589
0.951205 0.569639 0.079221
0.989774 0.567447 0.076812
0.990601 0.564415 0.073879
0.203918 0.634172 0.142845
0.256817 0.634000 0.142482
0.309665 0.633776 0.142069
0.362463 0.633503 0.141606
0.415214 0.633181 0.141097
0.467918 0.632814 0.140542
0.520578 0.632402 0.139943
0.573196 0.631947 0.139301
0.625772 0.631450 0.138617
0.681427 0.631747 0.120762
0.740641 0.631033 0.101881
0.803417 0.629310 0.081972
0.862942 0.627077 0.075925
0.907486 0.624836 0.073463
0.945892 0.622561 0.070962
0.984098 0.620252 0.068425
0.991474 0.617249 0.065460
0.202957 0.686516 0.141426
0.255691 0.686178 0.140900
0.308379 0.685794 0.140329
0.361023 0.685366 0.139714
0.413626 0.684895 0.139056
0.466187 0.684384 0.138358
0.518708 0.683832 0.137620
0.571191 0.683242 0.136842
0.623637 0.682615 0.136027
0.676047 0.681951 0.135176
0.731706 0.682251 0.114997
0.790929 0.681546 0.093789
0.853718 0.679835 0.071550
0.902370 0.677487 0.064906
0.940420 0.675101 0.062284
0.978276 0.672686 0.059627
0.992327 0.669726 0.056638
0.201463 0.738324 0.139479
0.254050 0.737839 0.138807
0.306596 0.737313 0.138094
0.359104 0.736747 0.137341
0.411573 0.736143 0.136550
0.464006 0.735502 0.135722
0.516403 0.734826 0.134857
0.568765 0.734114 0.133956
0.621093 0.733369 0.133021
0.673389 0.732590 0.132051
0.725653 0.731780 0.131049
0.781334 0.732102 0.108547
0.840584 0.731422 0.085013
0.896193 0.729741 0.060443
0.934817 0.727293 0.053213
0.972331 0.724779 0.050445
0.993162 0.721876 0.047439
0.199494 0.789656 0.137058
0.251950 0.789039 0.136253
0.304370 0.788385 0.135411
0.356754 0.787696 0.134533
0.409104 0.786972 0.133619
0.461420 0.786214 0.132672
0.513704 0.785424 0.131690
0.565956 0.784602 0.130676
0.618178 0.783749 0.129630
0.670369 0.782866 0.128552
0.722531 0.781953 0.127443
0.774664 0.781011 0.126304
0.830384 0.781371 0.101477
0.887533 0.780731 0.075613
0.928172 0.779093 0.048709
0.966283 0.776560 0.040902
0.993978 0.773724 0.037885
0.197101 0.840561 0.134204
0.249438 0.839825 0.133278
0.301743 0.839055 0.132318
0.354015 0.838253 0.131325
0.406256 0.837420 0.130299
0.458466 0.836556 0.129241
0.510647 0.835662 0.128152
0.562798 0.834738 0.127032
0.614921 0.833787 0.125882
0.667017 0.832807 0.124703
0.719085 0.831800 0.123495
0.771127 0.830766 0.122259
0.823143 0.829707 0.120995
0.878912 0.830116 0.093838
0.919011 0.829528 0.065639
0.959209 0.827945 0.036396
0.994776 0.825291 0.028015
0.194322 0.889931 0.130955
0.246551 0.889525 0.129917
0.298751 0.889104 0.128848
0.350921 0.888454 0.127747
0.403062 0.887520 0.126617
0.455175 0.886558 0.125456
0.507260 0.885568 0.124266
0.559319 0.884552 0.123048
0.611351 0.883509 0.121802
0.663358 0.882440 0.120527
0.715339 0.881346 0.119226
0.767296 0.880227 0.117898
0.819229 0.879084 0.116544
0.871138 0.877917 0.115198
0.911911 0.878401 0.087118
0.949604 0.877900 0.060051
0.989369 0.876386 0.032250
0.191191 0.921228 0.127339
0.243321 0.920679 0.126198
0.295424 0.920118 0.125026
0.347500 0.919544 0.123826
0.399549 0.918958 0.122598
0.451572 0.918361 0.121341
0.503569 0.917753 0.120057
0.555542 0.917135 0.118746
0.607490 0.916507 0.117408
0.659414 0.915870 0.116045
0.711314 0.915223 0.114711
0.763227 0.914591 0.115723
0.815127 0.913956 0.117385
0.867006 0.913314 0.119045
0.906922 0.912665 0.120701
0.942113 0.913057 0.092761
0.979369 0.912853 0.064092
0.187736 0.951736 0.123382
0.239776 0.951053 0.122143
0.291789 0.950358 0.120877
0.343777 0.949653 0.119583
0.395741 0.948938 0.118262
0.447680 0.948214 0.116915
0.499596 0.947480 0.115560
0.551494 0.946742 0.114664
0.603409 0.946018 0.116328
0.655301 0.945286 0.117990
0.707171 0.944547 0.119648
0.759021 0.943800 0.121303
0.810849 0.943047 0.122954
0.862657 0.942287 0.124603
0.904337 0.941521 0.126249
0.936680 0.940749 0.127891
0.971463 0.941078 0.098358
0.182455 0.974442 0.117723
0.234844 0.975649 0.116785
0.287211 0.976846 0.115824
0.339558 0.978036 0.114872
0.391681 0.978197 0.115270
0.443587 0.977375 0.116934
0.495472 0.976546 0.118594
0.547334 0.975710 0.120251
0.599176 0.974867 0.121904
0.650997 0.974017 0.123555
0.702797 0.973161 0.125202
0.754578 0.972300 0.126847
0.806339 0.971432 0.128488
0.858080 0.970559 0.130127
0.901665 0.969681 0.131762
0.933720 0.968799 0.133395
0.965612 0.967911 0.135025
0.168315 0.171934 0.163462
0.227760 0.178340 0.169266
0.285364 0.182896 0.173520
0.342084 0.186563 0.176955
0.398224 0.189648 0.179817
0.453936 0.192303 0.182255
0.509312 0.194619 0.184361
0.564410 0.196657 0.186192
0.619274 0.198459 0.187791
0.673935 0.200058 0.189190
0.728418 0.201477 0.190412
0.782742 0.202737 0.191477
0.836922 0.203853 0.192401
0.885690 0.204838 0.193195
0.923695 0.205704 0.193873
0.927153 0.204327 0.192497
0.926990 0.202628 0.190820
0.183864 0.240868 0.178053
0.239835 0.243783 0.180748
0.295416 0.246307 0.183057
0.350685 0.248516 0.185057
0.405693 0.250463 0.186799
0.460480 0.252188 0.188322
0.515074 0.253719 0.189654
0.569497 0.255078 0.190817
0.623767 0.256284 0.191829
0.677899 0.257351 0.192704
0.731905 0.258291 0.193455
0.785796 0.259116 0.194092
0.839580 0.259833 0.194623
0.887506 0.260451 0.195056
0.924959 0.260977 0.195398
0.931946 0.259520 0.193926
0.931758 0.257535 0.191967
0.192023 0.302378 0.185719
0.246947 0.304240 0.187377
0.301661 0.305892 0.188828
0.356927 0.307237 0.189119
0.413378 0.308054 0.188883
0.471032 0.308359 0.188138
0.527693 0.308698 0.188115
0.583816 0.309013 0.188241
0.639826 0.309214 0.188255
0.695733 0.309312 0.188167
0.751543 0.309312 0.187983
0.807263 0.309222 0.187710
0.862899 0.309047 0.187354
0.905186 0.308793 0.186919
0.943600 0.308463 0.186410
0.955134 0.306829 0.184741
0.954987 0.304590 0.182531
0.197285 0.360975 0.190516
0.251595 0.362220 0.191568
0.305763 0.363324 0.192479
0.359802 0.364298 0.193263
0.415321 0.365036 0.190385
0.473429 0.364936 0.186671
0.534135 0.364006 0.182128
0.592931 0.363221 0.180473
0.650779 0.362516 0.179587
0.708544 0.361729 0.178618
0.766232 0.360863 0.177573
0.823846 0.359924 0.176455
0.879671 0.358915 0.175268
0.919304 0.357839 0.174034
0.958706 0.356700 0.172762
0.975551 0.354815 0.170875
0.975459 0.352355 0.168516
0.200730 0.417747 0.193518
0.254611 0.418561 0.194145
0.308386 0.419269 0.194667
0.362062 0.419879 0.195092
0.415647 0.420396 0.195425
0.471440 0.420836 0.188828
0.530752 0.420223 0.181179
0.593585 0.418562 0.172537
0.653792 0.417015 0.169543
0.712751 0.415593 0.167993
0.771646 0.414105 0.166377
0.830479 0.412555 0.164698
0.885334 0.410946 0.162959
0.925486 0.409280 0.161162
0.965412 0.407560 0.159308
0.988002 0.405431 0.157146
0.987951 0.402781 0.154598
0.202865 0.473202 0.195223
0.256418 0.473687 0.195526
0.309887 0.474088 0.195745
0.363277 0.474409 0.195886
0.416592 0.474655 0.195954
0.469837 0.474831 0.195951
0.525474 0.475113 0.186916
0.584646 0.474359 0.176846
0.647356 0.472573 0.166003
0.707321 0.470784 0.162311
0.766018 0.469098 0.160493
0.824663 0.467358 0.158620
0.881510 0.465568 0.156694
0.921239 0.463727 0.154716
0.960749 0.461840 0.152688
0.988940 0.459673 0.150447
0.988886 0.456870 0.147744
0.203980 0.527632 0.195919
0.257269 0.527852 0.195961
0.310489 0.528003 0.195934
0.363643 0.528087 0.195842
0.416735 0.528108 0.195687
0.469767 0.528070 0.195474
0.522741 0.527974 0.195205
0.578286 0.528162 0.183794
0.637376 0.527326 0.171464
0.700015 0.525467 0.158333
0.759786 0.523483 0.153983
0.818266 0.521579 0.151938
0.876701 0.519629 0.149845
0.916708 0.517636 0.147706
0.955823 0.515600 0.145521
0.989855 0.513421 0.143221
0.989799 0.510481 0.140379
0.204263 0.581227 0.195792
0.257333 0.581226 0.195617
0.310343 0.581166 0.195383
0.363298 0.581050 0.195093
0.416199 0.580880 0.194750
0.469048 0.580657 0.194356
0.521847 0.580385 0.193913
0.574599 0.580065 0.193423
0.630093 0.580203 0.179680
0.689143 0.579324 0.165158
0.751747 0.577431 0.149694
0.811360 0.575287 0.144715
0.869654 0.573196 0.142471
0.911941 0.571066 0.140186
0.950677 0.568898 0.137859
0.989209 0.566694 0.135492
0.990691 0.563665 0.132546
0.203847 0.634119 0.194974
0.256729 0.633930 0.194612
0.309560 0.633689 0.194200
0.362341 0.633399 0.193740
0.415076 0.633062 0.193233
0.467765 0.632679 0.192681
0.520411 0.632252 0.192085
0.573014 0.631782 0.191448
0.625576 0.631272 0.190770
0.681053 0.631390 0.174763
0.740090 0.630499 0.157998
0.802688 0.628598 0.140209
0.862167 0.626320 0.134620
0.906976 0.624067 0.132200
0.945346 0.621780 0.129742
0.983517 0.619460 0.127247
0.991561 0.616461 0.124281
0.202830 0.686407 0.193561
0.255548 0.686053 0.193037
0.308221 0.685653 0.192469
0.360851 0.685211 0.191858
0.413439 0.684726 0.191206
0.465986 0.684201 0.190513
0.518494 0.683636 0.189782
0.570965 0.683033 0.189014
0.623398 0.682394 0.188209
0.675796 0.681718 0.187368
0.731278 0.681841 0.169163
0.790325 0.680959 0.150080
0.852938 0.679072 0.129970
0.901845 0.676680 0.123786
0.939860 0.674284 0.121206
0.977681 0.671858 0.118593
0.992412 0.668904 0.115615
0.201285 0.738164 0.191625
0.253858 0.737665 0.190958
0.306391 0.737125 0.190252
0.358885 0.736546 0.189507
0.411342 0.735930 0.188725
0.463763 0.735277 0.187907
0.516148 0.734588 0.187054
0.568498 0.733865 0.186167
0.620815 0.733108 0.185247
0.673100 0.732319 0.184294
0.725353 0.731497 0.183311
0.780859 0.731644 0.162882
0.839934 0.730789 0.141480
0.895677 0.728933 0.119047
0.934245 0.726443 0.112280
0.971725 0.723919 0.109554
0.993245 0.721022 0.106572
0.199271 0.789451 0.189226
0.251715 0.788821 0.188431
0.304122 0.788155 0.187600
0.356495 0.787454 0.186735
0.408833 0.786718 0.185836
0.461138 0.785949 0.184904
0.513411 0.785148 0.183940
0.565653 0.784316 0.182945
0.617864 0.783452 0.181920
0.670045 0.782559 0.180865
0.722197 0.781636 0.179782
0.774321 0.780685 0.178671
0.829866 0.780870 0.155982
0.887115 0.780056 0.132258
0.927612 0.778244 0.107499
0.965668 0.775669 0.100156
0.994059 0.772841 0.097175
0.196837 0.840315 0.186411
0.249163 0.839567 0.185500
0.301457 0.838786 0.184556
0.353718 0.837974 0.183581
0.405949 0.837130 0.182575
0.458149 0.836255 0.181539
0.510319 0.835351 0.180474
0.562461 0.834418 0.179380
0.614575 0.833457 0.178263
0.666661 0.832468 0.177121
0.718720 0.831452 0.175950
0.770753 0.830410 0.174751
0.822760 0.829341 0.173525
0.878356 0.829577 0.148513
0.918550 0.828816 0.122464
0.958608 0.827059 0.095373
0.994856 0.824381 0.087485
0.194021 0.889795 0.183218
0.246240 0.889383 0.182202
0.298430 0.888957 0.181155
0.350590 0.888140 0.180079
0.402721 0.887197 0.178975
0.454825 0.886225 0.177850
0.506901 0.885226 0.176698
0.558950 0.884200 0.175517
0.610974 0.883149 0.174308
0.662972 0.882071 0.173071
0.714945 0.880969 0.171807
0.766894 0.879841 0.170517
0.818818 0.878690 0.169201
0.870719 0.877515 0.167868
0.911539 0.877812 0.140586
0.949082 0.877114 0.112310
0.988712 0.875422 0.083040
0.190856 0.921043 0.179681
0.242977 0.920490 0.178568
0.295071 0.919924 0.177434
0.347137 0.919346 0.176271
0.399177 0.918756 0.175080
0.451192 0.918156 0.173861
0.503180 0.917545 0.172614
0.555145 0.916923 0.171341
0.607084 0.916292 0.170041
0.659000 0.915651 0.168718
0.710893 0.915002 0.167378
0.762763 0.914344 0.166015
0.814611 0.913677 0.164631
0.866436 0.913003 0.163224
0.906543 0.912321 0.161796
0.941607 0.912609 0.132300
0.978752 0.912314 0.101811
0.187370 0.951505 0.175841
0.239401 0.950818 0.174639
0.291406 0.950120 0.173410
0.343386 0.949412 0.172154
0.395341 0.948693 0.170871
0.447272 0.947966 0.169561
0.499180 0.947229 0.168233
0.551064 0.946484 0.166884
0.602926 0.945731 0.165514
0.654765 0.944969 0.164121
0.706583 0.944200 0.162707
0.758379 0.943424 0.161271
0.810155 0.942641 0.159815
0.861909 0.941851 0.158339
0.903846 0.941055 0.156842
0.936145 0.940254 0.155326
0.970841 0.940507 0.123622
0.182207 0.974853 0.170403
0.234589 0.976056 0.169516
0.286949 0.977251 0.168605
0.339289 0.978437 0.167683
0.391232 0.977898 0.166388
0.443085 0.977049 0.165009
0.494917 0.976193 0.163609
0.546727 0.975330 0.162187
0.598515 0.974460 0.160744
0.650283 0.973583 0.159280
0.702030 0.972700 0.157796
0.753757 0.971810 0.156292
0.805465 0.970915 0.154769
0.857153 0.970015 0.153226
0.901060 0.969110 0.151664
0.933079 0.968199 0.150084
0.964940 0.967284 0.148486
0.170819 0.174468 0.218639
0.229412 0.180019 0.223928
0.286664 0.184220 0.227889
0.343163 0.187666 0.231107
0.399145 0.190592 0.233812
0.454735 0.193124 0.236129
0.510010 0.195340 0.238136
0.565025 0.197294 0.239884
0.619817 0.199023 0.241412
0.674415 0.200559 0.242749
0.728842 0.201922 0.243915
0.783115 0.203131 0.244931
0.837251 0.204201 0.245809
0.885913 0.205145 0.246563
0.923859 0.205972 0.247203
0.927644 0.204582 0.245812
0.927478 0.202852 0.244103
0.184880 0.241909 0.232143
0.240708 0.244680 0.234696
0.296176 0.247089 0.236893
0.351351 0.249204 0.238800
0.406281 0.251073 0.240464
0.460999 0.252729 0.241920
0.515533 0.254199 0.243192
0.569902 0.255504 0.244302
0.624124 0.256661 0.245266
0.678212 0.257684 0.246098
0.732178 0.258584 0.246809
0.786031 0.259371 0.247409
0.839781 0.260054 0.247906
0.887645 0.260640 0.248307
0.925045 0.261135 0.248620
0.932421 0.259676 0.247143
0.932231 0.257666 0.245159
0.192660 0.303036 0.239432
0.247509 0.304824 0.241017
0.302157 0.306409 0.242403
0.356629 0.307817 0.243614
0.410942 0.309067 0.244669
0.465114 0.310173 0.245583
0.519156 0.311150 0.246370
0.573080 0.312008 0.247039
0.626895 0.312757 0.247601
0.680609 0.313403 0.248063
0.734229 0.313955 0.248431
0.787761 0.314419 0.248712
0.841210 0.314800 0.248912
0.888645 0.315102 0.249035
0.925558 0.315330 0.249084
0.937045 0.313893 0.247610
0.936837 0.311654 0.245399
0.197704 0.361415 0.244015
0.251964 0.362610 0.245017
0.306087 0.363668 0.245884
0.360085 0.364601 0.246627
0.414705 0.365298 0.246279
0.470569 0.365523 0.245461
0.527683 0.365286 0.244182
0.583847 0.365125 0.243667
0.639507 0.364975 0.243335
0.695086 0.364743 0.242923
0.750589 0.364435 0.242436
0.806020 0.364055 0.241877
0.861383 0.363606 0.241251
0.904046 0.363091 0.240560
0.941957 0.362515 0.239808
0.958635 0.360897 0.238130
0.958477 0.358441 0.235705
0.200999 0.418036 0.246869
0.254843 0.418813 0.247459
0.308584 0.419487 0.247947
0.362228 0.420064 0.248340
0.415784 0.420551 0.248644
0.470851 0.420837 0.245321
0.528539 0.420315 0.241191
0.588851 0.418988 0.236258
0.647276 0.417830 0.234236
0.704773 0.416774 0.233003
0.762207 0.415654 0.231707
0.819580 0.414472 0.230350
0.876895 0.413232 0.228936
0.916056 0.411936 0.227467
0.954981 0.410587 0.225946
0.977548 0.408686 0.223958
0.977451 0.406035 0.221341
0.203020 0.473377 0.248461
0.256544 0.473832 0.248734
0.309986 0.474206 0.248926
0.363350 0.474501 0.249042
0.416641 0.474723 0.249085
0.469862 0.474875 0.249060
0.525312 0.474970 0.242123
0.584299 0.474030 0.234153
0.646823 0.472059 0.225151
0.706736 0.470217 0.221765
0.765415 0.468513 0.219888
0.824042 0.466756 0.217959
0.881106 0.464948 0.215980
0.920793 0.463092 0.213953
0.960263 0.461188 0.211880
0.989033 0.459019 0.209596
0.988980 0.456201 0.206813
0.204043 0.527715 0.249066
0.257309 0.527911 0.249084
0.310506 0.528039 0.249034
0.363639 0.528101 0.248921
0.416710 0.528102 0.248747
0.469722 0.528044 0.248514
0.522678 0.527929 0.248226
0.578039 0.527934 0.238918
0.636947 0.526915 0.228587
0.699404 0.524875 0.217235
0.759127 0.522842 0.213203
0.817591 0.520922 0.211114
0.876011 0.518957 0.208981
0.916237 0.516949 0.206805
0.955313 0.514900 0.204588
0.989946 0.512720 0.202264
0.989890 0.509768 0.199348
0.204251 0.581234 0.248864
0.257300 0.581212 0.248668
0.310292 0.581133 0.248415
0.363228 0.580998 0.248107
0.416111 0.580810 0.247747
0.468942 0.580570 0.247336
0.521725 0.580282 0.246877
0.574461 0.579946 0.246371
0.629776 0.579903 0.234733
0.688645 0.578844 0.222080
0.751071 0.576772 0.208414
0.810636 0.574581 0.203771
0.868918 0.572477 0.201500
0.911448 0.570334 0.199191
0.950146 0.568154 0.196846
0.988641 0.565937 0.194464
0.990779 0.562910 0.191464
0.203771 0.634061 0.247982
0.256635 0.633854 0.247603
0.309449 0.633596 0.247174
0.362214 0.633290 0.246698
0.414933 0.632937 0.246175
0.467607 0.632539 0.245608
0.520238 0.632097 0.244998
0.572827 0.631614 0.244347
0.625376 0.631089 0.243656
0.680674 0.631030 0.229719
0.739533 0.629960 0.214773
0.801954 0.627882 0.198818
0.861388 0.625559 0.193589
0.906465 0.623294 0.191160
0.944799 0.620996 0.188698
0.982934 0.618664 0.186203
0.991648 0.615669 0.183201
0.202697 0.686292 0.246513
0.255399 0.685922 0.245974
0.308057 0.685508 0.245391
0.360673 0.685051 0.244766
0.413247 0.684552 0.244100
0.465781 0.684013 0.243394
0.518276 0.683436 0.242651
0.570734 0.682820 0.241869
0.623155 0.682168 0.241052
0.675541 0.681480 0.240200
0.730847 0.681427 0.223987
0.789718 0.680369 0.206769
0.852155 0.678306 0.188547
0.901319 0.675870 0.182750
0.939299 0.673464 0.180182
0.977085 0.671027 0.177591
0.992497 0.668078 0.174626
0.201102 0.737999 0.244528
0.253661 0.737486 0.243848
0.306181 0.736933 0.243128
0.358663 0.736341 0.242370
0.411107 0.735712 0.241576
0.463515 0.735047 0.240746
0.515888 0.734346 0.239881
0.568228 0.733612 0.238983
0.620534 0.732844 0.238052
0.672807 0.732043 0.237089
0.725050 0.731211 0.236095
0.780381 0.731183 0.217623
0.839281 0.730153 0.198150
0.895160 0.728121 0.177684
0.933671 0.725589 0.171379
0.971117 0.723056 0.168697
0.993328 0.720166 0.165741
0.199044 0.789241 0.242085
0.251475 0.788599 0.241278
0.303871 0.787921 0.240435
0.356231 0.787208 0.239558
0.408558 0.786461 0.238648
0.460852 0.785681 0.237705
0.513115 0.784869 0.236730
0.565346 0.784026 0.235725
0.617547 0.783152 0.234690
0.669718 0.782249 0.233626
0.721861 0.781316 0.232533
0.773975 0.780356 0.231412
0.829346 0.780367 0.210696
0.886696 0.779379 0.188983
0.927050 0.777393 0.166322
0.965052 0.774776 0.159443
0.994140 0.771955 0.156501
0.196570 0.840065 0.239231
0.248885 0.839306 0.238308
0.301167 0.838514 0.237354
0.353418 0.837691 0.236368
0.405638 0.836836 0.235352
0.457828 0.835952 0.234306
0.509989 0.835038 0.233231
0.562121 0.834095 0.232128
0.614225 0.833124 0.230997
0.666302 0.832126 0.229839
0.718352 0.831101 0.228655
0.770376 0.830050 0.227445
0.822375 0.828973 0.226209
0.877798 0.829035 0.203262
0.918088 0.828101 0.179319
0.958006 0.826171 0.154382
0.994935 0.823468 0.146953
0.193717 0.889657 0.236001
0.245926 0.889240 0.234974
0.298105 0.888747 0.233918
0.350255 0.887823 0.232832
0.402377 0.886870 0.231719
0.454472 0.885889 0.230578
0.506539 0.884881 0.229411
0.558579 0.883846 0.228217
0.610594 0.882786 0.226998
0.662584 0.881699 0.225753
0.714548 0.880588 0.224485
0.766489 0.879453 0.223192
0.818405 0.878294 0.221875
0.870299 0.877111 0.220536
0.911175 0.877235 0.195366
0.948580 0.876364 0.169203
0.988072 0.874500 0.142046
0.190519 0.920857 0.232430
0.242630 0.920299 0.231307
0.294714 0.919729 0.230156
0.346772 0.919147 0.228979
0.398803 0.918554 0.227776
0.450809 0.917949 0.226548
0.502789 0.917335 0.225294
0.554745 0.916710 0.224017
0.606676 0.916075 0.222715
0.658585 0.915432 0.221390
0.710470 0.914779 0.220043
0.762332 0.914118 0.218673
0.814172 0.913449 0.217280
0.865990 0.912772 0.215867
0.906275 0.912088 0.214432
0.941204 0.912276 0.187048
0.978214 0.911881 0.158673
0.187002 0.951273 0.228544
0.239023 0.950582 0.227332
0.291020 0.949880 0.226094
0.342991 0.949169 0.224832
0.394938 0.948447 0.223546
0.446861 0.947717 0.222236
0.498761 0.946977 0.220902
0.550637 0.946229 0.219546
0.602492 0.945473 0.218168
0.654324 0.944709 0.216768
0.706134 0.943937 0.215347
0.757923 0.943159 0.213904
0.809692 0.942374 0.212441
0.861439 0.941582 0.210958
0.903568 0.940784 0.209454
0.935840 0.939980 0.207931
0.970402 0.940134 0.178341
0.181957 0.975262 0.223210
0.234332 0.976463 0.222324
0.286685 0.977655 0.221417
0.338934 0.978454 0.220411
0.390802 0.977611 0.219047
0.442648 0.976759 0.217661
0.494473 0.975901 0.216253
0.546275 0.975035 0.214824
0.598057 0.974163 0.213374
0.649817 0.973283 0.211903
0.701558 0.972398 0.210413
0.753278 0.971507 0.208902
0.804979 0.970610 0.207372
0.856660 0.969708 0.205823
0.900775 0.968801 0.204255
0.932766 0.967889 0.202668
0.964598 0.966972 0.201064
0.172903 0.176582 0.273785
0.230921 0.181554 0.278505
0.287879 0.185460 0.282175
0.344184 0.188711 0.285200
0.400022 0.191491 0.287763
0.455497 0.193909 0.289968
0.510679 0.196031 0.291881
0.565614 0.197905 0.293551
0.620338 0.199565 0.295011
0.674875 0.201040 0.296288
0.729248 0.202349 0.297402
0.783473 0.203509 0.298369
0.837565 0.204535 0.299204
0.886127 0.205438 0.299918
0.924015 0.206228 0.300520
0.928134 0.204826 0.299116
0.927965 0.203065 0.297377
0.185844 0.242896 0.286180
