library/luts/soft_milk.cube
# CrabbyCut preset LUT — sinh bởi scripts/generate_preset_luts.js
TITLE "Sữa"
LUT_3D_SIZE 5
0.164485 0.168067 0.109791
0.397254 0.188654 0.128058
0.618707 0.197871 0.135875
0.836579 0.203489 0.140372
0.926499 0.202395 0.138926
0.200448 0.417445 0.141463
0.415501 0.420230 0.143323
0.654278 0.417483 0.111546
0.885701 0.411499 0.104812
0.987855 0.403393 0.096381
0.203918 0.634172 0.142845
0.415214 0.633181 0.141097
0.625772 0.631450 0.138617
0.862942 0.627077 0.075925
0.991474 0.617249 0.065460
0.197101 0.840561 0.134204
0.406256 0.837420 0.130299
0.614921 0.833787 0.125882
0.823143 0.829707 0.120995
0.994776 0.825291 0.028015
0.182455 0.974442 0.117723
0.391681 0.978197 0.115270
0.599176 0.974867 0.121904
0.806339 0.971432 0.128488
0.965612 0.967911 0.135025
0.174731 0.178437 0.328677
0.400857 0.192349 0.341673
0.620837 0.200086 0.348589
0.837864 0.204855 0.352584
0.928451 0.203267 0.350640
0.201499 0.418576 0.353531
0.416027 0.420834 0.355053
0.629254 0.421784 0.355288
0.841437 0.421685 0.354491
0.946530 0.417502 0.349905
0.203599 0.633926 0.353980
0.414632 0.632671 0.352045
0.624962 0.630711 0.349414
0.859819 0.624025 0.312818
0.991821 0.614076 0.302365
0.196023 0.839553 0.344858
0.405006 0.836239 0.340895
0.613516 0.832449 0.336463
0.821596 0.828227 0.331606
0.994198 0.821614 0.265864
0.181450 0.976079 0.328861
0.389936 0.977033 0.324358
0.597132 0.973566 0.318627
0.804000 0.969998 0.312572
0.963913 0.966347 0.306214
0.180552 0.184362 0.546772
0.403836 0.195418 0.556956
0.622638 0.201970 0.562706
0.838930 0.206001 0.565974
0.930376 0.203982 0.563599
0.202355 0.419510 0.566713
0.416405 0.421288 0.567763
0.629253 0.421858 0.567623
0.841125 0.421446 0.566518
0.948247 0.417140 0.561800
0.203186 0.633585 0.565907
0.413969 0.632080 0.563725
0.624081 0.629900 0.560878
0.833603 0.627127 0.557448
0.964385 0.622308 0.552113
0.194885 0.838484 0.556067
0.403702 0.835003 0.551940
0.612061 0.831062 0.547360
0.820003 0.826701 0.542366
0.991563 0.817849 0.503637
0.180406 0.977700 0.540133
0.388173 0.975868 0.534950
0.595255 0.972365 0.529106
0.802017 0.968767 0.522945
0.962534 0.965091 0.516489
0.184973 0.188879 0.763481
0.406335 0.198004 0.771764
0.624156 0.203571 0.776544
0.839800 0.206949 0.779170
0.932276 0.204553 0.776415
0.203034 0.420268 0.779721
0.416645 0.421604 0.780336
0.629141 0.421819 0.779848
0.840719 0.421113 0.778451
0.949947 0.416699 0.773618
0.202684 0.633155 0.777746
0.413229 0.631411 0.775328
0.623132 0.629022 0.772276
0.832469 0.626063 0.768662
0.965933 0.621245 0.763317
0.193688 0.837356 0.767219
0.402345 0.833714 0.762933
0.610558 0.829626 0.758208
0.818366 0.825131 0.753083
0.974383 0.820262 0.747589
0.180888 0.978163 0.751196
0.386371 0.974690 0.745502
0.593341 0.971153 0.739548
0.799999 0.967526 0.733285
0.961145 0.963828 0.726732
0.186909 0.190861 0.869594
0.406843 0.198551 0.878117
0.623888 0.203340 0.886202
0.839035 0.206222 0.893998
0.933245 0.203598 0.897845
0.202132 0.419402 0.896781
0.415445 0.420442 0.904299
0.627732 0.420451 0.911661
0.839164 0.419601 0.918893
0.951051 0.415240 0.923481
0.201089 0.631604 0.921497
0.411551 0.629779 0.928582
0.621406 0.627345 0.935575
0.830723 0.624370 0.942486
0.967236 0.619732 0.948250
0.191941 0.835664 0.944983
0.400609 0.832037 0.951796
0.608853 0.827984 0.958544
0.816687 0.823518 0.963548
0.973107 0.818528 0.957469
0.183416 0.977109 0.961592
0.384529 0.973500 0.955184
0.591392 0.969930 0.948725
0.797948 0.966278 0.942017
0.959747 0.962559 0.935079
