library/luts/soft_peach.cube
# CrabbyCut preset LUT — sinh bởi scripts/generate_preset_luts.js
TITLE "Đào nhạt"
LUT_3D_SIZE 9
0.182834 0.127315 0.093062
0.307601 0.144390 0.107558
0.424317 0.153451 0.115076
0.538564 0.160056 0.120457
0.651313 0.165170 0.124541
0.762999 0.169226 0.127701
0.873866 0.172467 0.130148
0.946830 0.175050 0.132015
0.949724 0.172774 0.129946
0.218119 0.269561 0.122069
0.330444 0.274254 0.125785
0.447310 0.277092 0.122020
0.569283 0.277363 0.118244
0.687337 0.277559 0.117905
0.804871 0.277236 0.117099
0.915728 0.276465 0.115886
0.974249 0.275301 0.114313
0.982181 0.271723 0.111007
0.230895 0.389406 0.131559
0.340689 0.391580 0.133065
0.449991 0.393263 0.134135
0.566814 0.393938 0.118598
0.690827 0.391568 0.106486
0.809733 0.389211 0.103797
0.920186 0.386551 0.100823
0.977523 0.383617 0.097586
0.992029 0.379181 0.093406
0.236768 0.502381 0.134990
0.345137 0.503136 0.135228
0.453181 0.503568 0.135174
0.560931 0.503707 0.134854
0.676979 0.503614 0.110576
0.800103 0.500360 0.092785
0.916557 0.496860 0.089002
0.971690 0.493149 0.085014
0.993387 0.488240 0.080283
0.238455 0.611190 0.134676
0.345845 0.610971 0.134027
0.452997 0.610515 0.133158
0.559927 0.609838 0.132084
0.666652 0.608957 0.130817
0.782366 0.608534 0.098053
0.904975 0.604770 0.074831
0.965306 0.600447 0.070229
0.994640 0.595237 0.065079
0.237168 0.717040 0.131644
0.343821 0.716088 0.130311
0.450287 0.714948 0.128801
0.556576 0.713633 0.127123
0.662699 0.712154 0.125286
0.768666 0.710517 0.123299
0.884281 0.710000 0.082133
0.958635 0.705933 0.053590
0.995799 0.700543 0.048107
0.233594 0.820613 0.126472
0.339659 0.819076 0.124580
0.445570 0.817385 0.122539
0.551336 0.815549 0.120356
0.656963 0.813575 0.118037
0.762458 0.811470 0.115587
0.867827 0.809240 0.113012
0.949241 0.808771 0.063460
0.996869 0.804421 0.029586
0.228170 0.908145 0.119527
0.333748 0.906558 0.117160
0.439197 0.904895 0.114664
0.544521 0.903162 0.112044
0.649728 0.901364 0.109306
0.754820 0.899507 0.106452
0.859823 0.897607 0.104718
0.942387 0.895710 0.107573
0.989060 0.895529 0.056592
0.219038 0.970642 0.109349
0.325084 0.973395 0.107265
0.431031 0.976111 0.105079
0.536414 0.975940 0.105757
0.641349 0.973609 0.108611
0.746186 0.971233 0.111461
0.850928 0.968818 0.114308
0.939861 0.966366 0.117152
0.980545 0.963880 0.119994
0.191138 0.135542 0.200660
0.311121 0.147855 0.212293
0.426817 0.155902 0.219743
0.540487 0.161932 0.225215
0.652839 0.166651 0.229401
0.764225 0.170409 0.232644
0.874853 0.173412 0.235148
0.947255 0.175798 0.237046
0.950498 0.173389 0.234648
0.219883 0.271279 0.226865
0.331852 0.275618 0.230678
0.442943 0.279081 0.233633
0.553332 0.281846 0.235903
0.663140 0.284033 0.237606
0.772452 0.285727 0.238826
0.881335 0.286993 0.239626
0.949959 0.287883 0.240057
0.957766 0.284608 0.236767
0.231734 0.390204 0.236584
0.341353 0.392203 0.238102
0.450503 0.393735 0.239163
0.564743 0.393960 0.232527
0.684481 0.392008 0.226278
0.800593 0.390270 0.224091
0.914536 0.388240 0.221616
0.970406 0.385942 0.218879
0.985232 0.381666 0.214541
0.237102 0.502676 0.239974
0.345356 0.503317 0.240161
0.453297 0.503646 0.240042
0.560954 0.503692 0.239646
0.676300 0.502898 0.221351
0.798975 0.499196 0.206979
0.916145 0.495622 0.202976
0.971065 0.491844 0.198773
0.993518 0.486898 0.193703
0.238445 0.611144 0.239437
0.345753 0.610842 0.238700
0.452827 0.610309 0.237735
0.559686 0.609561 0.236560
0.666344 0.608613 0.235189
0.781380 0.607512 0.208075
0.903560 0.603320 0.188110
0.964642 0.598942 0.183319
0.994762 0.593709 0.177888
0.236902 0.716738 0.236083
0.343490 0.715721 0.234644
0.449895 0.714521 0.233025
0.556127 0.713149 0.231238
0.662196 0.711615 0.229292
0.768111 0.709928 0.227196
0.883061 0.708745 0.191482
0.957953 0.704263 0.166342
0.995911 0.698860 0.160970
0.233124 0.820109 0.230547
0.339136 0.818518 0.228546
0.444997 0.816777 0.226397
0.550715 0.814894 0.224108
0.656297 0.812875 0.221686
0.761748 0.810726 0.219138
0.867076 0.808455 0.216469
0.948721 0.807331 0.172293
0.996973 0.802606 0.143024
0.227532 0.907615 0.223242
0.333066 0.906001 0.220773
0.438472 0.904314 0.218180
0.543755 0.902558 0.215468
0.648923 0.900740 0.212642
0.753978 0.898863 0.209706
0.858925 0.896932 0.206666
0.942066 0.894951 0.203524
0.988332 0.894292 0.151882
0.218555 0.971581 0.212847
0.324567 0.974321 0.210743
0.430482 0.977026 0.208544
0.535470 0.975102 0.205534
0.640278 0.972699 0.202357
0.744987 0.970252 0.199084
0.849602 0.967765 0.195718
0.939372 0.965241 0.192264
0.979922 0.962684 0.188723
0.196218 0.140561 0.312931
0.314207 0.150890 0.322619
0.429092 0.158129 0.329277
0.542260 0.163660 0.334259
0.654254 0.168023 0.338096
0.765364 0.171505 0.341070
0.875769 0.174286 0.343355
0.947647 0.176486 0.345070
0.951263 0.173955 0.342549
0.221514 0.272865 0.335770
0.333160 0.276881 0.339268
0.443996 0.280092 0.341974
0.554176 0.282649 0.344040
0.663807 0.284660 0.345571
0.772967 0.286202 0.346642
0.881717 0.287336 0.347312
0.950109 0.288107 0.347626
0.958464 0.284777 0.344278
0.232511 0.390940 0.344655
0.341962 0.392772 0.346010
0.450967 0.394159 0.346929
0.559579 0.395156 0.347465
0.667842 0.395805 0.347660
0.775790 0.396142 0.347548
0.883453 0.396195 0.347159
0.950715 0.395988 0.346514
0.965056 0.392347 0.342806
0.237395 0.502931 0.347574
0.345540 0.503462 0.347653
0.453381 0.503692 0.347437
0.560947 0.503648 0.346952
0.673760 0.502454 0.338924
0.792202 0.499211 0.331410
0.907127 0.496291 0.328063
0.965355 0.493172 0.324520
0.988018 0.488522 0.319739
0.238407 0.611068 0.346713
0.345633 0.610686 0.345897
0.452633 0.610078 0.344859
0.559422 0.609261 0.343616
0.666015 0.608248 0.342181
0.780373 0.606471 0.322922
0.902127 0.601852 0.307651
0.963975 0.597419 0.302807
0.994882 0.592165 0.297346
0.236614 0.716414 0.343115
0.343138 0.715333 0.341613
0.449483 0.714074 0.339937
0.555659 0.712646 0.338094
0.661674 0.711059 0.336097
0.767539 0.709321 0.333951
0.881826 0.707475 0.306106
0.957271 0.702578 0.285450
0.996022 0.697163 0.279747
0.232636 0.819586 0.337385
0.338596 0.817943 0.335332
0.444408 0.816153 0.333135
0.550078 0.814223 0.330800
0.655615 0.812159 0.328335
0.761024 0.809968 0.325745
0.866311 0.807656 0.323035
0.948201 0.805877 0.286737
0.997075 0.800778 0.260785
0.226879 0.907075 0.329918
0.332368 0.905436 0.327406
0.437732 0.903725 0.324772
0.542976 0.901948 0.322020
0.648105 0.900109 0.319157
0.753123 0.898213 0.316185
0.858035 0.896264 0.313110
0.941799 0.894267 0.309935
0.987644 0.893144 0.265275
0.218061 0.972515 0.319643
0.324040 0.975244 0.317507
0.429693 0.976665 0.315077
0.534567 0.974291 0.311966
0.639341 0.971872 0.308756
0.744018 0.969411 0.305451
0.848601 0.966912 0.302055
0.939096 0.964376 0.298571
0.979492 0.961808 0.295002
0.200310 0.144595 0.424238
0.316962 0.153594 0.432621
0.431174 0.160164 0.438622
0.543900 0.165255 0.443173
0.655569 0.169294 0.446692
0.766423 0.172521 0.449416
0.876617 0.175093 0.451497
0.948008 0.177116 0.453039
0.952021 0.174474 0.450404
0.223025 0.274332 0.444559
0.334375 0.278053 0.447767
0.444974 0.281027 0.450242
0.554957 0.283389 0.452116
0.664420 0.285233 0.453483
0.773435 0.286630 0.454412
0.882056 0.287636 0.454956
0.950240 0.288293 0.455159
0.959155 0.284915 0.451758
0.233228 0.391616 0.452668
0.342521 0.393290 0.453868
0.451386 0.394539 0.454652
0.559875 0.395414 0.455068
0.668028 0.395953 0.455155
0.775876 0.396190 0.454946
0.883449 0.396152 0.454467
0.950701 0.395862 0.453741
0.965691 0.392209 0.450014
0.237650 0.503147 0.455136
0.345688 0.503573 0.455112
0.453433 0.503707 0.454802
0.560911 0.503575 0.454230
0.668143 0.503198 0.453419
0.775148 0.502596 0.452387
0.881942 0.501783 0.451149
0.950004 0.500775 0.449718
0.971714 0.497132 0.445937
0.238341 0.610965 0.453962
0.345488 0.610504 0.453068
0.452415 0.609823 0.451959
0.559135 0.608938 0.450649
0.665664 0.607862 0.449152
0.777513 0.605708 0.440183
0.895054 0.601569 0.431790
0.959610 0.597809 0.427619
0.990570 0.592993 0.422590
0.236303 0.716068 0.450125
0.342766 0.714925 0.448563
0.449052 0.713607 0.446829
0.555172 0.712124 0.444933
0.661136 0.710485 0.442884
0.766951 0.708699 0.440690
0.880574 0.706190 0.420715
0.956587 0.700878 0.404764
0.996132 0.695453 0.399041
0.232130 0.819045 0.444204
0.338039 0.817351 0.442102
0.443802 0.815513 0.439857
0.549426 0.813537 0.437477
0.654919 0.811429 0.434969
0.760286 0.809196 0.432338
0.865533 0.806844 0.429589
0.947680 0.804411 0.401168
0.997177 0.798939 0.379952
0.226211 0.906527 0.436579
0.331657 0.904863 0.434025
0.436979 0.903129 0.431350
0.542183 0.901330 0.428560
0.647274 0.899471 0.425659
0.752256 0.897557 0.422652
0.857133 0.895591 0.419543
0.941530 0.893578 0.416335
0.986958 0.891992 0.379558
0.217555 0.973446 0.426428
0.323501 0.976162 0.424259
0.428813 0.975864 0.421532
0.533652 0.973475 0.418386
0.638393 0.971041 0.415144
0.743038 0.968567 0.411808
0.847590 0.966055 0.408382
0.938820 0.963508 0.404868
0.979061 0.960929 0.401270
0.203802 0.148033 0.534959
0.319449 0.156031 0.542361
0.433089 0.162032 0.547804
0.545420 0.166730 0.551970
0.656790 0.170472 0.555198
0.767406 0.173462 0.557689
0.877403 0.175837 0.559576
0.948341 0.177693 0.560955
0.952772 0.174946 0.558214
0.224427 0.275690 0.553241
0.335503 0.279139 0.556182
0.445881 0.281892 0.558440
0.555678 0.284069 0.560133
0.664982 0.285754 0.561344
0.773858 0.287014 0.562137
0.882355 0.287896 0.562562
0.950354 0.288444 0.562657
0.959840 0.285020 0.559206
0.233888 0.392236 0.560626
0.343029 0.393759 0.561679
0.451762 0.394876 0.562332
0.560133 0.395633 0.562632
0.668179 0.396066 0.562616
0.775931 0.396207 0.562312
0.883415 0.396081 0.561747
0.950676 0.395710 0.560942
0.966322 0.392047 0.557199
0.237867 0.503326 0.562661
0.345803 0.503650 0.562537
0.453455 0.503691 0.562136
0.560846 0.503473 0.561481
0.667999 0.503018 0.560593
0.774931 0.502343 0.559489
0.881657 0.501462 0.558184
0.949885 0.500391 0.556691
0.972296 0.496760 0.552915
0.238247 0.610834 0.561184
0.345317 0.610297 0.560215
0.452172 0.609545 0.559036
0.558827 0.608594 0.557661
0.665293 0.607455 0.556103
0.771583 0.606141 0.554373
0.877708 0.604662 0.552481
0.948337 0.603027 0.550436
0.977815 0.599621 0.546808
0.235971 0.715700 0.557115
0.342373 0.714497 0.555493
0.448601 0.713122 0.553703
0.554667 0.711585 0.551754
0.660580 0.709895 0.549655
0.766346 0.708060 0.547414
0.877474 0.705188 0.537740
0.953496 0.700368 0.528681
0.992910 0.695532 0.523538
0.231607 0.818487 0.551007
0.337465 0.816743 0.548855
0.443180 0.814857 0.546564
0.548759 0.812835 0.544140
0.654209 0.810685 0.541589
0.759534 0.808411 0.538917
0.864741 0.806019 0.536130
0.947159 0.802932 0.515587
0.996702 0.797067 0.499094
0.225527 0.905970 0.543225
0.330931 0.904281 0.540630
0.436213 0.902525 0.537916
0.541378 0.900705 0.535087
0.646431 0.898827 0.532150
0.751376 0.896895 0.529108
0.856219 0.894913 0.525964
0.941260 0.892884 0.522724
0.986273 0.890838 0.493831
0.217038 0.974373 0.533203
0.322952 0.977076 0.531001
0.427921 0.975058 0.527975
0.532726 0.972653 0.524796
0.637434 0.970205 0.521521
0.742047 0.967718 0.518154
0.846569 0.965193 0.514698
0.938543 0.962635 0.511156
0.978631 0.960046 0.507530
0.206868 0.151047 0.645265
0.321712 0.158247 0.651884
0.434854 0.163752 0.656841
0.546830 0.168096 0.660659
0.657925 0.171564 0.663618
0.768317 0.174332 0.665892
0.878128 0.176522 0.667598
0.948646 0.178219 0.668820
0.953516 0.175376 0.665981
0.225730 0.276949 0.661825
0.336552 0.280145 0.664518
0.446721 0.282691 0.666574
0.556342 0.284693 0.668095
0.665494 0.286227 0.669158
0.774237 0.287353 0.669821
0.882615 0.288118 0.670129
0.950451 0.288559 0.670120
0.960519 0.285096 0.666624
0.234495 0.392802 0.668531
0.343491 0.394182 0.669443
0.452096 0.395171 0.669972
0.560353 0.395814 0.670161
0.668296 0.396145 0.670044
0.775954 0.396193 0.669649
0.883352 0.395982 0.669000
0.950639 0.395532 0.668117
0.966947 0.391861 0.664361
0.238049 0.503469 0.670152
0.345885 0.503694 0.669931
0.453446 0.503645 0.669441
0.560754 0.503345 0.668705
0.667830 0.502813 0.667741
0.774690 0.502066 0.666567
0.881350 0.501119 0.665197
0.949758 0.499985 0.663644
0.972873 0.496370 0.659876
0.238126 0.610677 0.668379
0.345122 0.610065 0.667337
0.451907 0.609244 0.666091
0.558496 0.608227 0.664652
0.664902 0.607028 0.663035
0.771134 0.605657 0.661248
0.877204 0.604124 0.659303
0.948149 0.602438 0.657208
0.978348 0.599063 0.653604
0.235618 0.715311 0.664083
0.341960 0.714048 0.662403
0.448132 0.712617 0.660558
0.554145 0.711027 0.658558
0.660007 0.709287 0.656409
0.765725 0.707405 0.654121
0.871308 0.705386 0.651701
0.946045 0.703239 0.649153
0.983409 0.700244 0.645843
0.231066 0.817911 0.657792
0.336875 0.816118 0.655592
0.442543 0.814185 0.653255
0.548077 0.812119 0.650787
0.653484 0.809926 0.648195
0.758768 0.807611 0.645483
0.863936 0.805180 0.642658
0.945881 0.801740 0.632426
0.993554 0.796375 0.622832
0.224829 0.905404 0.649858
0.330191 0.903692 0.647221
0.435432 0.901914 0.644468
0.540559 0.900074 0.641602
0.645575 0.898177 0.638628
0.750485 0.896227 0.635551
0.855293 0.894229 0.632375
0.940989 0.892185 0.629102
0.985590 0.889680 0.608093
0.216510 0.975295 0.639966
0.322144 0.976620 0.637520
0.427017 0.974246 0.634406
0.531789 0.971826 0.631194
0.636464 0.969365 0.627888
0.741046 0.966864 0.624490
0.845537 0.964328 0.621005
0.938267 0.961759 0.617434
0.978201 0.959161 0.613780
0.209606 0.153735 0.755251
0.323785 0.160272 0.761219
0.436488 0.165340 0.765748
0.548139 0.169361 0.769250
0.658979 0.172575 0.771961
0.769163 0.175136 0.774030
0.878796 0.177150 0.775563
0.948925 0.178695 0.776637
0.954252 0.175763 0.773706
0.226939 0.278115 0.770319
0.337526 0.281077 0.772782
0.447498 0.283428 0.774646
0.556953 0.285263 0.776004
0.665960 0.286653 0.776925
0.774574 0.287652 0.777463
0.882838 0.288303 0.777660
0.950532 0.288641 0.777550
0.961193 0.285141 0.774014
0.235050 0.393317 0.776387
0.343908 0.394559 0.777163
0.452390 0.395427 0.777572
0.560537 0.395960 0.777654
0.668380 0.396192 0.777439
0.775947 0.396149 0.776956
0.883262 0.395855 0.776225
0.950592 0.395328 0.775267
0.967567 0.391653 0.771500
0.238195 0.503578 0.777608
0.345935 0.503707 0.777293
0.453408 0.503570 0.776717
0.560636 0.503189 0.775902
0.667636 0.502582 0.774865
0.774427 0.501766 0.773623
0.881021 0.500754 0.772190
0.949624 0.499560 0.770576
0.973445 0.495961 0.766818
0.237979 0.610493 0.775549
0.344902 0.609809 0.774436
0.451619 0.608920 0.773123
0.558144 0.607840 0.771622
0.664490 0.606581 0.769946
0.770666 0.605154 0.768105
0.876683 0.603568 0.766108
0.947956 0.601832 0.763964
0.978877 0.598490 0.760383
0.235244 0.714902 0.771032
0.341527 0.713581 0.769295
0.447644 0.712095 0.767396
0.553605 0.710453 0.765344
0.659418 0.708664 0.763148
0.765089 0.706734 0.760814
0.870627 0.704671 0.758349
0.945812 0.702481 0.755760
0.983897 0.699531 0.752486
0.230508 0.817318 0.764561
0.336268 0.815477 0.762314
0.441890 0.813498 0.759931
0.547380 0.811388 0.757421
0.652745 0.809153 0.754787
0.757989 0.806799 0.752036
0.863118 0.804329 0.749173
0.943357 0.801750 0.746202
0.986258 0.799065 0.743128
0.224117 0.904831 0.756476
0.329437 0.903095 0.753799
0.434639 0.901295 0.751007
0.539728 0.899436 0.748104
0.644707 0.897520 0.745095
0.749582 0.895554 0.741983
0.854357 0.893540 0.738774
0.940717 0.891482 0.735470
0.984189 0.888735 0.724778
0.215971 0.976213 0.746718
0.321263 0.975819 0.743974
0.426101 0.973429 0.740826
0.530840 0.970995 0.737582
0.635483 0.968520 0.734244
0.740034 0.966007 0.730816
0.844495 0.963459 0.727301
0.937990 0.960880 0.723702
0.977771 0.958272 0.720021
0.212080 0.156160 0.864979
0.325690 0.162131 0.870393
0.438001 0.166808 0.874538
0.549355 0.170534 0.877751
0.659958 0.173512 0.880229
0.769944 0.175877 0.882107
0.879411 0.177724 0.883476
0.949179 0.179124 0.884407
0.954981 0.176110 0.881392
0.228064 0.279197 0.878730
0.338429 0.281938 0.880977
0.448216 0.284105 0.882660
0.557512 0.285782 0.883863
0.666380 0.287033 0.884649
0.774871 0.287910 0.885066
0.883025 0.288451 0.885155
0.950598 0.288690 0.884948
0.961861 0.285158 0.881374
0.235556 0.393784 0.884194
0.344282 0.394894 0.884841
0.452646 0.395644 0.885135
0.560686 0.396071 0.885113
0.668433 0.396207 0.884804
0.775912 0.396076 0.884234
0.883145 0.395701 0.883425
0.950535 0.395100 0.882393
0.968182 0.391422 0.878617
0.238308 0.503653 0.885032
0.345955 0.503689 0.884626
0.453342 0.503467 0.883966
0.560491 0.503007 0.883074
0.667418 0.502328 0.881966
0.774140 0.501444 0.880657
0.880670 0.500369 0.879161
0.949483 0.499114 0.877489
0.974013 0.495534 0.873742
0.237807 0.610285 0.882695
0.344658 0.609529 0.881512
0.451309 0.608574 0.880134
0.557772 0.607432 0.878572
0.664059 0.606115 0.876839
0.770180 0.604633 0.874944
0.876145 0.602995 0.872896
0.947758 0.601209 0.870703
0.979402 0.597901 0.867149
0.234850 0.714472 0.877961
0.341076 0.713094 0.876168
0.447139 0.711554 0.874216
0.553048 0.709861 0.872114
0.658812 0.708024 0.869870
0.764437 0.706048 0.867491
0.869931 0.703941 0.864984
0.945576 0.701709 0.862353
0.984382 0.698805 0.859116
0.229933 0.816709 0.871313
0.335645 0.814820 0.869019
0.441222 0.812796 0.866593
0.546669 0.810643 0.864040
0.651992 0.808367 0.861366
0.757197 0.805973 0.858576
0.862288 0.803465 0.855676
0.943097 0.800850 0.852669
0.985836 0.798130 0.849561
0.223390 0.904249 0.863080
0.328670 0.902491 0.860363
0.433833 0.900670 0.857533
0.538884 0.898791 0.854594
0.643827 0.896858 0.851549
0.748668 0.894875 0.848404
0.853409 0.892846 0.845162
0.940444 0.890774 0.841827
0.981604 0.888662 0.838401
0.215421 0.977127 0.853459
0.320371 0.975013 0.850416
0.425175 0.972607 0.847235
0.529880 0.970159 0.843959
0.634492 0.967670 0.840590
0.739012 0.965146 0.837132
0.843443 0.962587 0.833588
0.937713 0.959997 0.829961
0.977341 0.957379 0.826253
0.212753 0.156829 0.868660
0.325859 0.162298 0.872895
0.437820 0.166627 0.876969
0.548915 0.170095 0.880921
0.659320 0.172875 0.884777
0.769151 0.175085 0.888553
0.878495 0.176809 0.892261
0.948670 0.178112 0.895909
0.955009 0.175069 0.895985
0.227546 0.278680 0.882335
0.337730 0.281241 0.886161
0.447375 0.283265 0.889910
0.556558 0.284829 0.893595
0.665338 0.285992 0.897224
0.773759 0.286798 0.900802
0.881859 0.287284 0.904335
0.950013 0.287482 0.907828
0.961955 0.283979 0.908240
0.234568 0.392796 0.894923
0.343212 0.393824 0.898532
0.451513 0.394510 0.902093
0.559504 0.394888 0.905612
0.667216 0.394987 0.909090
0.774670 0.394830 0.912533
0.881888 0.394439 0.915943
0.949948 0.393829 0.919322
0.968355 0.390219 0.920195
0.237112 0.502455 0.906882
0.344728 0.502458 0.910348
0.452094 0.502214 0.913778
0.559231 0.501741 0.917177
0.666155 0.501056 0.920546
0.772880 0.500174 0.923886
0.879421 0.499108 0.927201
0.948941 0.497868 0.930492
0.974271 0.494383 0.931916
0.236545 0.609016 0.918407
0.343395 0.608257 0.921765
0.450052 0.607307 0.925096
0.556527 0.606176 0.928402
0.662833 0.604875 0.931684
0.768977 0.603415 0.934944
0.874970 0.601803 0.938182
0.947292 0.600048 0.941400
0.979744 0.596856 0.943447
0.233612 0.713221 0.929600
0.339857 0.711862 0.932873
0.445946 0.710345 0.936125
0.551885 0.708680 0.939356
0.657683 0.706875 0.942567
0.763347 0.704935 0.945759
0.868882 0.702868 0.948933
0.945214 0.700680 0.952090
0.984803 0.697908 0.954818
0.228782 0.815539 0.940527
0.334530 0.813684 0.943731
0.440146 0.811697 0.946916
0.545636 0.809585 0.950084
0.651006 0.807353 0.953235
0.756261 0.805007 0.956370
0.861405 0.802550 0.959490
0.942835 0.799938 0.959125
0.985413 0.797184 0.955982
0.222375 0.903461 0.951233
0.327702 0.901745 0.954379
0.432916 0.899968 0.957508
0.538021 0.898136 0.960622
0.642935 0.896190 0.957992
0.747742 0.894191 0.954814
0.852450 0.892147 0.951540
0.940170 0.890061 0.948173
0.981174 0.887936 0.944718
0.216441 0.976624 0.960030
0.319466 0.974201 0.956847
0.424237 0.971780 0.953633
0.528910 0.969318 0.950325
0.633490 0.966817 0.946925
0.737979 0.964280 0.943438
0.842382 0.961711 0.939866
0.937436 0.959111 0.936211
0.976912 0.956484 0.932476
