library/luts/soft_milk.cube
# CrabbyCut preset LUT — sinh bởi scripts/generate_preset_luts.js
TITLE "Sữa"
LUT_3D_SIZE 9
0.164485 0.168067 0.109791
0.283966 0.181472 0.121786
0.397254 0.188654 0.128058
0.508581 0.193866 0.132521
0.618707 0.197871 0.135875
0.727975 0.201014 0.138432
0.836579 0.203489 0.140372
0.923522 0.205422 0.141808
0.926499 0.202395 0.138926
0.191359 0.301691 0.133850
0.301143 0.305353 0.136887
0.416044 0.307272 0.131721
0.536612 0.306628 0.126714
0.653141 0.306056 0.125715
0.769242 0.305054 0.124305
0.881859 0.303682 0.122537
0.961940 0.301983 0.120451
0.973406 0.297929 0.116523
0.200448 0.417445 0.141463
0.308177 0.419040 0.142583
0.415501 0.420230 0.143323
0.530991 0.420443 0.125465
0.654278 0.417483 0.111546
0.772177 0.414617 0.108306
0.885701 0.411499 0.104812
0.965866 0.408150 0.101083
0.987855 0.403393 0.096381
0.203907 0.527541 0.143801
0.310464 0.527959 0.143810
0.416753 0.528108 0.143561
0.522799 0.528013 0.143076
0.637799 0.527731 0.115684
0.760440 0.524119 0.095649
0.877386 0.520296 0.091429
0.956331 0.516296 0.087023
0.989708 0.511190 0.081865
0.203918 0.634172 0.142845
0.309665 0.633776 0.142069
0.415214 0.633181 0.141097
0.520578 0.632402 0.139943
0.625772 0.631450 0.138617
0.740641 0.631033 0.101881
0.862942 0.627077 0.075925
0.945892 0.622561 0.070962
0.991474 0.617249 0.065460
0.201463 0.738324 0.139479
0.306596 0.737313 0.138094
0.411573 0.736143 0.136550
0.516403 0.734826 0.134857
0.621093 0.733369 0.133021
0.725653 0.731780 0.131049
0.840584 0.731422 0.085013
0.934817 0.727293 0.053213
0.993162 0.721876 0.047439
0.197101 0.840561 0.134204
0.301743 0.839055 0.132318
0.406256 0.837420 0.130299
0.510647 0.835662 0.128152
0.614921 0.833787 0.125882
0.719085 0.831800 0.123495
0.823143 0.829707 0.120995
0.919011 0.829528 0.065639
0.994776 0.825291 0.028015
0.191191 0.921228 0.127339
0.295424 0.920118 0.125026
0.399549 0.918958 0.122598
0.503569 0.917753 0.120057
0.607490 0.916507 0.117408
0.711314 0.915223 0.114711
0.815127 0.913956 0.117385
0.906922 0.912665 0.120701
0.979369 0.912853 0.064092
0.182455 0.974442 0.117723
0.287211 0.976846 0.115824
0.391681 0.978197 0.115270
0.495472 0.976546 0.118594
0.599176 0.974867 0.121904
0.702797 0.973161 0.125202
0.806339 0.971432 0.128488
0.901665 0.969681 0.131762
0.965612 0.967911 0.135025
0.170819 0.174468 0.218639
0.286664 0.184220 0.227889
0.399145 0.190592 0.233812
0.510010 0.195340 0.238136
0.619817 0.199023 0.241412
0.728842 0.201922 0.243915
0.837251 0.204201 0.245809
0.923859 0.205972 0.247203
0.927478 0.202852 0.244103
0.192660 0.303036 0.239432
0.302157 0.306409 0.242403
0.410942 0.309067 0.244669
0.519156 0.311150 0.246370
0.626895 0.312757 0.247601
0.734229 0.313955 0.248431
0.841210 0.314800 0.248912
0.925558 0.315330 0.249084
0.936837 0.311654 0.245399
0.200999 0.418036 0.246869
0.308584 0.419487 0.247947
0.415784 0.420551 0.248644
0.528539 0.420315 0.241191
0.647276 0.417830 0.234236
0.762207 0.415654 0.231707
0.876895 0.413232 0.228936
0.954981 0.410587 0.225946
0.977451 0.406035 0.221341
0.204043 0.527715 0.249066
0.310506 0.528039 0.249034
0.416710 0.528102 0.248747
0.522678 0.527929 0.248226
0.636947 0.526915 0.228587
0.759127 0.522842 0.213203
0.876011 0.518957 0.208981
0.955313 0.514900 0.204588
0.989890 0.509768 0.199348
0.203771 0.634061 0.247982
0.309449 0.633596 0.247174
0.414933 0.632937 0.246175
0.520238 0.632097 0.244998
0.625376 0.631089 0.243656
0.739533 0.629960 0.214773
0.861388 0.625559 0.193589
0.944799 0.620996 0.188698
0.991648 0.615669 0.183201
0.201102 0.737999 0.244528
0.306181 0.736933 0.243128
0.411107 0.735712 0.241576
0.515888 0.734346 0.239881
0.620534 0.732844 0.238052
0.725050 0.731211 0.236095
0.839281 0.730153 0.198150
0.933671 0.725589 0.171379
0.993328 0.720166 0.165741
0.196570 0.840065 0.239231
0.301167 0.838514 0.237354
0.405638 0.836836 0.235352
0.509989 0.835038 0.233231
0.614225 0.833124 0.230997
0.718352 0.831101 0.228655
0.822375 0.828973 0.226209
0.918088 0.828101 0.179319
0.994935 0.823468 0.146953
0.190519 0.920857 0.232430
0.294714 0.919729 0.230156
0.398803 0.918554 0.227776
0.502789 0.917335 0.225294
0.606676 0.916075 0.222715
0.710470 0.914779 0.220043
0.814172 0.913449 0.217280
0.906275 0.912088 0.214432
0.978214 0.911881 0.158673
0.181957 0.975262 0.223210
0.286685 0.977655 0.221417
0.390802 0.977611 0.219047
0.494473 0.975901 0.216253
0.598057 0.974163 0.213374
0.701558 0.972398 0.210413
0.804979 0.970610 0.207372
0.900775 0.968801 0.204255
0.964598 0.966972 0.201064
0.174731 0.178437 0.328677
0.289020 0.186626 0.336388
0.400857 0.192349 0.341673
0.511320 0.196693 0.345599
0.620837 0.200086 0.348589
0.729638 0.202759 0.350871
0.837864 0.204855 0.352584
0.924161 0.206472 0.353826
0.928451 0.203267 0.350640
0.193854 0.304273 0.346781
0.303090 0.307384 0.349493
0.411668 0.309833 0.351555
0.519711 0.311745 0.353087
0.627306 0.313206 0.354175
0.734514 0.314280 0.354881
0.841385 0.315013 0.355253
0.925593 0.315445 0.355329
0.937750 0.311741 0.351611
0.201499 0.418576 0.353531
0.308947 0.419889 0.354474
0.416027 0.420834 0.355053
0.522785 0.421454 0.355313
0.629254 0.421784 0.355288
0.735464 0.421853 0.355006
0.841437 0.421685 0.354491
0.924916 0.421300 0.353762
0.946530 0.417502 0.349905
0.204146 0.527856 0.355336
0.310518 0.528088 0.355214
0.416639 0.528069 0.354845
0.522532 0.527819 0.354249
0.634108 0.526397 0.345628
0.751770 0.522833 0.337611
0.865716 0.519666 0.334107
0.946409 0.516330 0.330436
0.981271 0.511551 0.325543
0.203599 0.633926 0.353980
0.309210 0.633393 0.353106
0.414632 0.632671 0.352045
0.519879 0.631773 0.350810
0.624962 0.630711 0.349414
0.738408 0.628870 0.328961
0.859819 0.624025 0.312818
0.943700 0.619416 0.307882
0.991821 0.614076 0.302365
0.200722 0.737655 0.350320
0.305748 0.736535 0.348868
0.410624 0.735264 0.347266
0.515358 0.733851 0.345525
0.619959 0.732303 0.343651
0.724433 0.730629 0.341652
0.837964 0.728870 0.312149
0.932522 0.723871 0.290377
0.993493 0.718443 0.284703
0.196023 0.839553 0.344858
0.300577 0.837958 0.342938
0.405006 0.836239 0.340895
0.509317 0.834400 0.338735
0.613516 0.832449 0.336463
0.717607 0.830390 0.334086
0.821596 0.828227 0.331606
0.917162 0.826662 0.293163
0.994198 0.821614 0.265864
0.189833 0.920479 0.337920
0.293992 0.919335 0.335610
0.398045 0.918144 0.333194
0.501997 0.916911 0.330679
0.605852 0.915639 0.328068
0.709614 0.914331 0.325364
0.813287 0.912990 0.322573
0.905736 0.911619 0.319695
0.977136 0.911015 0.272389
0.181450 0.976079 0.328861
0.286150 0.978460 0.327040
0.389936 0.977033 0.324358
0.493577 0.975314 0.321535
0.597132 0.973566 0.318627
0.700606 0.971794 0.315639
0.804000 0.969998 0.312572
0.900201 0.968182 0.309429
0.963913 0.966347 0.306214
0.177876 0.181635 0.437957
0.291114 0.188767 0.444627
0.402414 0.193951 0.449381
0.512521 0.197938 0.452956
0.621775 0.201066 0.455685
0.730368 0.203530 0.457761
0.838423 0.205454 0.459305
0.924430 0.206926 0.460403
0.929417 0.203644 0.457138
0.194952 0.305414 0.454035
0.303947 0.308282 0.456509
0.412332 0.310538 0.458379
0.520215 0.312289 0.459753
0.627672 0.313612 0.460705
0.734761 0.314565 0.461293
0.841526 0.315192 0.461561
0.925606 0.315529 0.461542
0.938658 0.311800 0.457797
0.201950 0.419066 0.460145
0.309268 0.420249 0.460959
0.416234 0.421079 0.461426
0.522890 0.421597 0.461585
0.629268 0.421835 0.461470
0.735395 0.421822 0.461107
0.841293 0.421578 0.460516
0.924759 0.421123 0.459718
0.947390 0.417331 0.455862
0.204217 0.527964 0.461574
0.310501 0.528108 0.461365
0.416543 0.528009 0.460917
0.522362 0.527686 0.460249
0.627977 0.527158 0.459379
0.733404 0.526441 0.458323
0.838655 0.525547 0.457093
0.922498 0.524488 0.455700
0.955690 0.520872 0.451964
0.203404 0.633767 0.459955
0.308949 0.633168 0.459016
0.414310 0.632385 0.457894
0.519500 0.631430 0.456604
0.624530 0.630314 0.455155
0.735302 0.628084 0.445739
0.852213 0.623765 0.436978
0.936745 0.619889 0.432776
0.984896 0.615056 0.427759
0.200324 0.737292 0.456094
0.305298 0.736120 0.454590
0.410125 0.734800 0.452940
0.514813 0.733340 0.451153
0.619370 0.731749 0.449236
0.723802 0.730032 0.447196
0.836633 0.727573 0.426134
0.931368 0.722141 0.409413
0.993658 0.716708 0.403727
0.195461 0.839026 0.450470
0.299972 0.837388 0.448507
0.404361 0.835627 0.446424
0.508633 0.833750 0.444225
0.612795 0.831762 0.441917
0.716850 0.829667 0.439505
0.820805 0.827470 0.436992
0.916232 0.825212 0.406998
0.992882 0.819737 0.384756
0.189135 0.920096 0.443398
0.293258 0.918936 0.441051
0.397276 0.917730 0.438601
0.501195 0.916484 0.436053
0.605018 0.915199 0.433410
0.708749 0.913879 0.430676
0.812392 0.912528 0.427855
0.905193 0.911147 0.424949
0.976055 0.910146 0.386097
0.180932 0.976891 0.434502
0.285361 0.978153 0.432425
0.389060 0.976453 0.429659
0.492671 0.974723 0.426807
0.596199 0.972967 0.423871
0.699645 0.971186 0.420856
0.803013 0.969384 0.417763
0.899625 0.967561 0.414595
0.963225 0.965720 0.411355
0.180552 0.184362 0.546772
0.292994 0.190694 0.552656
0.403836 0.195418 0.556956
0.513626 0.199085 0.560216
0.622638 0.201970 0.562706
0.731036 0.204239 0.564590
0.838930 0.206001 0.565974
0.924667 0.207334 0.566936
0.930376 0.203982 0.563599
0.195961 0.306465 0.561201
0.304734 0.309111 0.563456
0.412939 0.311185 0.565147
0.520669 0.312783 0.566370
0.627996 0.313974 0.567193
0.734970 0.314812 0.567668
0.841634 0.315337 0.567835
0.925599 0.315583 0.567726
0.939561 0.311834 0.563956
0.202355 0.419510 0.566713
0.309548 0.420568 0.567404
0.416405 0.421288 0.567763
0.522963 0.421708 0.567826
0.629253 0.421858 0.567623
0.735300 0.421764 0.567181
0.841125 0.421446 0.566518
0.924587 0.420924 0.565653
0.948247 0.417140 0.561800
0.204257 0.528042 0.567781
0.310456 0.528101 0.567489
0.416420 0.527923 0.566964
0.522169 0.527529 0.566226
0.627718 0.526935 0.565291
0.733084 0.526157 0.564174
0.838278 0.525206 0.562887
0.922207 0.524093 0.561442
0.956506 0.520505 0.557727
0.203186 0.633585 0.565907
0.308667 0.632923 0.564905
0.413969 0.632080 0.563725
0.519103 0.631069 0.562379
0.624081 0.629900 0.560878
0.728911 0.628584 0.559232
0.833603 0.627127 0.557448
0.918814 0.625539 0.555534
0.964385 0.622308 0.552113
0.199908 0.736911 0.561850
0.304831 0.735688 0.560295
0.409609 0.734319 0.558598
0.514252 0.732814 0.556766
0.618766 0.731179 0.554807
0.723158 0.729422 0.552726
0.833326 0.726585 0.542713
0.926319 0.721690 0.533384
0.988346 0.716923 0.528359
0.194885 0.838484 0.556067
0.299353 0.836803 0.554063
0.403702 0.835003 0.551940
0.507936 0.833087 0.549704
0.612061 0.831062 0.547360
0.716082 0.828932 0.544912
0.820003 0.826701 0.542366
0.915299 0.823751 0.520821
0.991563 0.817849 0.503637
0.188425 0.919707 0.548863
0.292511 0.918531 0.546480
0.396495 0.917311 0.543997
0.500381 0.916051 0.541416
0.604172 0.914754 0.538742
0.707873 0.913424 0.535978
0.811487 0.912062 0.533127
0.904646 0.910672 0.530194
0.974973 0.909277 0.499795
0.180406 0.977700 0.540133
0.284505 0.977579 0.537745
0.388173 0.975868 0.534950
0.491756 0.974130 0.532069
0.595255 0.972365 0.529106
0.698675 0.970576 0.526064
0.802017 0.968767 0.522945
0.899045 0.966938 0.519753
0.962534 0.965091 0.516489
0.182893 0.186751 0.655255
0.294697 0.192442 0.660507
0.405139 0.196765 0.664413
0.514641 0.200142 0.667388
0.623430 0.202803 0.669658
0.731647 0.204890 0.671362
0.839388 0.206499 0.672595
0.924874 0.207700 0.673427
0.931329 0.204285 0.670024
0.196889 0.307435 0.668288
0.305456 0.309874 0.670338
0.413491 0.311777 0.671861
0.521077 0.313230 0.672942
0.628279 0.314296 0.673641
0.735144 0.315024 0.674007
0.841709 0.315451 0.674077
0.925573 0.315607 0.673881
0.940459 0.311841 0.670090
0.202716 0.419910 0.673238
0.309790 0.420848 0.673811
0.416541 0.421462 0.674065
0.523006 0.421788 0.674035
0.629211 0.421852 0.673749
0.735180 0.421680 0.673229
0.840933 0.421291 0.672496
0.924402 0.420702 0.671566
0.949099 0.416929 0.667718
0.204268 0.528090 0.673959
0.310385 0.528066 0.673586
0.416273 0.527813 0.672986
0.521952 0.527349 0.672179
0.627438 0.526691 0.671181
0.732744 0.525852 0.670006
0.837882 0.524845 0.668664
0.921906 0.523681 0.667167
0.957318 0.520122 0.663476
0.202946 0.633381 0.671837
0.308364 0.632656 0.670773
0.413608 0.631755 0.669536
0.518688 0.630689 0.668136
0.623615 0.629469 0.666585
0.728397 0.628104 0.664891
0.833043 0.626602 0.663063
0.918425 0.624971 0.661106
0.965161 0.621783 0.657721
0.199474 0.736512 0.667589
0.304347 0.735239 0.665985
0.409079 0.733823 0.664241
0.513677 0.732273 0.662365
0.618148 0.730596 0.660363
0.722500 0.728798 0.658243
0.826737 0.726885 0.656010
0.914191 0.724863 0.653668
0.972660 0.722164 0.650703
0.194294 0.837927 0.661650
0.298721 0.836205 0.659605
0.403030 0.834365 0.657443
0.507226 0.832411 0.655169
0.611316 0.830350 0.652790
0.715302 0.828185 0.650309
0.819190 0.825922 0.647730
0.913115 0.822601 0.637240
0.986436 0.817242 0.627456
0.187702 0.919313 0.654315
0.291753 0.918122 0.651898
0.395703 0.916888 0.649381
0.499557 0.915615 0.646768
0.603317 0.914306 0.644063
0.706987 0.912965 0.641269
0.810572 0.911593 0.638390
0.904096 0.910194 0.635429
0.973888 0.908406 0.613485
0.179870 0.978504 0.645755
0.283638 0.977001 0.643056
0.387277 0.975281 0.640231
0.490831 0.973533 0.637322
0.594303 0.971760 0.634332
0.697696 0.969964 0.631263
0.801013 0.968148 0.628119
0.898463 0.966313 0.624902
0.961841 0.964461 0.621614
0.184973 0.188879 0.763481
0.296246 0.194036 0.768208
0.406335 0.198004 0.771764
0.515575 0.201118 0.774480
0.624156 0.203571 0.776544
0.732203 0.205486 0.778080
0.839800 0.206949 0.779170
0.925053 0.208024 0.779878
0.932276 0.204553 0.776415
0.197742 0.308330 0.775299
0.306117 0.310575 0.777160
0.413991 0.312317 0.778524
0.521441 0.313633 0.779469
0.628524 0.314579 0.780051
0.735283 0.315201 0.780313
0.841754 0.315533 0.780289
0.925528 0.315604 0.780009
0.941352 0.311824 0.776199
0.203034 0.420268 0.779721
0.309994 0.421091 0.780181
0.416645 0.421604 0.780336
0.523018 0.421837 0.780216
0.629141 0.421819 0.779848
0.735035 0.421571 0.779253
0.840719 0.421113 0.778451
0.924203 0.420459 0.777458
0.949947 0.416699 0.773618
0.204249 0.528109 0.780109
0.310286 0.528005 0.779656
0.416102 0.527678 0.778985
0.521714 0.527147 0.778111
0.627137 0.526426 0.777051
0.732385 0.525529 0.775818
0.837469 0.524467 0.774422
0.921595 0.523251 0.772875
0.958126 0.519723 0.769209
0.202684 0.633155 0.777746
0.308042 0.632369 0.776622
0.413229 0.631411 0.775328
0.518256 0.630292 0.773876
0.623132 0.629022 0.772276
0.727867 0.627609 0.770535
0.832469 0.626063 0.768662
0.918029 0.624389 0.766664
0.965933 0.621245 0.763317
0.199022 0.736096 0.773310
0.303847 0.734773 0.771658
0.408532 0.733311 0.769868
0.513087 0.731718 0.767949
0.617517 0.729999 0.765906
0.721829 0.728161 0.763747
0.826028 0.726210 0.761476
0.913729 0.724152 0.759099
0.973399 0.721508 0.756181
0.193688 0.837356 0.767219
0.298075 0.835593 0.765133
0.402345 0.833714 0.762933
0.506504 0.831723 0.760623
0.610558 0.829626 0.758208
0.714511 0.827428 0.755694
0.818366 0.825131 0.753083
0.908858 0.822742 0.750380
0.974383 0.820262 0.747589
0.186967 0.918913 0.759756
0.290983 0.917707 0.757304
0.394900 0.916460 0.754754
0.498721 0.915174 0.752109
0.602451 0.913854 0.749374
0.706092 0.912502 0.746551
0.809648 0.911121 0.743644
0.903542 0.909713 0.740656
0.971581 0.907721 0.729771
0.180888 0.978163 0.751196
0.282761 0.976420 0.748356
0.386371 0.974690 0.745502
0.489897 0.972934 0.742565
0.593341 0.971153 0.739548
0.696708 0.969350 0.736454
0.799999 0.967526 0.733285
0.897877 0.965686 0.730044
0.961145 0.963828 0.726732
0.186815 0.190766 0.869580
0.297634 0.195468 0.873971
0.407422 0.199133 0.878205
0.516433 0.202018 0.881497
0.624822 0.204277 0.883370
0.732707 0.206030 0.884746
0.840166 0.207355 0.885701
0.925204 0.208310 0.886291
0.933217 0.204787 0.882773
0.198526 0.309155 0.882242
0.306721 0.311219 0.883924
0.414443 0.312809 0.885139
0.521763 0.313993 0.885955
0.628731 0.314825 0.886424
0.735389 0.315345 0.886585
0.841768 0.315585 0.886472
0.925466 0.315573 0.886109
0.942241 0.311783 0.882285
0.203312 0.420585 0.886164
0.310163 0.421298 0.886516
0.416716 0.421713 0.886574
0.523002 0.421858 0.886367
0.629044 0.421760 0.885920
0.734865 0.421439 0.885253
0.840482 0.420912 0.884385
0.923992 0.420196 0.883329
0.950791 0.416451 0.879499
0.204203 0.528100 0.886231
0.310163 0.527918 0.885702
0.415907 0.527520 0.884960
0.521453 0.526922 0.884021
0.626816 0.526140 0.882901
0.732007 0.525186 0.881612
0.837037 0.524071 0.880163
0.921274 0.522804 0.878566
0.958930 0.519309 0.874926
0.202401 0.632908 0.883634
0.307699 0.632062 0.882451
0.412831 0.631048 0.881102
0.517806 0.629877 0.879599
0.622633 0.628557 0.877950
0.727322 0.627099 0.876163
0.831880 0.625508 0.874247
0.917625 0.623792 0.872208
0.966702 0.620695 0.868899
0.198554 0.735663 0.879015
0.303330 0.734292 0.877315
0.407971 0.732784 0.875480
0.512482 0.731147 0.873519
0.616872 0.729388 0.871436
0.721145 0.727511 0.869238
0.825307 0.725523 0.866931
0.913261 0.723429 0.864519
0.974135 0.720841 0.861649
0.193069 0.836771 0.872774
0.297415 0.834968 0.870649
0.401647 0.833050 0.868411
0.505770 0.831023 0.866064
0.609789 0.828891 0.863615
0.713708 0.826659 0.861068
0.817532 0.824330 0.858392
0.908340 0.821910 0.855600
0.973747 0.819400 0.852732
0.186220 0.918509 0.865185
0.290202 0.917288 0.862699
0.394086 0.916027 0.860116
0.497875 0.914730 0.857385
0.601574 0.913398 0.854565
0.705186 0.912036 0.851670
0.808714 0.910645 0.848703
0.902985 0.909229 0.845669
0.967248 0.907789 0.842569
0.182153 0.977638 0.856521
0.281874 0.975836 0.853519
0.385455 0.974097 0.850598
0.488953 0.972331 0.847606
0.592371 0.970543 0.844548
0.695712 0.968733 0.841425
0.798978 0.966903 0.838241
0.897289 0.965057 0.834998
0.960447 0.963194 0.831700
0.186909 0.190861 0.869594
0.297338 0.195170 0.873926
0.406843 0.198551 0.878117
0.515647 0.201228 0.882202
0.623888 0.203340 0.886202
0.731661 0.204982 0.890130
0.839035 0.206222 0.893998
0.924372 0.207113 0.897813
0.933245 0.203598 0.897845
0.197681 0.308307 0.883667
0.305743 0.310238 0.887640
0.413364 0.311727 0.891545
0.520606 0.312834 0.895393
0.627515 0.313608 0.899190
0.734130 0.314086 0.902943
0.840479 0.314297 0.906655
0.924569 0.314267 0.910331
0.942376 0.310536 0.910798
0.202132 0.419402 0.896781
0.308930 0.420065 0.900561
0.415445 0.420442 0.904299
0.521705 0.420563 0.907997
0.627732 0.420451 0.911661
0.733546 0.420124 0.915292
0.839164 0.419601 0.918893
0.923108 0.418894 0.922466
0.951051 0.415240 0.923481
0.202899 0.526798 0.909335
0.308847 0.526606 0.912986
0.414588 0.526206 0.916606
0.520138 0.525614 0.920197
0.625511 0.524844 0.923761
0.730719 0.523909 0.927300
0.835772 0.522818 0.930815
0.920453 0.521580 0.934308
0.959325 0.518199 0.935952
0.201089 0.631604 0.921497
0.306400 0.630773 0.925052
0.411551 0.629779 0.928582
0.516550 0.628634 0.932089
0.621406 0.627345 0.935575
0.726128 0.625921 0.939040
0.830723 0.624370 0.942486
0.916902 0.622697 0.945913
0.967236 0.619732 0.948250
0.197308 0.734431 0.933361
0.302115 0.733092 0.936839
0.406790 0.731621 0.940297
0.511340 0.730025 0.943736
0.615771 0.728309 0.947157
0.720090 0.726480 0.950561
0.824300 0.724543 0.953948
0.912664 0.722502 0.957320
0.974811 0.720061 0.960402
0.191941 0.835664 0.944983
0.296331 0.833906 0.948398
0.400609 0.832037 0.951796
0.504782 0.830061 0.955177
0.608853 0.827984 0.958544
0.712827 0.825809 0.961895
0.816687 0.823518 0.963548
0.907817 0.821067 0.960546
0.973107 0.818528 0.957469
0.185250 0.917962 0.956405
0.289286 0.916784 0.959766
0.393226 0.915568 0.963065
0.497019 0.914281 0.962464
0.600688 0.912939 0.959434
0.704271 0.911567 0.956331
0.807771 0.910167 0.953159
0.902424 0.908742 0.949920
0.966574 0.907295 0.946618
0.183416 0.977109 0.961592
0.280977 0.975248 0.958313
0.384529 0.973500 0.955184
0.488000 0.971726 0.951987
0.591392 0.969930 0.948725
0.694707 0.968113 0.945401
0.797948 0.966278 0.942017
0.896699 0.964426 0.938575
0.959747 0.962559 0.935079
