library/luts/soft_peach.cube
# CrabbyCut preset LUT — sinh bởi scripts/generate_preset_luts.js
TITLE "Đào nhạt"
LUT_3D_SIZE 5
0.182834 0.127315 0.093062
0.424317 0.153451 0.115076
0.651313 0.165170 0.124541
0.873866 0.172467 0.130148
0.949724 0.172774 0.129946
0.230895 0.389406 0.131559
0.449991 0.393263 0.134135
0.690827 0.391568 0.106486
0.920186 0.386551 0.100823
0.992029 0.379181 0.093406
0.238455 0.611190 0.134676
0.452997 0.610515 0.133158
0.666652 0.608957 0.130817
0.904975 0.604770 0.074831
0.994640 0.595237 0.065079
0.233594 0.820613 0.126472
0.445570 0.817385 0.122539
0.656963 0.813575 0.118037
0.867827 0.809240 0.113012
0.996869 0.804421 0.029586
0.219038 0.970642 0.109349
0.431031 0.976111 0.105079
0.641349 0.973609 0.108611
0.850928 0.968818 0.114308
0.980545 0.963880 0.119994
0.196218 0.140561 0.312931
0.429092 0.158129 0.329277
0.654254 0.168023 0.338096
0.875769 0.174286 0.343355
0.951263 0.173955 0.342549
0.232511 0.390940 0.344655
0.450967 0.394159 0.346929
0.667842 0.395805 0.347660
0.883453 0.396195 0.347159
0.965056 0.392347 0.342806
0.238407 0.611068 0.346713
0.452633 0.610078 0.344859
0.666015 0.608248 0.342181
0.902127 0.601852 0.307651
0.994882 0.592165 0.297346
0.232636 0.819586 0.337385
0.444408 0.816153 0.333135
0.655615 0.812159 0.328335
0.866311 0.807656 0.323035
0.997075 0.800778 0.260785
0.218061 0.972515 0.319643
0.429693 0.976665 0.315077
0.639341 0.971872 0.308756
0.848601 0.966912 0.302055
0.979492 0.961808 0.295002
0.203802 0.148033 0.534959
0.433089 0.162032 0.547804
0.656790 0.170472 0.555198
0.877403 0.175837 0.559576
0.952772 0.174946 0.558214
0.233888 0.392236 0.560626
0.451762 0.394876 0.562332
0.668179 0.396066 0.562616
0.883415 0.396081 0.561747
0.966322 0.392047 0.557199
0.238247 0.610834 0.561184
0.452172 0.609545 0.559036
0.665293 0.607455 0.556103
0.877708 0.604662 0.552481
0.977815 0.599621 0.546808
0.231607 0.818487 0.551007
0.443180 0.814857 0.546564
0.654209 0.810685 0.541589
0.864741 0.806019 0.536130
0.996702 0.797067 0.499094
0.217038 0.974373 0.533203
0.427921 0.975058 0.527975
0.637434 0.970205 0.521521
0.846569 0.965193 0.514698
0.978631 0.960046 0.507530
0.209606 0.153735 0.755251
0.436488 0.165340 0.765748
0.658979 0.172575 0.771961
0.878796 0.177150 0.775563
0.954252 0.175763 0.773706
0.235050 0.393317 0.776387
0.452390 0.395427 0.777572
0.668380 0.396192 0.777439
0.883262 0.395855 0.776225
0.967567 0.391653 0.771500
0.237979 0.610493 0.775549
0.451619 0.608920 0.773123
0.664490 0.606581 0.769946
0.876683 0.603568 0.766108
0.978877 0.598490 0.760383
0.230508 0.817318 0.764561
0.441890 0.813498 0.759931
0.652745 0.809153 0.754787
0.863118 0.804329 0.749173
0.986258 0.799065 0.743128
0.215971 0.976213 0.746718
0.426101 0.973429 0.740826
0.635483 0.968520 0.734244
0.844495 0.963459 0.727301
0.977771 0.958272 0.720021
0.212753 0.156829 0.868660
0.437820 0.166627 0.876969
0.659320 0.172875 0.884777
0.878495 0.176809 0.892261
0.955009 0.175069 0.895985
0.234568 0.392796 0.894923
0.451513 0.394510 0.902093
0.667216 0.394987 0.909090
0.881888 0.394439 0.915943
0.968355 0.390219 0.920195
0.236545 0.609016 0.918407
0.450052 0.607307 0.925096
0.662833 0.604875 0.931684
0.874970 0.601803 0.938182
0.979744 0.596856 0.943447
0.228782 0.815539 0.940527
0.440146 0.811697 0.946916
0.651006 0.807353 0.953235
0.861405 0.802550 0.959490
0.985413 0.797184 0.955982
0.216441 0.976624 0.960030
0.424237 0.971780 0.953633
0.633490 0.966817 0.946925
0.842382 0.961711 0.939866
0.976912 0.956484 0.932476
