library/luts/sunny_warm.cube
# CrabbyCut preset LUT — sinh bởi scripts/generate_preset_luts.js
TITLE "Nắng ấm"
LUT_3D_SIZE 5
0.024159 0.012129 0.000000
0.364852 0.009603 0.000000
0.625174 0.010813 0.000000
0.851503 0.011869 0.000000
1.000000 0.016740 0.000000
0.026852 0.332379 0.000000
0.347457 0.326413 0.000000
0.616655 0.323011 0.000000
0.852251 0.323807 0.000000
1.000000 0.327256 0.000000
0.032248 0.587816 0.000000
0.339169 0.584500 0.000000
0.609764 0.581812 0.000000
0.852219 0.579897 0.000000
1.000000 0.581148 0.000000
0.037157 0.820218 0.000000
0.344244 0.819407 0.000000
0.607456 0.818800 0.000000
0.852104 0.818098 0.000000
1.000000 0.817304 0.000000
0.045482 1.000000 0.000000
0.359230 1.000000 0.000000
0.615764 1.000000 0.000000
0.854377 1.000000 0.000000
1.000000 1.000000 0.000000
0.022367 0.010166 0.317647
0.363336 0.010097 0.309175
0.624636 0.011292 0.296887
0.851895 0.012342 0.289438
1.000000 0.017058 0.286203
0.027454 0.330509 0.291834
0.345970 0.324488 0.283549
0.625532 0.319408 0.277656
0.867546 0.318652 0.276142
1.000000 0.320725 0.277744
0.032837 0.586835 0.276349
0.330070 0.586766 0.262377
0.610173 0.581551 0.256219
0.861348 0.578094 0.261487
1.000000 0.578017 0.268580
0.037762 0.820084 0.274793
0.328111 0.825610 0.255532
0.600797 0.822442 0.250954
0.854314 0.819413 0.247856
1.000000 0.817336 0.260057
0.045648 1.000000 0.283880
0.336633 1.000000 0.259913
0.602700 1.000000 0.257130
0.850180 1.000000 0.254541
1.000000 1.000000 0.252445
0.022397 0.010058 0.565195
0.354593 0.010452 0.559960
0.623977 0.011695 0.553633
0.851942 0.012734 0.537692
1.000000 0.017430 0.527573
0.027930 0.327159 0.547950
0.344145 0.322724 0.552964
0.624476 0.317605 0.545194
0.867622 0.317391 0.535069
1.000000 0.319903 0.529690
0.033368 0.585986 0.533491
0.327913 0.585276 0.530047
0.609076 0.579890 0.522472
0.866776 0.575147 0.517301
1.000000 0.573970 0.515942
0.038289 0.819879 0.523607
0.326053 0.824987 0.514325
0.593897 0.823954 0.502854
0.854665 0.819022 0.497250
1.000000 0.815875 0.500993
0.046160 1.000000 0.525251
0.334669 1.000000 0.510770
0.590555 1.000000 0.495857
0.845284 1.000000 0.491317
1.000000 1.000000 0.487638
0.023633 0.011164 0.779934
0.346947 0.010759 0.777088
0.611335 0.011985 0.774757
0.851989 0.013098 0.768605
1.000000 0.017776 0.752082
0.028361 0.325099 0.770547
0.343625 0.322291 0.788120
0.617785 0.318724 0.783144
0.867000 0.316446 0.776168
1.000000 0.319460 0.764384
0.033768 0.581792 0.762872
0.333089 0.582470 0.771937
0.607215 0.578193 0.774101
0.866279 0.573364 0.766452
1.000000 0.572534 0.758535
0.038778 0.819689 0.755041
0.325182 0.823986 0.756146
0.591510 0.822651 0.752125
0.853785 0.817452 0.744741
1.000000 0.813314 0.740615
0.046635 1.000000 0.749760
0.334354 1.000000 0.745663
0.587909 1.000000 0.737387
0.839549 1.000000 0.727066
1.000000 1.000000 0.721915
0.025898 0.013305 0.970884
0.340785 0.014456 0.970311
0.598250 0.015396 0.969843
0.837730 0.016272 0.969407
1.000000 0.018106 0.966298
0.031443 0.324225 0.968995
0.344196 0.322951 0.990566
0.611485 0.321245 0.990349
0.858935 0.319659 0.990146
1.000000 0.319038 0.988318
0.035976 0.578447 0.967450
0.339788 0.580688 0.988686
0.606409 0.577647 0.989635
0.861791 0.574048 0.989432
1.000000 0.571494 0.989291
0.040193 0.814910 0.966013
0.335710 0.820454 0.978955
0.595536 0.820074 0.984622
0.851911 0.815793 0.985511
1.000000 0.811489 0.979518
0.047090 1.000000 0.963975
0.334053 1.000000 0.969788
0.586991 1.000000 0.969613
0.837042 1.000000 0.965471
1.000000 1.000000 0.959390
