library/luts/sunny_warm.cube
# CrabbyCut preset LUT — sinh bởi scripts/generate_preset_luts.js
TITLE "Nắng ấm"
LUT_3D_SIZE 9
0.024159 0.012129 0.000000
0.214606 0.008904 0.000000
0.364852 0.009603 0.000000
0.500125 0.010231 0.000000
0.625174 0.010813 0.000000
0.742208 0.011357 0.000000
0.851503 0.011869 0.000000
0.940979 0.013947 0.000000
1.000000 0.016740 0.000000
0.023831 0.189381 0.000000
0.202364 0.185299 0.000000
0.355251 0.182427 0.000000
0.493006 0.180955 0.000000
0.620446 0.180628 0.000000
0.739811 0.181311 0.000000
0.851842 0.182916 0.000000
0.941109 0.185382 0.000000
1.000000 0.187575 0.000000
0.026852 0.332379 0.000000
0.194145 0.329066 0.000000
0.347457 0.326413 0.000000
0.487261 0.324121 0.000000
0.616655 0.323011 0.000000
0.737907 0.322937 0.000000
0.852251 0.323807 0.000000
0.941260 0.325554 0.000000
1.000000 0.327256 0.000000
0.029629 0.463817 0.000000
0.190369 0.461231 0.000000
0.341447 0.459209 0.000000
0.481917 0.457286 0.000000
0.613129 0.455447 0.000000
0.736136 0.454670 0.000000
0.852279 0.454856 0.000000
0.941436 0.455935 0.000000
1.000000 0.457180 0.000000
0.032248 0.587816 0.000000
0.190249 0.585941 0.000000
0.339169 0.584500 0.000000
0.477686 0.583159 0.000000
0.609764 0.581812 0.000000
0.734447 0.580364 0.000000
0.852219 0.579897 0.000000
0.941637 0.580338 0.000000
1.000000 0.581148 0.000000
0.034750 0.706257 0.000000
0.193363 0.705083 0.000000
0.340199 0.704203 0.000000
0.476778 0.703385 0.000000
0.607095 0.702604 0.000000
0.732816 0.701749 0.000000
0.852161 0.700652 0.000000
0.941861 0.700477 0.000000
1.000000 0.700866 0.000000
0.037157 0.820218 0.000000
0.199434 0.819741 0.000000
0.344244 0.819407 0.000000
0.478938 0.819096 0.000000
0.607456 0.818800 0.000000
0.731569 0.818513 0.000000
0.852104 0.818098 0.000000
0.942107 0.817323 0.000000
1.000000 0.817304 0.000000
0.039484 0.919491 0.000000
0.208265 0.919399 0.000000
0.351095 0.919340 0.000000
0.483947 0.919287 0.000000
0.610708 0.919240 0.000000
0.733124 0.919197 0.000000
0.852185 0.919157 0.000000
0.942375 0.918969 0.000000
1.000000 0.918500 0.000000
0.045482 1.000000 0.000000
0.218094 1.000000 0.000000
0.359230 1.000000 0.000000
0.490506 1.000000 0.000000
0.615764 1.000000 0.000000
0.736728 1.000000 0.000000
0.854377 1.000000 0.000000
0.942515 1.000000 0.000000
1.000000 1.000000 0.000000
0.022923 0.010800 0.174084
0.213513 0.009179 0.168925
0.364082 0.009869 0.163306
0.499658 0.010493 0.159236
0.624999 0.011071 0.156387
0.742317 0.011613 0.154594
0.851871 0.012126 0.153752
0.941376 0.013923 0.153782
1.000000 0.016853 0.154285
0.024158 0.188091 0.158021
0.201210 0.183977 0.153046
0.357229 0.180594 0.149308
0.497900 0.178648 0.146977
0.628125 0.177871 0.145781
0.750181 0.178121 0.145577
0.862773 0.179308 0.146274
0.953924 0.181365 0.147805
1.000000 0.183200 0.149345
0.027160 0.331358 0.146713
0.190672 0.329001 0.140154
0.346857 0.325581 0.136324
0.489581 0.322818 0.135953
0.621765 0.321261 0.136622
0.745712 0.320758 0.138215
0.860874 0.321211 0.140655
0.951738 0.322552 0.143886
1.000000 0.323911 0.146582
0.029927 0.463053 0.139927
0.184753 0.462348 0.131900
0.338693 0.459547 0.128535
0.481843 0.456916 0.125742
0.615848 0.454634 0.128139
0.741555 0.453430 0.131396
0.859273 0.453202 0.135450
0.949817 0.453878 0.140255
1.000000 0.454792 0.144023
0.032545 0.587302 0.136784
0.182596 0.588191 0.127358
0.334380 0.585972 0.124552
0.475561 0.583908 0.121945
0.610203 0.581892 0.120078
0.737589 0.580020 0.124916
0.857892 0.579141 0.130504
0.948083 0.579182 0.136805
1.000000 0.579673 0.141590
0.035053 0.705990 0.136818
0.183749 0.708432 0.126041
0.333450 0.706775 0.123772
0.472695 0.705234 0.121663
0.605555 0.703764 0.119654
0.733759 0.702270 0.118682
0.855738 0.700764 0.125746
0.946502 0.700191 0.133485
1.000000 0.700274 0.139249
0.037473 0.820196 0.139727
0.187920 0.824164 0.127638
0.335596 0.823054 0.125886
0.472957 0.822021 0.124258
0.604019 0.821036 0.122707
0.730589 0.820084 0.121211
0.853547 0.819054 0.121135
0.945051 0.817884 0.130268
1.000000 0.817569 0.136979
0.039818 0.919596 0.145294
0.194901 0.924081 0.131922
0.340598 0.923331 0.130672
0.476118 0.922642 0.129510
0.605424 0.921991 0.128404
0.730298 0.921370 0.127336
0.851750 0.920771 0.126299
0.943717 0.920072 0.127135
1.000000 0.919361 0.134770
0.045366 1.000000 0.152179
0.203021 1.000000 0.137726
0.347042 1.000000 0.136900
0.481002 1.000000 0.136133
0.608820 1.000000 0.135403
0.732257 1.000000 0.134697
0.852311 1.000000 0.134012
0.942631 1.000000 0.133344
1.000000 1.000000 0.132889
0.022367 0.010166 0.317647
0.210351 0.009392 0.313358
0.363336 0.010097 0.309175
0.499109 0.010717 0.302333
0.624636 0.011292 0.296887
0.742134 0.011832 0.292632
0.851895 0.012342 0.289438
0.941378 0.014008 0.287215
1.000000 0.017058 0.286203
0.024436 0.186490 0.303512
0.200094 0.182842 0.302291
0.356382 0.179444 0.297711
0.497415 0.177655 0.292636
0.627985 0.177028 0.288872
0.750374 0.177422 0.286238
0.863226 0.178748 0.284619
0.954466 0.180942 0.283935
1.000000 0.182867 0.283993
0.027454 0.330509 0.291834
0.189431 0.327967 0.288068
0.345970 0.324488 0.283549
0.491076 0.321336 0.279981
0.625532 0.319408 0.277656
0.751674 0.318547 0.276410
0.867546 0.318652 0.276142
0.959904 0.319652 0.276778
1.000000 0.320725 0.277744
0.030220 0.462399 0.282122
0.183516 0.461587 0.276595
0.336050 0.459415 0.270921
0.481395 0.456209 0.267189
0.617672 0.453555 0.266686
0.745574 0.451993 0.267200
0.864270 0.451416 0.268643
0.956281 0.451751 0.270950
1.000000 0.452390 0.273054
0.032837 0.586835 0.276349
0.181363 0.587690 0.269138
0.330070 0.586766 0.262377
0.473432 0.584112 0.259002
0.610173 0.581551 0.256219
0.739754 0.579321 0.258412
0.861348 0.578094 0.261487
0.952981 0.577793 0.265390
1.000000 0.578017 0.268580
0.035344 0.705702 0.274013
0.182519 0.708182 0.265173
0.327531 0.708463 0.257361
0.468956 0.706332 0.254509
0.603898 0.704300 0.251789
0.734133 0.702284 0.249925
0.858247 0.700430 0.254577
0.949937 0.699515 0.260021
1.000000 0.699339 0.264259
0.037762 0.820084 0.274793
0.186693 0.824158 0.264366
0.328111 0.825610 0.255532
0.467653 0.823989 0.253190
0.600797 0.822442 0.250954
0.729377 0.820947 0.248796
0.854314 0.819413 0.247856
0.947112 0.817902 0.254799
1.000000 0.817336 0.260057
0.040107 0.919570 0.278463
0.193678 0.924203 0.266484
0.331583 0.926201 0.256651
0.469284 0.924994 0.254805
0.600672 0.923854 0.253044
0.727556 0.922762 0.251343
0.850963 0.921710 0.249689
0.944481 0.920594 0.249696
1.000000 0.919681 0.255950
0.045648 1.000000 0.283880
0.201795 1.000000 0.270592
0.336633 1.000000 0.259913
0.472788 1.000000 0.258489
0.602700 1.000000 0.257130
0.728159 1.000000 0.255818
0.850180 1.000000 0.254541
0.942398 1.000000 0.253294
1.000000 1.000000 0.252445
0.022214 0.009943 0.446485
0.207524 0.009584 0.442917
0.359063 0.010284 0.439997
0.498598 0.010926 0.435999
0.624299 0.011498 0.428272
0.741965 0.012035 0.421813
0.851919 0.012542 0.416477
0.941381 0.014087 0.412161
1.000000 0.017248 0.409720
0.024691 0.185311 0.434728
0.199410 0.182153 0.437308
0.353861 0.179214 0.433594
0.496647 0.176816 0.429387
0.627394 0.176366 0.423342
0.749955 0.176931 0.418504
0.863035 0.178424 0.414742
0.954251 0.180781 0.411964
1.000000 0.182819 0.410592
0.027700 0.328704 0.425115
0.190442 0.326568 0.425125
0.344884 0.323417 0.423536
0.490365 0.320236 0.419153
0.625227 0.318423 0.414484
0.751762 0.317673 0.410976
0.867952 0.317887 0.408507
0.960445 0.318994 0.406992
1.000000 0.320135 0.406490
0.030493 0.461791 0.415947
0.182731 0.460730 0.413564
0.334781 0.458478 0.410110
0.480612 0.455185 0.405809
0.619003 0.452186 0.402501
0.748946 0.450290 0.400307
0.868609 0.449390 0.399115
0.961980 0.449408 0.398850
1.000000 0.449791 0.399203
0.033109 0.586400 0.407937
0.180752 0.587008 0.403870
0.328687 0.586118 0.399040
0.471087 0.583937 0.393817
0.609780 0.580869 0.390309
0.741401 0.578305 0.389794
0.864262 0.576754 0.390235
0.957232 0.576137 0.391565
1.000000 0.576113 0.393003
0.035614 0.705435 0.403440
0.182076 0.707668 0.397745
0.326038 0.708094 0.391585
0.465114 0.706989 0.385498
0.601991 0.704433 0.382255
0.734115 0.701932 0.379642
0.860215 0.699753 0.381660
0.952837 0.698522 0.384530
1.000000 0.698106 0.387016
0.038032 0.819979 0.402119
0.186414 0.823808 0.394837
0.326511 0.825513 0.387384
0.462354 0.825453 0.380457
0.597434 0.823383 0.377699
0.727884 0.821384 0.375036
0.854662 0.819381 0.373319
0.948744 0.817553 0.377688
1.000000 0.816756 0.381192
0.040375 0.919546 0.403736
0.193558 0.923962 0.394901
0.329878 0.926269 0.386185
0.462562 0.926862 0.378437
0.595886 0.925268 0.376153
0.724640 0.923742 0.373948
0.849866 0.922270 0.371803
0.944917 0.920769 0.371002
1.000000 0.919669 0.375501
0.045910 1.000000 0.407397
0.201817 1.000000 0.397251
0.334834 1.000000 0.387465
0.464790 1.000000 0.379018
0.596649 1.000000 0.377135
0.723989 1.000000 0.375316
0.847839 1.000000 0.373548
0.941918 1.000000 0.371819
1.000000 1.000000 0.370641
0.022397 0.010058 0.565195
0.205148 0.009761 0.562317
0.354593 0.010452 0.559960
0.493598 0.011095 0.557769
0.623977 0.011695 0.553633
0.741803 0.012229 0.545072
0.851942 0.012734 0.537692
0.941384 0.014163 0.531379
1.000000 0.017430 0.527573
0.024932 0.184513 0.555708
0.199086 0.181823 0.561915
0.351455 0.179446 0.558763
0.493179 0.177235 0.555831
0.626831 0.175734 0.551646
0.749555 0.176464 0.544706
0.862854 0.178116 0.538899
0.954047 0.180628 0.534123
1.000000 0.182773 0.531387
0.027930 0.327159 0.547950
0.191967 0.325496 0.551644
0.344145 0.322724 0.552964
0.488130 0.319903 0.549422
0.624476 0.317605 0.545194
0.751175 0.317018 0.539583
0.867622 0.317391 0.535069
0.960085 0.318653 0.531556
1.000000 0.319903 0.529690
0.030718 0.459841 0.540734
0.185357 0.459145 0.541924
0.335471 0.457173 0.541394
0.479548 0.454151 0.539576
0.618402 0.451111 0.535307
0.748796 0.449302 0.530933
0.868868 0.448484 0.527622
0.962417 0.448584 0.525284
1.000000 0.449019 0.524224
0.033368 0.585986 0.533491
0.180169 0.586356 0.532425
0.327913 0.585276 0.530047
0.469786 0.583069 0.526634
0.609076 0.579890 0.522472
0.742645 0.577008 0.519373
0.866776 0.575147 0.517301
0.961016 0.574227 0.516175
1.000000 0.573970 0.515942
0.035872 0.705180 0.526933
0.181653 0.707177 0.524238
0.325424 0.707412 0.520531
0.463600 0.706429 0.515882
0.599844 0.704232 0.510960
0.733770 0.701267 0.507631
0.861557 0.698779 0.507137
0.955343 0.697245 0.507551
1.000000 0.696603 0.508363
0.038289 0.819879 0.523607
0.186147 0.823473 0.519325
0.326053 0.824987 0.514325
0.460634 0.825195 0.508474
0.593897 0.823954 0.502854
0.726131 0.821473 0.499709
0.854665 0.819022 0.497250
0.950049 0.816892 0.499164
1.000000 0.815875 0.500993
0.040631 0.919524 0.523265
0.193444 0.923733 0.517430
0.329573 0.925874 0.511167
0.460641 0.926819 0.504140
0.590991 0.926333 0.497838
0.721529 0.924394 0.495151
0.848490 0.922524 0.492537
0.945088 0.920657 0.490968
1.000000 0.919381 0.493791
0.046160 1.000000 0.525251
0.201839 1.000000 0.518104
0.334669 1.000000 0.510770
0.462694 1.000000 0.502743
0.590555 1.000000 0.495857
0.719689 1.000000 0.493555
0.845284 1.000000 0.491317
0.941225 1.000000 0.489129
1.000000 1.000000 0.487638
0.022879 0.010473 0.675925
0.203152 0.009928 0.673713
0.350575 0.010610 0.671901
0.487699 0.011245 0.670216
0.618537 0.011851 0.668608
0.741647 0.012416 0.664107
0.851966 0.012918 0.654752
0.941387 0.014236 0.646510
1.000000 0.017605 0.641387
0.025163 0.184045 0.668630
0.199078 0.181810 0.678340
0.349436 0.179975 0.675730
0.489291 0.178269 0.673303
0.622733 0.176641 0.670987
0.749169 0.176012 0.666582
0.862681 0.177817 0.658801
0.953851 0.180480 0.652095
1.000000 0.182728 0.648041
0.028149 0.325970 0.662664
0.193744 0.324764 0.669915
0.343736 0.322359 0.674045
0.485851 0.320043 0.671007
0.621450 0.317833 0.668109
0.750608 0.316386 0.663782
0.867306 0.316912 0.657294
0.959739 0.318324 0.651851
1.000000 0.319678 0.648667
0.030927 0.457980 0.657115
0.188799 0.457751 0.661860
0.336719 0.456137 0.664241
0.478766 0.453459 0.664987
0.616371 0.450708 0.661547
0.748061 0.448501 0.657292
0.868430 0.447837 0.652006
0.961942 0.448087 0.647739
1.000000 0.448627 0.645361
0.033577 0.583939 0.651820
0.184081 0.584640 0.654174
0.330042 0.583806 0.654597
0.470256 0.581830 0.653789
0.608034 0.578881 0.651795
0.742140 0.575949 0.647609
0.866807 0.574150 0.643471
0.961264 0.573290 0.640325
1.000000 0.573070 0.638713
0.036121 0.704934 0.646193
0.181245 0.706704 0.646396
0.324832 0.706754 0.645057
0.462837 0.705600 0.642612
0.598511 0.703419 0.639199
0.733132 0.700321 0.635146
0.862531 0.697534 0.632224
0.957520 0.695708 0.630267
1.000000 0.694848 0.629464
0.038537 0.819783 0.640931
0.185890 0.823150 0.639547
0.325611 0.824480 0.636916
0.460021 0.824516 0.633267
0.592265 0.823471 0.628707
0.724134 0.821254 0.624020
0.854364 0.818372 0.620845
0.951074 0.815950 0.620387
1.000000 0.814721 0.620599
0.040879 0.919503 0.638697
0.193334 0.923512 0.635759
0.329279 0.925494 0.631865
0.460175 0.926292 0.627042
0.589068 0.926127 0.621360
0.718221 0.924763 0.616112
0.846857 0.922510 0.613046
0.945028 0.920291 0.610733
1.000000 0.918847 0.611938
0.046401 1.000000 0.639065
0.201859 1.000000 0.634815
0.334509 1.000000 0.629848
0.462367 1.000000 0.624024
0.588383 1.000000 0.617385
0.715238 1.000000 0.611653
0.842519 1.000000 0.608960
0.940340 1.000000 0.606330
1.000000 1.000000 0.604535
0.023633 0.011164 0.779934
0.201500 0.010548 0.778369
0.346947 0.010759 0.777088
0.482242 0.011387 0.775895
0.611335 0.011985 0.774757
0.736002 0.012563 0.773658
0.851989 0.013098 0.768605
0.941390 0.014306 0.758486
1.000000 0.017776 0.752082
0.025386 0.183875 0.774770
0.199356 0.182083 0.787886
0.347759 0.180777 0.785805
0.485795 0.179562 0.783869
0.617503 0.178402 0.782021
0.744696 0.177283 0.780237
0.862514 0.177527 0.775417
0.953660 0.180336 0.766835
1.000000 0.182685 0.761499
0.028361 0.325099 0.770547
0.195760 0.324340 0.781258
0.343625 0.322291 0.788120
0.483921 0.320466 0.785574
0.617785 0.318724 0.783144
0.747061 0.317042 0.780798
0.867000 0.316446 0.776168
0.959403 0.318004 0.768850
1.000000 0.319460 0.764384
0.031128 0.456457 0.766619
0.192435 0.456681 0.774823
0.338220 0.455417 0.780036
0.478293 0.453074 0.783274
0.614162 0.450791 0.780303
0.745375 0.448586 0.777434
0.868005 0.447208 0.772983
0.961482 0.447603 0.766839
1.000000 0.448246 0.763179
0.033768 0.581792 0.762872
0.189262 0.582955 0.768682
0.333089 0.582470 0.771937
0.471317 0.580818 0.773763
0.607215 0.578193 0.774101
0.740275 0.575489 0.770733
0.866279 0.573364 0.766452
0.960693 0.572650 0.761429
1.000000 0.572534 0.758535
0.036318 0.702832 0.759252
0.186198 0.704900 0.762752
0.328133 0.705169 0.764115
0.464602 0.704218 0.764182
0.598811 0.702231 0.763166
0.732115 0.699330 0.761026
0.862264 0.696485 0.756909
0.957506 0.694700 0.752970
1.000000 0.693865 0.750812
0.038778 0.819689 0.755041
0.185640 0.822836 0.756474
0.325182 0.823986 0.756146
0.459425 0.823855 0.754641
0.591510 0.822651 0.752125
0.722773 0.820488 0.748695
0.853785 0.817452 0.744741
0.951852 0.814746 0.741975
1.000000 0.813314 0.740615
0.041119 0.919483 0.750966
0.193226 0.923298 0.750846
0.328992 0.925125 0.749256
0.459722 0.925781 0.746575
0.588455 0.925482 0.742938
0.716481 0.924346 0.738426
0.844983 0.922253 0.733938
0.944757 0.919694 0.730903
1.000000 0.918087 0.730533
0.046635 1.000000 0.749760
0.201880 1.000000 0.748327
0.334354 1.000000 0.745663
0.462049 1.000000 0.741982
0.587909 1.000000 0.737387
0.713181 1.000000 0.731946
0.839549 1.000000 0.727066
0.939276 1.000000 0.724004
1.000000 1.000000 0.721915
0.024644 0.012113 0.878055
0.200175 0.012127 0.877121
0.343696 0.012139 0.876358
0.477191 0.012150 0.875648
0.604566 0.012161 0.874970
0.727585 0.012682 0.874314
0.847221 0.013238 0.873677
0.941394 0.014376 0.867905
1.000000 0.017943 0.860249
0.025655 0.183982 0.874975
0.199901 0.182624 0.891419
0.346394 0.181833 0.889854
0.482653 0.181098 0.888397
0.612665 0.180396 0.887008
0.738221 0.179719 0.885666
0.858696 0.179060 0.884361
0.953476 0.180195 0.878953
1.000000 0.182643 0.872366
0.028566 0.324520 0.872455
0.198003 0.324199 0.886546
0.343790 0.322498 0.896078
0.482309 0.321153 0.894011
0.614477 0.319869 0.892039
0.742115 0.318629 0.890135
0.863902 0.317423 0.888283
0.959077 0.317692 0.883176
1.000000 0.319247 0.877458
0.031323 0.455240 0.870111
0.196260 0.455910 0.881693
0.339960 0.454986 0.889674
0.478103 0.452971 0.895348
0.612277 0.451146 0.892835
0.741852 0.449383 0.890407
0.865559 0.447668 0.888047
0.961034 0.447131 0.883218
1.000000 0.447874 0.878306
0.033954 0.579967 0.867875
0.194598 0.581582 0.877063
0.336339 0.581438 0.883085
0.472627 0.580103 0.887485
0.606687 0.577794 0.890102
0.738111 0.575532 0.887176
0.864438 0.573332 0.884330
0.960138 0.572025 0.879768
1.000000 0.572010 0.875621
0.036494 0.700419 0.865715
0.192993 0.702947 0.872592
0.332842 0.703556 0.876722
0.467371 0.702921 0.879362
0.599728 0.701237 0.880802
0.731261 0.698645 0.880820
0.860819 0.695977 0.877505
0.956856 0.693928 0.873200
1.000000 0.693194 0.869790
0.038965 0.817570 0.863614
0.191431 0.820985 0.868243
0.329441 0.822327 0.870533
0.462258 0.822374 0.871462
0.592983 0.821340 0.871270
0.722933 0.819341 0.870084
0.852796 0.816475 0.867817
0.951512 0.813704 0.863762
1.000000 0.812287 0.861066
0.041354 0.919463 0.860671
0.193122 0.923090 0.863305
0.328712 0.924765 0.863965
0.459279 0.925283 0.863379
0.587857 0.924855 0.861740
0.715733 0.923594 0.859157
0.843596 0.921580 0.855701
0.944293 0.918881 0.851840
1.000000 0.917118 0.849932
0.046865 1.000000 0.857927
0.201899 1.000000 0.859246
0.334202 1.000000 0.858834
0.461737 1.000000 0.857246
0.587445 1.000000 0.854648
0.712571 1.000000 0.851136
0.837780 1.000000 0.846775
0.938045 1.000000 0.842503
1.000000 1.000000 0.840125
0.025898 0.013305 0.970884
0.199137 0.013938 0.970569
0.340785 0.014456 0.970311
0.472538 0.014937 0.970071
0.598250 0.015396 0.969843
0.719654 0.015840 0.969622
0.837730 0.016272 0.969407
0.936726 0.016693 0.969197
1.000000 0.018106 0.966298
0.028948 0.184362 0.969844
0.200698 0.183416 0.989554
0.345318 0.183131 0.988494
0.479835 0.182866 0.987508
0.608184 0.182614 0.986568
0.732135 0.182370 0.985659
0.852391 0.182132 0.984776
0.949575 0.181900 0.983912
1.000000 0.182601 0.981061
0.031443 0.324225 0.968995
0.200464 0.324323 0.986402
0.344196 0.322951 0.990566
0.480976 0.322078 0.990455
0.611485 0.321245 0.990349
0.737521 0.320441 0.990246
0.858935 0.319659 0.990146
0.955785 0.318895 0.990049
1.000000 0.319038 0.988318
0.033763 0.454318 0.968204
0.200274 0.455416 0.983101
0.341920 0.454820 0.990199
0.478154 0.453113 0.990090
0.610670 0.451740 0.989984
0.738644 0.450414 0.989881
0.861794 0.449124 0.989781
0.958291 0.447863 0.989684
1.000000 0.447506 0.989641
0.035976 0.578447 0.967450
0.200092 0.580498 0.979951
0.339788 0.580688 0.988686
0.474161 0.579655 0.989740
0.606409 0.577647 0.989635
0.736232 0.575823 0.989532
0.861791 0.574048 0.989432
0.957910 0.572314 0.989334
1.000000 0.571494 0.989291
0.038114 0.698321 0.966722
0.199916 0.701294 0.976910
0.337721 0.702237 0.983753
0.470347 0.701913 0.988916
0.600883 0.700519 0.989296
0.730675 0.698227 0.989194
0.858677 0.695984 0.989094
0.955113 0.693793 0.988996
1.000000 0.692537 0.986438
0.040193 0.814910 0.966013
0.199745 0.818778 0.973951
0.335710 0.820454 0.978955
0.466626 0.820812 0.982407
0.595536 0.820074 0.984622
0.723733 0.818361 0.985761
0.851911 0.815793 0.985511
0.950229 0.813152 0.982238
1.000000 0.811489 0.979518
0.042225 0.917595 0.965321
0.199578 0.921421 0.971061
0.333746 0.923245 0.974266
0.462989 0.923901 0.976047
0.590304 0.923605 0.976667
0.716960 0.922472 0.976265
0.843637 0.920582 0.974931
0.943516 0.918013 0.972553
1.000000 0.916194 0.969849
0.047090 1.000000 0.963975
0.201919 1.000000 0.967994
0.334053 1.000000 0.969788
0.461432 1.000000 0.970252
0.586991 1.000000 0.969613
0.711973 1.000000 0.967992
0.837042 1.000000 0.965471
0.937024 1.000000 0.962106
1.000000 1.000000 0.959390
