library/luts/sunny_warm.cube
# CrabbyCut preset LUT — sinh bởi scripts/generate_preset_luts.js
TITLE "Nắng ấm"
LUT_3D_SIZE 17
0.024159 0.012129 0.000000
0.129844 0.009676 0.000000
0.214606 0.008904 0.000000
0.292114 0.009265 0.000000
0.364852 0.009603 0.000000
0.433967 0.009924 0.000000
0.500125 0.010231 0.000000
0.563758 0.010527 0.000000
0.625174 0.010813 0.000000
0.684598 0.011089 0.000000
0.742208 0.011357 0.000000
0.798143 0.011616 0.000000
0.851503 0.011869 0.000000
0.896923 0.012173 0.000000
0.940979 0.013947 0.000000
0.983718 0.015920 0.000000
1.000000 0.016740 0.000000
0.022154 0.109962 0.000000
0.122303 0.107480 0.000000
0.207864 0.105597 0.000000
0.286100 0.104209 0.000000
0.359538 0.103211 0.000000
0.429338 0.102549 0.000000
0.496167 0.102190 0.000000
0.560462 0.102111 0.000000
0.622531 0.102294 0.000000
0.682604 0.102725 0.000000
0.740858 0.103393 0.000000
0.797434 0.104288 0.000000
0.851659 0.105403 0.000000
0.897042 0.106731 0.000000
0.941043 0.108264 0.000000
0.983734 0.109999 0.000000
1.000000 0.110727 0.000000
0.023831 0.189381 0.000000
0.116674 0.187113 0.000000
0.202364 0.185299 0.000000
0.281220 0.183662 0.000000
0.355251 0.182427 0.000000
0.425621 0.181536 0.000000
0.493006 0.180955 0.000000
0.557844 0.180658 0.000000
0.620446 0.180628 0.000000
0.681042 0.180849 0.000000
0.739811 0.181311 0.000000
0.796895 0.182003 0.000000
0.851842 0.182916 0.000000
0.897162 0.184045 0.000000
0.941109 0.185382 0.000000
0.983752 0.186922 0.000000
1.000000 0.187575 0.000000
0.025382 0.262776 0.000000
0.112608 0.260712 0.000000
0.197623 0.259088 0.000000
0.276682 0.257565 0.000000
0.351262 0.256109 0.000000
0.422164 0.255006 0.000000
0.490066 0.254217 0.000000
0.555409 0.253718 0.000000
0.618506 0.253490 0.000000
0.679588 0.253516 0.000000
0.738836 0.253785 0.000000
0.796393 0.254288 0.000000
0.852039 0.255015 0.000000
0.897294 0.255958 0.000000
0.941181 0.257113 0.000000
0.983771 0.258471 0.000000
1.000000 0.259054 0.000000
0.026852 0.332379 0.000000
0.109784 0.330514 0.000000
0.194145 0.329066 0.000000
0.272613 0.327719 0.000000
0.347457 0.326413 0.000000
0.418866 0.325107 0.000000
0.487261 0.324121 0.000000
0.553086 0.323429 0.000000
0.616655 0.323011 0.000000
0.678202 0.322851 0.000000
0.737907 0.322937 0.000000
0.795915 0.323259 0.000000
0.852251 0.323807 0.000000
0.897436 0.324575 0.000000
0.941260 0.325554 0.000000
0.983792 0.326740 0.000000
1.000000 0.327256 0.000000
0.028264 0.399200 0.000000
0.108033 0.397532 0.000000
0.191764 0.396254 0.000000
0.269645 0.395065 0.000000
0.343956 0.393931 0.000000
0.415681 0.392805 0.000000
0.484551 0.391628 0.000000
0.550842 0.390750 0.000000
0.614867 0.390149 0.000000
0.676863 0.389810 0.000000
0.737009 0.389719 0.000000
0.795453 0.389866 0.000000
0.852310 0.390242 0.000000
0.897589 0.390839 0.000000
0.941345 0.391650 0.000000
0.983814 0.392669 0.000000
1.000000 0.393121 0.000000
0.029629 0.463817 0.000000
0.107252 0.462344 0.000000
0.190369 0.461231 0.000000
0.267680 0.460196 0.000000
0.341447 0.459209 0.000000
0.412685 0.458255 0.000000
0.481917 0.457286 0.000000
0.548660 0.456226 0.000000
0.613129 0.455447 0.000000
0.675560 0.454933 0.000000
0.736136 0.454670 0.000000
0.795003 0.454648 0.000000
0.852279 0.454856 0.000000
0.897753 0.455288 0.000000
0.941436 0.455935 0.000000
0.983839 0.456792 0.000000
1.000000 0.457180 0.000000
0.030955 0.526602 0.000000
0.107365 0.525325 0.000000
0.189883 0.524373 0.000000
0.266637 0.523488 0.000000
0.339871 0.522644 0.000000
0.410596 0.521829 0.000000
0.479382 0.521036 0.000000
0.546527 0.520207 0.000000
0.611430 0.519254 0.000000
0.674287 0.518569 0.000000
0.735283 0.518139 0.000000
0.794564 0.517950 0.000000
0.852249 0.517995 0.000000
0.897927 0.518264 0.000000
0.941533 0.518751 0.000000
0.983865 0.519450 0.000000
1.000000 0.519777 0.000000
0.032248 0.587816 0.000000
0.108319 0.586734 0.000000
0.190249 0.585941 0.000000
0.266456 0.585204 0.000000
0.339169 0.584500 0.000000
0.409390 0.583820 0.000000
0.477686 0.583159 0.000000
0.544423 0.582513 0.000000
0.609764 0.581812 0.000000
0.673040 0.580960 0.000000
0.734447 0.580364 0.000000
0.794133 0.580013 0.000000
0.852219 0.579897 0.000000
0.898111 0.580008 0.000000
0.941637 0.580338 0.000000
0.983893 0.580880 0.000000
1.000000 0.581148 0.000000
0.033512 0.647652 0.000000
0.110069 0.646766 0.000000
0.191421 0.646129 0.000000
0.267091 0.645536 0.000000
0.339292 0.644970 0.000000
0.409017 0.644424 0.000000
0.476832 0.643893 0.000000
0.543098 0.643373 0.000000
0.608067 0.642864 0.000000
0.671813 0.642280 0.000000
0.733625 0.641523 0.000000
0.793710 0.641012 0.000000
0.852190 0.640738 0.000000
0.898306 0.640693 0.000000
0.941746 0.640868 0.000000
0.983922 0.641258 0.000000
1.000000 0.641467 0.000000
0.034750 0.706257 0.000000
0.112579 0.705567 0.000000
0.193363 0.705083 0.000000
0.268503 0.704633 0.000000
0.340199 0.704203 0.000000
0.409437 0.703788 0.000000
0.476778 0.703385 0.000000
0.542581 0.702990 0.000000
0.607095 0.702604 0.000000
0.670503 0.702224 0.000000
0.732816 0.701749 0.000000
0.793293 0.701081 0.000000
0.852161 0.700652 0.000000
0.898510 0.700453 0.000000
0.941861 0.700477 0.000000
0.983954 0.700716 0.000000
1.000000 0.700866 0.000000
0.035964 0.763747 0.000000
0.115819 0.763255 0.000000
0.196042 0.762922 0.000000
0.270661 0.762612 0.000000
0.341859 0.762317 0.000000
0.410616 0.762031 0.000000
0.477489 0.761754 0.000000
0.542835 0.761483 0.000000
0.606902 0.761217 0.000000
0.669870 0.760955 0.000000
0.731878 0.760698 0.000000
0.792882 0.760326 0.000000
0.852132 0.759743 0.000000
0.898723 0.759393 0.000000
0.941981 0.759267 0.000000
0.983986 0.759358 0.000000
1.000000 0.759450 0.000000
0.037157 0.820218 0.000000
0.119765 0.819924 0.000000
0.199434 0.819741 0.000000
0.273537 0.819570 0.000000
0.344244 0.819407 0.000000
0.412526 0.819249 0.000000
0.478938 0.819096 0.000000
0.543832 0.818946 0.000000
0.607456 0.818800 0.000000
0.669989 0.818655 0.000000
0.731569 0.818513 0.000000
0.792305 0.818373 0.000000
0.852104 0.818098 0.000000
0.898946 0.817597 0.000000
0.942107 0.817323 0.000000
0.984020 0.817267 0.000000
1.000000 0.817304 0.000000
0.038330 0.871661 0.000000
0.124394 0.871551 0.000000
0.203515 0.871496 0.000000
0.277109 0.871446 0.000000
0.347329 0.871400 0.000000
0.415142 0.871357 0.000000
0.481097 0.871315 0.000000
0.545546 0.871276 0.000000
0.608732 0.871239 0.000000
0.670836 0.871203 0.000000
0.731993 0.871169 0.000000
0.792310 0.871136 0.000000
0.851875 0.871105 0.000000
0.899178 0.870939 0.000000
0.942238 0.870573 0.000000
0.984056 0.870397 0.000000
1.000000 0.870378 0.000000
0.039484 0.919491 0.000000
0.129686 0.919434 0.000000
0.208265 0.919399 0.000000
0.281356 0.919368 0.000000
0.351095 0.919340 0.000000
0.418444 0.919313 0.000000
0.483947 0.919287 0.000000
0.547954 0.919263 0.000000
0.610708 0.919240 0.000000
0.672386 0.919218 0.000000
0.733124 0.919197 0.000000
0.793029 0.919176 0.000000
0.852185 0.919157 0.000000
0.899249 0.919138 0.000000
0.942375 0.918969 0.000000
0.984093 0.918595 0.000000
1.000000 0.918500 0.000000
0.040622 0.966109 0.000000
0.135625 0.966090 0.000000
0.213668 0.966076 0.000000
0.286259 0.966063 0.000000
0.355522 0.966051 0.000000
0.422411 0.966040 0.000000
0.487467 0.966029 0.000000
0.551037 0.966019 0.000000
0.613362 0.966010 0.000000
0.674619 0.966000 0.000000
0.734943 0.965992 0.000000
0.794438 0.965983 0.000000
0.853191 0.965975 0.000000
0.899703 0.965967 0.000000
0.942335 0.965960 0.000000
0.984132 0.965785 0.000000
1.000000 0.965615 0.000000
0.045482 1.000000 0.000000
0.140447 1.000000 0.000000
0.218094 1.000000 0.000000
0.290318 1.000000 0.000000
0.359230 1.000000 0.000000
0.425780 1.000000 0.000000
0.490506 1.000000 0.000000
0.553754 1.000000 0.000000
0.615764 1.000000 0.000000
0.676710 1.000000 0.000000
0.736728 1.000000 0.000000
0.795922 1.000000 0.000000
0.854377 1.000000 0.000000
0.900371 1.000000 0.000000
0.942515 1.000000 0.000000
0.984020 1.000000 0.000000
1.000000 1.000000 0.000000
0.023403 0.011322 0.096402
0.129144 0.008865 0.093472
0.214039 0.009052 0.090662
0.291653 0.009409 0.088397
0.364492 0.009744 0.086550
0.433706 0.010064 0.085057
0.499961 0.010370 0.083878
0.563689 0.010664 0.082985
0.625198 0.010949 0.082360
0.684715 0.011225 0.081986
0.742417 0.011493 0.081850
0.798444 0.011754 0.081942
0.851858 0.012007 0.082253
0.897298 0.012255 0.082775
0.941375 0.013876 0.083500
0.984135 0.015902 0.084422
1.000000 0.016740 0.084833
0.022332 0.109173 0.086999
0.121566 0.106672 0.084093
0.208072 0.104633 0.081859
0.287189 0.103100 0.080128
0.361468 0.101964 0.078789
0.432080 0.101170 0.077785
0.499700 0.100683 0.077081
0.564768 0.100478 0.076652
0.627597 0.100539 0.076479
0.688416 0.100850 0.076549
0.747405 0.101401 0.076850
0.804707 0.102180 0.077372
0.858455 0.103181 0.078106
0.904368 0.104397 0.079046
0.948891 0.105820 0.080184
0.992094 0.107445 0.081517
1.000000 0.108084 0.082090
0.023995 0.188673 0.079876
0.115226 0.186680 0.076506
0.201784 0.184632 0.074225
0.281522 0.182851 0.073091
0.356394 0.181479 0.072319
0.427578 0.180456 0.071863
0.495755 0.179747 0.071691
0.561368 0.179327 0.071781
0.624730 0.179175 0.072117
0.686073 0.179277 0.072686
0.745579 0.179622 0.073478
0.803390 0.180199 0.074483
0.857916 0.181000 0.075694
0.903764 0.182017 0.077105
0.948228 0.183244 0.078709
0.991378 0.184676 0.080502
1.000000 0.185243 0.081253
0.025535 0.262146 0.074387
0.110505 0.260631 0.070586
0.196383 0.258770 0.068446
0.276251 0.257031 0.066560
0.351675 0.255439 0.066316
0.423391 0.254204 0.066368
0.492086 0.253289 0.066689
0.558205 0.252667 0.067261
0.622063 0.252317 0.068069
0.683894 0.252226 0.069101
0.743880 0.252379 0.070348
0.802164 0.252768 0.071802
0.857455 0.253382 0.073456
0.903234 0.254215 0.075304
0.947635 0.255260 0.077340
0.990727 0.256511 0.079560
1.000000 0.257012 0.080476
0.026998 0.331825 0.070166
0.107056 0.330771 0.065954
0.192282 0.329085 0.063986
0.271554 0.327518 0.062156
0.347172 0.326008 0.060601
0.419397 0.324571 0.061137
0.488585 0.323459 0.061928
0.555187 0.322644 0.062958
0.619518 0.322107 0.064215
0.681815 0.321830 0.065688
0.742259 0.321801 0.067369
0.800995 0.322009 0.069250
0.857050 0.322446 0.071325
0.902757 0.323103 0.073589
0.947090 0.323974 0.076037
0.990121 0.325054 0.078663
1.000000 0.325491 0.079736
0.028404 0.398721 0.067029
0.104705 0.398116 0.062420
0.189300 0.396601 0.060617
0.267986 0.395192 0.058940
0.343064 0.393847 0.057342
0.415538 0.392526 0.056096
0.485204 0.391224 0.057340
0.552273 0.390224 0.058812
0.617061 0.389504 0.060502
0.679807 0.389048 0.062400
0.740693 0.388842 0.064498
0.799867 0.388877 0.066791
0.856692 0.389142 0.069272
0.902322 0.389630 0.071937
0.946584 0.390333 0.074780
0.989548 0.391246 0.077799
1.000000 0.391622 0.079022
0.029766 0.463412 0.064860
0.103341 0.463248 0.059865
0.187324 0.461899 0.058222
0.265439 0.460643 0.056694
0.339974 0.459446 0.055237
0.411953 0.458289 0.053831
0.481916 0.457132 0.052887
0.549438 0.455951 0.054788
0.614671 0.455054 0.056898
0.677854 0.454424 0.059208
0.739171 0.454047 0.061712
0.798769 0.453913 0.064404
0.856375 0.454011 0.067279
0.901924 0.454334 0.070333
0.946110 0.454874 0.073561
0.989003 0.455625 0.076960
1.000000 0.455942 0.078330
0.031091 0.526271 0.063578
0.102888 0.526543 0.058207
0.186272 0.525355 0.056718
0.263830 0.524250 0.055335
0.337833 0.523196 0.054016
0.409299 0.522178 0.052743
0.478806 0.521188 0.051505
0.546668 0.520177 0.050864
0.612336 0.519107 0.053383
0.675946 0.518307 0.056095
0.737683 0.517763 0.058995
0.797696 0.517463 0.062076
0.856094 0.517398 0.065336
0.901558 0.517560 0.068769
0.945664 0.517940 0.072372
0.988482 0.518533 0.076141
1.000000 0.518792 0.077654
0.032385 0.587560 0.063123
0.103288 0.588262 0.057382
0.186084 0.587232 0.056045
0.263096 0.586275 0.054803
0.336578 0.585362 0.053618
0.407540 0.584479 0.052475
0.476558 0.583622 0.051364
0.544000 0.582783 0.050279
0.610046 0.581906 0.049944
0.674075 0.580939 0.053050
0.736225 0.580231 0.056336
0.796644 0.579769 0.059799
0.855453 0.579544 0.063434
0.901222 0.579548 0.067238
0.945244 0.579772 0.071208
0.987983 0.580210 0.075341
1.000000 0.580412 0.076993
0.033651 0.647469 0.063446
0.104495 0.648599 0.057343
0.186714 0.647725 0.056154
0.263189 0.646913 0.055050
0.336158 0.646138 0.053997
0.406626 0.645389 0.052981
0.475163 0.644661 0.051993
0.542135 0.643950 0.051028
0.607795 0.643252 0.050083
0.672236 0.642497 0.050062
0.734791 0.641628 0.053728
0.795610 0.641007 0.057565
0.854814 0.640625 0.061569
0.900913 0.640473 0.065737
0.944847 0.640543 0.070067
0.987503 0.640829 0.074555
1.000000 0.640975 0.076345
0.034893 0.706148 0.064508
0.106472 0.707702 0.058048
0.188123 0.706982 0.057006
0.264069 0.706312 0.056037
0.336534 0.705673 0.055113
0.406515 0.705056 0.054221
0.474578 0.704456 0.053355
0.541086 0.703870 0.052508
0.606292 0.703295 0.051679
0.670381 0.702730 0.050865
0.733379 0.702089 0.051165
0.794592 0.701311 0.055369
0.854185 0.700775 0.059735
0.900630 0.700470 0.064261
0.944472 0.700389 0.068945
0.987041 0.700525 0.073783
1.000000 0.700615 0.075707
0.036113 0.763713 0.066278
0.109189 0.765688 0.059466
0.190279 0.765120 0.058567
0.265704 0.764591 0.057731
0.337671 0.764087 0.056934
0.407171 0.763599 0.056165
0.474767 0.763125 0.055417
0.540819 0.762662 0.054687
0.605577 0.762208 0.053971
0.669226 0.761762 0.053269
0.731904 0.761323 0.052577
0.793588 0.760788 0.053207
0.853564 0.760099 0.057930
0.900372 0.759643 0.062809
0.944117 0.759413 0.067840
0.986595 0.759401 0.073022
1.000000 0.759437 0.075080
0.037313 0.820258 0.068727
0.112619 0.822654 0.061567
0.193155 0.822235 0.060809
0.268065 0.821845 0.060104
0.339541 0.821473 0.059431
0.408567 0.821114 0.058783
0.475701 0.820765 0.058152
0.541302 0.820424 0.057536
0.605618 0.820089 0.056933
0.668832 0.819760 0.056340
0.731082 0.819436 0.055757
0.792478 0.819117 0.055182
0.852951 0.818683 0.056152
0.900137 0.818078 0.061377
0.943782 0.817700 0.066751
0.986165 0.817542 0.072273
1.000000 0.817525 0.074461
0.038495 0.871753 0.071830
0.116740 0.874198 0.064327
0.196728 0.873932 0.063708
0.271130 0.873686 0.063131
0.342119 0.873454 0.062582
0.410676 0.873231 0.062052
0.477354 0.873017 0.061537
0.542509 0.872809 0.061034
0.606388 0.872607 0.060540
0.669173 0.872409 0.060056
0.731000 0.872217 0.059579
0.791979 0.872028 0.059110
0.852197 0.871843 0.058646
0.899924 0.871544 0.059964
0.943465 0.871089 0.065677
0.985749 0.870826 0.071533
1.000000 0.870764 0.073850
0.039660 0.919610 0.075568
0.121531 0.922284 0.067725
0.200978 0.922039 0.067242
0.274875 0.921813 0.066793
0.345385 0.921599 0.066364
0.413477 0.921393 0.065951
0.479704 0.921195 0.065550
0.544418 0.921003 0.065157
0.607865 0.920815 0.064773
0.670224 0.920632 0.064395
0.731633 0.920453 0.064024
0.792199 0.920278 0.063658
0.852009 0.920106 0.063296
0.899600 0.919936 0.062939
0.943166 0.919636 0.064616
0.985347 0.919172 0.070802
1.000000 0.919038 0.073247
0.040809 0.966250 0.079920
0.126975 0.969134 0.071740
0.205886 0.968910 0.071392
0.279285 0.968703 0.071068
0.349318 0.968506 0.070759
0.416951 0.968317 0.070462
0.482731 0.968134 0.070172
0.547008 0.967956 0.069889
0.610026 0.967783 0.069612
0.671965 0.967613 0.069340
0.732959 0.967447 0.069072
0.793116 0.967284 0.068808
0.852523 0.967124 0.068547
0.899687 0.966966 0.068290
0.942735 0.966811 0.068035
0.984958 0.966507 0.070080
1.000000 0.966299 0.072651
0.045211 1.000000 0.083540
0.131354 1.000000 0.075118
0.209875 1.000000 0.074869
0.282911 1.000000 0.074637
0.352598 1.000000 0.074415
0.419897 1.000000 0.074202
0.485351 1.000000 0.073995
0.549310 1.000000 0.073792
0.612017 1.000000 0.073593
0.673649 1.000000 0.073398
0.734342 1.000000 0.073206
0.794202 1.000000 0.073017
0.853314 1.000000 0.072830
0.900068 1.000000 0.072646
0.942633 1.000000 0.072463
0.984551 1.000000 0.072283
1.000000 1.000000 0.072213
0.022923 0.010800 0.174084
0.127899 0.008785 0.171326
0.213513 0.009179 0.168925
0.291186 0.009535 0.165889
0.364082 0.009869 0.163306
0.433351 0.010188 0.161104
0.499658 0.010493 0.159236
0.563439 0.010787 0.157671
0.624999 0.011071 0.156387
0.684566 0.011346 0.155366
0.742317 0.011613 0.154594
0.798392 0.011873 0.154059
0.851871 0.012126 0.153752
0.897305 0.012373 0.153663
0.941376 0.013923 0.153782
0.984132 0.015996 0.154105
1.000000 0.016853 0.154285
0.022489 0.108366 0.165215
0.120919 0.105999 0.163424
0.207526 0.103954 0.160936
0.286768 0.102463 0.158420
0.361167 0.101368 0.156331
0.431895 0.100614 0.154604
0.499627 0.100165 0.153197
0.564806 0.099998 0.152081
0.627742 0.100096 0.151236
0.688668 0.100443 0.150645
0.747761 0.101029 0.150295
0.805166 0.101844 0.150176
0.858942 0.102880 0.150277
0.904893 0.104130 0.150591
0.949452 0.105587 0.151112
0.992692 0.107246 0.151832
1.000000 0.107894 0.152174
0.024158 0.188091 0.158021
0.114528 0.186046 0.155510
0.201210 0.183977 0.153046
0.281669 0.182078 0.150974
0.357229 0.180594 0.149308
0.429078 0.179463 0.147989
0.497900 0.178648 0.146977
0.564144 0.178124 0.146248
0.628125 0.177871 0.145781
0.690077 0.177875 0.145562
0.750181 0.178121 0.145577
0.808583 0.178602 0.145817
0.862773 0.179308 0.146274
0.909044 0.180231 0.146938
0.953924 0.181365 0.147805
0.997485 0.182704 0.148867
1.000000 0.183200 0.149345
0.025698 0.261623 0.151713
0.109793 0.260085 0.148703
0.195278 0.258406 0.145925
0.275810 0.256492 0.143794
0.351921 0.254788 0.142656
0.424302 0.253445 0.141846
0.493643 0.252424 0.141330
0.560393 0.251699 0.141083
0.624870 0.251248 0.141089
0.687310 0.251057 0.141334
0.747894 0.251113 0.141806
0.806770 0.251405 0.142496
0.861778 0.251924 0.143395
0.907977 0.252663 0.144498
0.952790 0.253615 0.145797
0.996289 0.254774 0.147288
1.000000 0.255206 0.147930
0.027160 0.331358 0.146713
0.106331 0.330309 0.143226
0.190672 0.329001 0.140154
0.270604 0.327255 0.138128
0.346857 0.325581 0.136324
0.419746 0.324035 0.135998
0.489581 0.322818 0.135953
0.556814 0.321900 0.136166
0.621765 0.321261 0.136622
0.684669 0.320885 0.137309
0.745712 0.320758 0.138215
0.805040 0.320870 0.139333
0.860874 0.321211 0.140655
0.906996 0.321774 0.142174
0.951738 0.322552 0.143886
0.995172 0.323539 0.145784
1.000000 0.323911 0.146582
0.028566 0.398309 0.142825
0.103968 0.397736 0.138878
0.187203 0.396787 0.135522
0.266549 0.395200 0.133650
0.342258 0.393685 0.131865
0.415346 0.392206 0.130363
0.485658 0.390798 0.130771
0.553358 0.389695 0.131427
0.618765 0.388874 0.132317
0.682120 0.388319 0.133429
0.743605 0.388015 0.134755
0.803369 0.387954 0.136285
0.860042 0.388123 0.138014
0.906084 0.388517 0.139935
0.950751 0.389127 0.142044
0.994115 0.389948 0.144335
1.000000 0.390261 0.145284
0.029927 0.463053 0.139927
0.102592 0.462947 0.135533
0.184753 0.462348 0.131900
0.263529 0.460915 0.130177
0.338693 0.459547 0.128535
0.411281 0.458226 0.126949
0.481843 0.456916 0.125742
0.549996 0.455632 0.126828
0.615848 0.454634 0.128139
0.679640 0.453904 0.129664
0.741555 0.453430 0.131396
0.801744 0.453199 0.133327
0.859273 0.453202 0.135450
0.905229 0.453431 0.137762
0.949817 0.453878 0.140255
0.993106 0.454536 0.142928
1.000000 0.454792 0.144023
0.031252 0.525963 0.137935
0.102127 0.526319 0.133103
0.183238 0.526061 0.129201
0.261456 0.524778 0.127623
0.336089 0.523554 0.126119
0.408164 0.522372 0.124667
0.478263 0.521222 0.123255
0.546711 0.520063 0.122343
0.612998 0.518892 0.124065
0.677216 0.517993 0.125993
0.739553 0.517351 0.128121
0.800156 0.516955 0.130442
0.858557 0.516794 0.132951
0.904425 0.516862 0.135642
0.948929 0.517149 0.138512
0.992140 0.517650 0.141555
1.000000 0.517850 0.142793
0.032545 0.587302 0.136784
0.102516 0.588114 0.131524
0.182596 0.588191 0.127358
0.260269 0.587055 0.125922
0.334380 0.585972 0.124552
0.405951 0.584925 0.123230
0.475561 0.583908 0.121945
0.543581 0.582913 0.120691
0.610203 0.581892 0.120078
0.674840 0.580826 0.122400
0.737589 0.580020 0.124916
0.798599 0.579462 0.127619
0.857892 0.579141 0.130504
0.903666 0.579051 0.133568
0.948083 0.579182 0.136805
0.991212 0.579528 0.140212
1.000000 0.579673 0.141590
0.033811 0.647262 0.136426
0.103711 0.648526 0.130744
0.182779 0.648932 0.126319
0.259915 0.647941 0.125021
0.333514 0.646996 0.123784
0.404591 0.646083 0.122589
0.473719 0.645195 0.121428
0.541269 0.644327 0.120295
0.607496 0.643477 0.119184
0.672505 0.642582 0.118876
0.735659 0.641614 0.121772
0.797069 0.640897 0.124850
0.856857 0.640420 0.128105
0.902950 0.640174 0.131533
0.947275 0.640151 0.135131
0.990317 0.640345 0.138895
1.000000 0.640437 0.140409
0.035053 0.705990 0.136818
0.105677 0.707702 0.130722
0.183749 0.708432 0.126041
0.260356 0.707584 0.124880
0.333450 0.706775 0.123772
0.404040 0.705994 0.122703
0.472695 0.705234 0.121663
0.539781 0.704492 0.120649
0.605555 0.703764 0.119654
0.670200 0.703048 0.118678
0.733759 0.702270 0.118682
0.795562 0.701396 0.122128
0.855738 0.700764 0.125746
0.902272 0.700365 0.129533
0.946502 0.700191 0.133485
0.989453 0.700235 0.137600
1.000000 0.700274 0.139249
0.036273 0.763603 0.137928
0.108383 0.765761 0.131422
0.185472 0.766811 0.126491
0.261557 0.766104 0.125463
0.334154 0.765429 0.124482
0.404263 0.764778 0.123536
0.472450 0.764144 0.122616
0.539081 0.763525 0.121718
0.604406 0.762918 0.120838
0.668612 0.762321 0.119974
0.731839 0.761733 0.119123
0.794076 0.761065 0.119449
0.854636 0.760280 0.123424
0.901631 0.759730 0.127564
0.945761 0.759407 0.131865
0.988618 0.759303 0.136325
1.000000 0.759290 0.138106
0.037473 0.820196 0.139727
0.111802 0.822798 0.132817
0.187920 0.824164 0.127638
0.263491 0.823596 0.126741
0.335596 0.823054 0.125886
0.405231 0.822530 0.125060
0.472957 0.822021 0.124258
0.539136 0.821524 0.123475
0.604019 0.821036 0.122707
0.667790 0.820557 0.121953
0.730589 0.820084 0.121211
0.792526 0.819619 0.120480
0.853547 0.819054 0.121135
0.901024 0.818355 0.125623
0.945051 0.817884 0.130268
0.987810 0.817634 0.135067
1.000000 0.817569 0.136979
0.038654 0.871732 0.142190
0.115912 0.874378 0.134880
0.191070 0.875817 0.129455
0.266132 0.875412 0.128688
0.337752 0.875029 0.127956
0.406917 0.874661 0.127250
0.474187 0.874305 0.126563
0.539920 0.873960 0.125893
0.604366 0.873624 0.125236
0.667708 0.873295 0.124591
0.730084 0.872973 0.123956
0.791604 0.872658 0.123330
0.852356 0.872349 0.122712
0.900450 0.871939 0.123708
0.944370 0.871405 0.128692
0.987027 0.871062 0.133827
1.000000 0.870963 0.135868
0.039818 0.919596 0.145294
0.120693 0.922489 0.137588
0.194901 0.924081 0.131922
0.269459 0.923696 0.131282
0.340598 0.923331 0.130672
0.409299 0.922981 0.130083
0.476118 0.922642 0.129510
0.541410 0.922312 0.128951
0.605424 0.921991 0.128404
0.668340 0.921677 0.127866
0.730298 0.921370 0.127336
0.791405 0.921068 0.126814
0.851750 0.920771 0.126299
0.899801 0.920480 0.125790
0.943717 0.920072 0.127135
0.986268 0.919529 0.132602
1.000000 0.919361 0.134770
0.040967 0.966242 0.149020
0.126126 0.969364 0.140922
0.199395 0.971106 0.135016
0.273454 0.970740 0.134502
0.344117 0.970393 0.134012
0.412359 0.970059 0.133539
0.478730 0.969736 0.133079
0.543585 0.969421 0.132630
0.607171 0.969114 0.132190
0.669666 0.968814 0.131758
0.731209 0.968520 0.131332
0.791908 0.968231 0.130913
0.851849 0.967946 0.130499
0.899581 0.967666 0.130090
0.942966 0.967391 0.129686
0.985532 0.966982 0.131390
1.000000 0.966743 0.133684
0.045366 1.000000 0.152179
0.130492 1.000000 0.143804
0.203021 1.000000 0.137726
0.276721 1.000000 0.137303
0.347042 1.000000 0.136900
0.414952 1.000000 0.136512
0.481002 1.000000 0.136133
0.545543 1.000000 0.135764
0.608820 1.000000 0.135403
0.671012 1.000000 0.135047
0.732257 1.000000 0.134697
0.792661 1.000000 0.134353
0.852311 1.000000 0.134012
0.899722 1.000000 0.133676
0.942631 1.000000 0.133344
0.984884 1.000000 0.133015
1.000000 1.000000 0.132889
0.022588 0.010425 0.248203
0.126762 0.008897 0.245638
0.211973 0.009290 0.243536
0.290752 0.009652 0.241151
0.363700 0.009986 0.237754
0.433020 0.010303 0.234776
0.499377 0.010608 0.232167
0.563206 0.010901 0.229890
0.624813 0.011184 0.227919
0.684427 0.011459 0.226234
0.742223 0.011725 0.224819
0.798344 0.011984 0.223661
0.851883 0.012236 0.222750
0.897311 0.012482 0.222075
0.941377 0.013966 0.221625
0.984130 0.016084 0.221395
1.000000 0.016958 0.221364
0.022635 0.107703 0.239741
