library/luts/teal_orange.cube
# CrabbyCut preset LUT — sinh bởi scripts/generate_preset_luts.js
TITLE "Teal & Orange"
LUT_3D_SIZE 5
0.000000 0.020000 0.100000
0.173190 0.020000 0.092150
0.463819 0.020000 0.081929
0.754448 0.020000 0.071708
0.977638 0.020000 0.063858
0.000000 0.241875 0.073024
0.193819 0.241875 0.065174
0.484448 0.241875 0.054953
0.775077 0.241875 0.044731
0.998267 0.241875 0.036882
0.000000 0.520000 0.039208
0.219678 0.520000 0.031358
0.510307 0.520000 0.021137
0.800936 0.520000 0.010916
1.000000 0.520000 0.003066
0.022347 0.798125 0.005392
0.245537 0.798125 0.000000
0.536166 0.798125 0.000000
0.826795 0.798125 0.000000
1.000000 0.798125 0.000000
0.042976 1.000000 0.000000
0.266166 1.000000 0.000000
0.556795 1.000000 0.000000
0.847424 1.000000 0.000000
1.000000 1.000000 0.000000
0.000000 0.020000 0.319152
0.175273 0.020000 0.311302
0.465902 0.020000 0.301081
0.756530 0.020000 0.290859
0.979721 0.020000 0.283010
0.000000 0.241875 0.292175
0.195902 0.241875 0.284326
0.486531 0.241875 0.274104
0.777159 0.241875 0.263883
1.000000 0.241875 0.256033
0.000000 0.520000 0.258360
0.221761 0.520000 0.250510
0.512390 0.520000 0.240289
0.803018 0.520000 0.230067
1.000000 0.520000 0.222218
0.024429 0.798125 0.224544
0.247620 0.798125 0.216695
0.538248 0.798125 0.206473
0.828877 0.798125 0.196252
1.000000 0.798125 0.188402
0.045059 1.000000 0.197568
0.268249 1.000000 0.189718
0.558878 1.000000 0.179497
0.849506 1.000000 0.169275
1.000000 1.000000 0.161426
0.000000 0.020000 0.593863
0.177883 0.020000 0.586013
0.468512 0.020000 0.575792
0.759141 0.020000 0.565571
0.982331 0.020000 0.557721
0.000000 0.241875 0.566887
0.198512 0.241875 0.559037
0.489141 0.241875 0.548816
0.779770 0.241875 0.538594
1.000000 0.241875 0.530745
0.001181 0.520000 0.533071
0.224371 0.520000 0.525221
0.515000 0.520000 0.515000
0.805629 0.520000 0.504779
1.000000 0.520000 0.496929
0.027040 0.798125 0.499255
0.250230 0.798125 0.491406
0.540859 0.798125 0.481184
0.831488 0.798125 0.470963
1.000000 0.798125 0.463113
0.047669 1.000000 0.472279
0.270859 1.000000 0.464429
0.561488 1.000000 0.454208
0.852117 1.000000 0.443987
1.000000 1.000000 0.436137
0.000000 0.020000 0.868574
0.180494 0.020000 0.860725
0.471122 0.020000 0.850503
0.761751 0.020000 0.840282
0.984941 0.020000 0.832432
0.000000 0.241875 0.841598
0.201123 0.241875 0.833748
0.491752 0.241875 0.823527
0.782380 0.241875 0.813305
1.000000 0.241875 0.805456
0.003791 0.520000 0.807782
0.226982 0.520000 0.799933
0.517610 0.520000 0.789711
0.808239 0.520000 0.779490
1.000000 0.520000 0.771640
0.029650 0.798125 0.773967
0.252841 0.798125 0.766117
0.543469 0.798125 0.755896
0.834098 0.798125 0.745674
1.000000 0.798125 0.737825
0.050279 1.000000 0.746990
0.273470 1.000000 0.739141
0.564098 1.000000 0.728919
0.854727 1.000000 0.718698
1.000000 1.000000 0.710848
0.000000 0.020000 1.000000
0.182576 0.020000 1.000000
0.473205 0.020000 1.000000
0.763834 0.020000 1.000000
0.987024 0.020000 1.000000
0.000000 0.241875 1.000000
0.203205 0.241875 1.000000
0.493834 0.241875 1.000000
0.784463 0.241875 1.000000
1.000000 0.241875 1.000000
0.005874 0.520000 1.000000
0.229064 0.520000 1.000000
0.519693 0.520000 1.000000
0.810322 0.520000 0.998642
1.000000 0.520000 0.990792
0.031733 0.798125 0.993118
0.254923 0.798125 0.985269
0.545552 0.798125 0.975047
0.836181 0.798125 0.964826
1.000000 0.798125 0.956976
0.052362 1.000000 0.966142
0.275552 1.000000 0.958292
0.566181 1.000000 0.948071
0.856810 1.000000 0.937850
1.000000 1.000000 0.930000
