library/luts/teal_orange.cube
# CrabbyCut preset LUT — sinh bởi scripts/generate_preset_luts.js
TITLE "Teal & Orange"
LUT_3D_SIZE 17
0.000000 0.020000 0.100000
0.000000 0.020000 0.098390
0.048950 0.020000 0.096520
0.108436 0.020000 0.094428
0.173190 0.020000 0.092150
0.242159 0.020000 0.089725
0.314290 0.020000 0.087188
0.388527 0.020000 0.084577
0.463819 0.020000 0.081929
0.539111 0.020000 0.079281
0.613348 0.020000 0.076670
0.685479 0.020000 0.074133
0.754448 0.020000 0.071708
0.819202 0.020000 0.069430
0.878688 0.020000 0.067338
0.931851 0.020000 0.065468
0.977638 0.020000 0.063858
0.000000 0.067119 0.094271
0.000168 0.067119 0.092661
0.053331 0.067119 0.090791
0.112817 0.067119 0.088699
0.177571 0.067119 0.086421
0.246540 0.067119 0.083996
0.318671 0.067119 0.081459
0.392908 0.067119 0.078848
0.468200 0.067119 0.076200
0.543491 0.067119 0.073552
0.617729 0.067119 0.070941
0.689860 0.067119 0.068404
0.758829 0.067119 0.065979
0.823583 0.067119 0.063701
0.883069 0.067119 0.061609
0.936232 0.067119 0.059739
0.982019 0.067119 0.058129
0.000000 0.120391 0.087794
0.005121 0.120391 0.086184
0.058284 0.120391 0.084314
0.117770 0.120391 0.082222
0.182524 0.120391 0.079945
0.251493 0.120391 0.077519
0.323624 0.120391 0.074982
0.397861 0.120391 0.072371
0.473153 0.120391 0.069723
0.548444 0.120391 0.067075
0.622682 0.120391 0.064464
0.694813 0.120391 0.061927
0.763782 0.120391 0.059502
0.828536 0.120391 0.057224
0.888022 0.120391 0.055132
0.941185 0.120391 0.053262
0.986972 0.120391 0.051652
0.000000 0.178936 0.080676
0.010564 0.178936 0.079066
0.063727 0.178936 0.077196
0.123213 0.178936 0.075104
0.187967 0.178936 0.072826
0.256936 0.178936 0.070401
0.329067 0.178936 0.067864
0.403305 0.178936 0.065253
0.478596 0.178936 0.062605
0.553888 0.178936 0.059957
0.628126 0.178936 0.057346
0.700256 0.178936 0.054809
0.769225 0.178936 0.052384
0.833979 0.178936 0.050106
0.893465 0.178936 0.048014
0.946628 0.178936 0.046144
0.992415 0.178936 0.044534
0.000000 0.241875 0.073024
0.016416 0.241875 0.071413
0.069579 0.241875 0.069543
0.129065 0.241875 0.067451
0.193819 0.241875 0.065174
0.262788 0.241875 0.062748
0.334919 0.241875 0.060211
0.409157 0.241875 0.057601
0.484448 0.241875 0.054953
0.559740 0.241875 0.052305
0.633977 0.241875 0.049694
0.706108 0.241875 0.047157
0.775077 0.241875 0.044731
0.839831 0.241875 0.042454
0.899317 0.241875 0.040362
0.952480 0.241875 0.038492
0.998267 0.241875 0.036882
0.000000 0.308330 0.064944
0.022595 0.308330 0.063333
0.075758 0.308330 0.061464
0.135244 0.308330 0.059371
0.199998 0.308330 0.057094
0.268967 0.308330 0.054668
0.341097 0.308330 0.052132
0.415335 0.308330 0.049521
0.490627 0.308330 0.046873
0.565918 0.308330 0.044225
0.640156 0.308330 0.041614
0.712286 0.308330 0.039077
0.781256 0.308330 0.036651
0.846010 0.308330 0.034374
0.905495 0.308330 0.032282
0.958659 0.308330 0.030412
1.000000 0.308330 0.028802
0.000000 0.377422 0.056543
0.029019 0.377422 0.054933
0.082182 0.377422 0.053063
0.141668 0.377422 0.050971
0.206422 0.377422 0.048694
0.275391 0.377422 0.046268
0.347521 0.377422 0.043731
0.421759 0.377422 0.041120
0.497051 0.377422 0.038472
0.572342 0.377422 0.035824
0.646580 0.377422 0.033213
0.718710 0.377422 0.030676
0.787680 0.377422 0.028251
0.852434 0.377422 0.025973
0.911919 0.377422 0.023881
0.965083 0.377422 0.022012
1.000000 0.377422 0.020401
0.000000 0.448271 0.047929
0.035606 0.448271 0.046319
0.088769 0.448271 0.044449
0.148255 0.448271 0.042357
0.213009 0.448271 0.040079
0.281978 0.448271 0.037654
0.354109 0.448271 0.035117
0.428346 0.448271 0.032506
0.503638 0.448271 0.029858
0.578930 0.448271 0.027210
0.653167 0.448271 0.024599
0.725298 0.448271 0.022062
0.794267 0.448271 0.019637
0.859021 0.448271 0.017359
0.918507 0.448271 0.015267
0.971670 0.448271 0.013397
1.000000 0.448271 0.011787
0.000000 0.520000 0.039208
0.042275 0.520000 0.037598
0.095438 0.520000 0.035728
0.154924 0.520000 0.033636
0.219678 0.520000 0.031358
0.288647 0.520000 0.028933
0.360778 0.520000 0.026396
0.435015 0.520000 0.023785
0.510307 0.520000 0.021137
0.585599 0.520000 0.018489
0.659836 0.520000 0.015878
0.731967 0.520000 0.013341
0.800936 0.520000 0.010916
0.865690 0.520000 0.008638
0.925176 0.520000 0.006546
0.978339 0.520000 0.004676
1.000000 0.520000 0.003066
0.003157 0.591729 0.030487
0.048944 0.591729 0.028877
0.102107 0.591729 0.027007
0.161593 0.591729 0.024915
0.226347 0.591729 0.022637
0.295316 0.591729 0.020212
0.367447 0.591729 0.017675
0.441684 0.591729 0.015064
0.516976 0.591729 0.012416
0.592268 0.591729 0.009768
0.666505 0.591729 0.007157
0.738636 0.591729 0.004620
0.807605 0.591729 0.002195
0.872359 0.591729 0.000000
0.931845 0.591729 0.000000
0.985008 0.591729 0.000000
1.000000 0.591729 0.000000
0.009744 0.662578 0.021873
0.055531 0.662578 0.020262
0.108695 0.662578 0.018393
0.168180 0.662578 0.016301
0.232934 0.662578 0.014023
0.301904 0.662578 0.011598
0.374034 0.662578 0.009061
0.448272 0.662578 0.006450
0.523563 0.662578 0.003802
0.598855 0.662578 0.001154
0.673093 0.662578 0.000000
0.745223 0.662578 0.000000
0.814192 0.662578 0.000000
0.878946 0.662578 0.000000
0.938432 0.662578 0.000000
0.991595 0.662578 0.000000
1.000000 0.662578 0.000000
0.016168 0.731670 0.013472
0.061955 0.731670 0.011862
0.115119 0.731670 0.009992
0.174604 0.731670 0.007900
0.239358 0.731670 0.005623
0.308328 0.731670 0.003197
0.380458 0.731670 0.000660
0.454696 0.731670 0.000000
0.529987 0.731670 0.000000
0.605279 0.731670 0.000000
0.679517 0.731670 0.000000
0.751647 0.731670 0.000000
0.820616 0.731670 0.000000
0.885370 0.731670 0.000000
0.944856 0.731670 0.000000
0.998019 0.731670 0.000000
1.000000 0.731670 0.000000
0.022347 0.798125 0.005392
0.068134 0.798125 0.003782
0.121297 0.798125 0.001912
0.180783 0.798125 0.000000
0.245537 0.798125 0.000000
0.314506 0.798125 0.000000
0.386637 0.798125 0.000000
0.460874 0.798125 0.000000
0.536166 0.798125 0.000000
0.611457 0.798125 0.000000
0.685695 0.798125 0.000000
0.757826 0.798125 0.000000
0.826795 0.798125 0.000000
0.891549 0.798125 0.000000
0.951035 0.798125 0.000000
1.000000 0.798125 0.000000
1.000000 0.798125 0.000000
0.028199 0.861064 0.000000
0.073986 0.861064 0.000000
0.127149 0.861064 0.000000
0.186635 0.861064 0.000000
0.251389 0.861064 0.000000
0.320358 0.861064 0.000000
0.392488 0.861064 0.000000
0.466726 0.861064 0.000000
0.542018 0.861064 0.000000
0.617309 0.861064 0.000000
0.691547 0.861064 0.000000
0.763678 0.861064 0.000000
0.832647 0.861064 0.000000
0.897401 0.861064 0.000000
0.956887 0.861064 0.000000
1.000000 0.861064 0.000000
1.000000 0.861064 0.000000
0.033642 0.919609 0.000000
0.079429 0.919609 0.000000
0.132592 0.919609 0.000000
0.192078 0.919609 0.000000
0.256832 0.919609 0.000000
0.325801 0.919609 0.000000
0.397932 0.919609 0.000000
0.472170 0.919609 0.000000
0.547461 0.919609 0.000000
0.622753 0.919609 0.000000
0.696990 0.919609 0.000000
0.769121 0.919609 0.000000
0.838090 0.919609 0.000000
0.902844 0.919609 0.000000
0.962330 0.919609 0.000000
1.000000 0.919609 0.000000
1.000000 0.919609 0.000000
0.038595 0.972881 0.000000
0.084382 0.972881 0.000000
0.137545 0.972881 0.000000
0.197031 0.972881 0.000000
0.261785 0.972881 0.000000
0.330754 0.972881 0.000000
0.402885 0.972881 0.000000
0.477123 0.972881 0.000000
0.552414 0.972881 0.000000
0.627706 0.972881 0.000000
0.701943 0.972881 0.000000
0.774074 0.972881 0.000000
0.843043 0.972881 0.000000
0.907797 0.972881 0.000000
0.967283 0.972881 0.000000
1.000000 0.972881 0.000000
1.000000 0.972881 0.000000
0.042976 1.000000 0.000000
0.088763 1.000000 0.000000
0.141926 1.000000 0.000000
0.201412 1.000000 0.000000
0.266166 1.000000 0.000000
0.335135 1.000000 0.000000
0.407266 1.000000 0.000000
0.481503 1.000000 0.000000
0.556795 1.000000 0.000000
0.632087 1.000000 0.000000
0.706324 1.000000 0.000000
0.778455 1.000000 0.000000
0.847424 1.000000 0.000000
0.912178 1.000000 0.000000
0.971664 1.000000 0.000000
1.000000 1.000000 0.000000
1.000000 1.000000 0.000000
0.000000 0.020000 0.146541
0.000000 0.020000 0.144930
0.049393 0.020000 0.143061
0.108878 0.020000 0.140969
0.173632 0.020000 0.138691
0.242602 0.020000 0.136266
0.314732 0.020000 0.133729
0.388970 0.020000 0.131118
0.464261 0.020000 0.128470
0.539553 0.020000 0.125822
0.613791 0.020000 0.123211
0.685921 0.020000 0.120674
0.754890 0.020000 0.118248
0.819644 0.020000 0.115971
0.879130 0.020000 0.113879
0.932293 0.020000 0.112009
0.978080 0.020000 0.110399
0.000000 0.067119 0.140812
0.000610 0.067119 0.139202
0.053774 0.067119 0.137332
0.113259 0.067119 0.135240
0.178013 0.067119 0.132962
0.246982 0.067119 0.130537
0.319113 0.067119 0.128000
0.393351 0.067119 0.125389
0.468642 0.067119 0.122741
0.543934 0.067119 0.120093
0.618172 0.067119 0.117482
0.690302 0.067119 0.114945
0.759271 0.067119 0.112519
0.824025 0.067119 0.110242
0.883511 0.067119 0.108150
0.936674 0.067119 0.106280
0.982461 0.067119 0.104670
0.000000 0.120391 0.134335
0.005563 0.120391 0.132725
0.058726 0.120391 0.130855
0.118212 0.120391 0.128763
0.182966 0.120391 0.126485
0.251935 0.120391 0.124060
0.324066 0.120391 0.121523
0.398304 0.120391 0.118912
0.473595 0.120391 0.116264
0.548887 0.120391 0.113616
0.623125 0.120391 0.111005
0.695255 0.120391 0.108468
0.764224 0.120391 0.106042
0.828978 0.120391 0.103765
0.888464 0.120391 0.101673
0.941627 0.120391 0.099803
0.987414 0.120391 0.098193
0.000000 0.178936 0.127217
0.011007 0.178936 0.125606
0.064170 0.178936 0.123737
0.123655 0.178936 0.121645
0.188410 0.178936 0.119367
0.257379 0.178936 0.116942
0.329509 0.178936 0.114405
0.403747 0.178936 0.111794
0.479038 0.178936 0.109146
0.554330 0.178936 0.106498
0.628568 0.178936 0.103887
0.700698 0.178936 0.101350
0.769667 0.178936 0.098924
0.834422 0.178936 0.096647
0.893907 0.178936 0.094555
0.947070 0.178936 0.092685
0.992857 0.178936 0.091075
0.000000 0.241875 0.119564
0.016858 0.241875 0.117954
0.070022 0.241875 0.116084
0.129507 0.241875 0.113992
0.194261 0.241875 0.111715
0.263231 0.241875 0.109289
0.335361 0.241875 0.106752
0.409599 0.241875 0.104141
0.484890 0.241875 0.101493
0.560182 0.241875 0.098845
0.634420 0.241875 0.096234
0.706550 0.241875 0.093698
0.775519 0.241875 0.091272
0.840273 0.241875 0.088995
0.899759 0.241875 0.086902
0.952922 0.241875 0.085033
0.998709 0.241875 0.083422
0.000000 0.308330 0.111484
0.023037 0.308330 0.109874
0.076200 0.308330 0.108004
0.135686 0.308330 0.105912
0.200440 0.308330 0.103635
0.269409 0.308330 0.101209
0.341540 0.308330 0.098672
0.415777 0.308330 0.096061
0.491069 0.308330 0.093413
0.566361 0.308330 0.090765
0.640598 0.308330 0.088155
0.712729 0.308330 0.085618
0.781698 0.308330 0.083192
0.846452 0.308330 0.080915
0.905938 0.308330 0.078823
0.959101 0.308330 0.076953
1.000000 0.308330 0.075342
0.000000 0.377422 0.103084
0.029461 0.377422 0.101474
0.082624 0.377422 0.099604
0.142110 0.377422 0.097512
0.206864 0.377422 0.095234
0.275833 0.377422 0.092809
0.347964 0.377422 0.090272
0.422201 0.377422 0.087661
0.497493 0.377422 0.085013
0.572784 0.377422 0.082365
0.647022 0.377422 0.079754
0.719153 0.377422 0.077217
0.788122 0.377422 0.074792
0.852876 0.377422 0.072514
0.912362 0.377422 0.070422
0.965525 0.377422 0.068552
1.000000 0.377422 0.066942
0.000000 0.448271 0.094470
0.036048 0.448271 0.092860
0.089212 0.448271 0.090990
0.148697 0.448271 0.088898
0.213451 0.448271 0.086620
0.282421 0.448271 0.084195
0.354551 0.448271 0.081658
0.428789 0.448271 0.079047
0.504080 0.448271 0.076399
0.579372 0.448271 0.073751
0.653610 0.448271 0.071140
0.725740 0.448271 0.068603
0.794709 0.448271 0.066177
0.859463 0.448271 0.063900
0.918949 0.448271 0.061808
0.972112 0.448271 0.059938
1.000000 0.448271 0.058328
0.000000 0.520000 0.085749
0.042717 0.520000 0.084138
0.095881 0.520000 0.082269
0.155366 0.520000 0.080177
0.220120 0.520000 0.077899
0.289090 0.520000 0.075474
0.361220 0.520000 0.072937
0.435458 0.520000 0.070326
0.510749 0.520000 0.067678
0.586041 0.520000 0.065030
0.660279 0.520000 0.062419
0.732409 0.520000 0.059882
0.801378 0.520000 0.057456
0.866132 0.520000 0.055179
0.925618 0.520000 0.053087
0.978781 0.520000 0.051217
1.000000 0.520000 0.049607
0.003599 0.591729 0.077028
0.049386 0.591729 0.075417
0.102550 0.591729 0.073548
0.162035 0.591729 0.071456
0.226789 0.591729 0.069178
0.295759 0.591729 0.066753
0.367889 0.591729 0.064216
0.442127 0.591729 0.061605
0.517418 0.591729 0.058957
0.592710 0.591729 0.056309
0.666948 0.591729 0.053698
0.739078 0.591729 0.051161
0.808047 0.591729 0.048735
0.872801 0.591729 0.046458
0.932287 0.591729 0.044366
0.985450 0.591729 0.042496
1.000000 0.591729 0.040886
0.010187 0.662578 0.068414
0.055974 0.662578 0.066803
0.109137 0.662578 0.064934
0.168622 0.662578 0.062841
0.233377 0.662578 0.060564
0.302346 0.662578 0.058138
0.374476 0.662578 0.055602
0.448714 0.662578 0.052991
0.524006 0.662578 0.050343
0.599297 0.662578 0.047695
0.673535 0.662578 0.045084
0.745665 0.662578 0.042547
0.814634 0.662578 0.040121
0.879389 0.662578 0.037844
0.938874 0.662578 0.035752
0.992038 0.662578 0.033882
1.000000 0.662578 0.032272
0.016610 0.731670 0.060013
0.062398 0.731670 0.058403
0.115561 0.731670 0.056533
0.175046 0.731670 0.054441
0.239801 0.731670 0.052164
0.308770 0.731670 0.049738
0.380900 0.731670 0.047201
0.455138 0.731670 0.044590
0.530429 0.731670 0.041942
0.605721 0.731670 0.039294
0.679959 0.731670 0.036683
0.752089 0.731670 0.034146
0.821058 0.731670 0.031721
0.885813 0.731670 0.029443
0.945298 0.731670 0.027351
0.998461 0.731670 0.025481
1.000000 0.731670 0.023871
0.022789 0.798125 0.051933
0.068576 0.798125 0.050323
0.121740 0.798125 0.048453
0.181225 0.798125 0.046361
0.245979 0.798125 0.044084
0.314949 0.798125 0.041658
0.387079 0.798125 0.039121
0.461317 0.798125 0.036510
0.536608 0.798125 0.033862
0.611900 0.798125 0.031214
0.686138 0.798125 0.028603
0.758268 0.798125 0.026066
0.827237 0.798125 0.023641
0.891991 0.798125 0.021363
0.951477 0.798125 0.019271
1.000000 0.798125 0.017402
1.000000 0.798125 0.015791
0.028641 0.861064 0.044281
0.074428 0.861064 0.042670
0.127591 0.861064 0.040801
0.187077 0.861064 0.038709
0.251831 0.861064 0.036431
0.320800 0.861064 0.034006
0.392931 0.861064 0.031469
0.467169 0.861064 0.028858
0.542460 0.861064 0.026210
0.617752 0.861064 0.023562
0.691989 0.861064 0.020951
0.764120 0.861064 0.018414
0.833089 0.861064 0.015988
0.897843 0.861064 0.013711
0.957329 0.861064 0.011619
1.000000 0.861064 0.009749
1.000000 0.861064 0.008139
0.034084 0.919609 0.037163
0.079871 0.919609 0.035552
0.133035 0.919609 0.033683
0.192520 0.919609 0.031591
0.257274 0.919609 0.029313
0.326244 0.919609 0.026887
0.398374 0.919609 0.024351
0.472612 0.919609 0.021740
0.547903 0.919609 0.019092
0.623195 0.919609 0.016444
0.697433 0.919609 0.013833
0.769563 0.919609 0.011296
0.838532 0.919609 0.008870
0.903286 0.919609 0.006593
0.962772 0.919609 0.004501
1.000000 0.919609 0.002631
1.000000 0.919609 0.001021
0.039037 0.972881 0.030686
0.084824 0.972881 0.029075
0.137988 0.972881 0.027206
0.197473 0.972881 0.025114
0.262227 0.972881 0.022836
0.331197 0.972881 0.020410
0.403327 0.972881 0.017874
0.477565 0.972881 0.015263
0.552856 0.972881 0.012615
0.628148 0.972881 0.009967
0.702386 0.972881 0.007356
0.774516 0.972881 0.004819
0.843485 0.972881 0.002393
0.908239 0.972881 0.000116
0.967725 0.972881 0.000000
1.000000 0.972881 0.000000
1.000000 0.972881 0.000000
0.043418 1.000000 0.024957
0.089205 1.000000 0.023346
0.142369 1.000000 0.021477
0.201854 1.000000 0.019385
0.266608 1.000000 0.017107
0.335578 1.000000 0.014682
0.407708 1.000000 0.012145
0.481946 1.000000 0.009534
0.557237 1.000000 0.006886
0.632529 1.000000 0.004238
0.706767 1.000000 0.001627
0.778897 1.000000 0.000000
0.847866 1.000000 0.000000
0.912620 1.000000 0.000000
0.972106 1.000000 0.000000
1.000000 1.000000 0.000000
1.000000 1.000000 0.000000
0.000000 0.020000 0.199158
0.000000 0.020000 0.197548
0.049893 0.020000 0.195678
0.109378 0.020000 0.193586
0.174132 0.020000 0.191309
0.243102 0.020000 0.188883
0.315232 0.020000 0.186346
0.389470 0.020000 0.183735
0.464761 0.020000 0.181087
0.540053 0.020000 0.178439
0.614291 0.020000 0.175828
0.686421 0.020000 0.173292
0.755390 0.020000 0.170866
0.820144 0.020000 0.168589
0.879630 0.020000 0.166497
0.932793 0.020000 0.164627
0.978580 0.020000 0.163016
0.000000 0.067119 0.193429
0.001110 0.067119 0.191819
0.054274 0.067119 0.189949
0.113759 0.067119 0.187857
0.178513 0.067119 0.185580
0.247483 0.067119 0.183154
0.319613 0.067119 0.180617
0.393851 0.067119 0.178006
0.469142 0.067119 0.175358
0.544434 0.067119 0.172710
0.618672 0.067119 0.170100
0.690802 0.067119 0.167563
0.759771 0.067119 0.165137
0.824525 0.067119 0.162860
0.884011 0.067119 0.160768
0.937174 0.067119 0.158898
0.982961 0.067119 0.157287
0.000000 0.120391 0.186953
0.006063 0.120391 0.185342
0.059226 0.120391 0.183472
0.118712 0.120391 0.181380
0.183466 0.120391 0.179103
0.252435 0.120391 0.176677
0.324566 0.120391 0.174140
0.398804 0.120391 0.171530
0.474095 0.120391 0.168882
0.549387 0.120391 0.166234
0.623625 0.120391 0.163623
0.695755 0.120391 0.161086
0.764724 0.120391 0.158660
0.829478 0.120391 0.156383
0.888964 0.120391 0.154291
0.942127 0.120391 0.152421
0.987914 0.120391 0.150811
0.000000 0.178936 0.179834
0.011507 0.178936 0.178224
0.064670 0.178936 0.176354
0.124155 0.178936 0.174262
0.188910 0.178936 0.171985
0.257879 0.178936 0.169559
0.330009 0.178936 0.167022
0.404247 0.178936 0.164411
0.479538 0.178936 0.161763
0.554830 0.178936 0.159115
0.629068 0.178936 0.156504
0.701198 0.178936 0.153968
0.770167 0.178936 0.151542
0.834922 0.178936 0.149265
0.894407 0.178936 0.147172
0.947570 0.178936 0.145303
0.993357 0.178936 0.143692
0.000000 0.241875 0.172182
0.017358 0.241875 0.170572
0.070522 0.241875 0.168702
0.130007 0.241875 0.166610
0.194761 0.241875 0.164332
0.263731 0.241875 0.161907
0.335861 0.241875 0.159370
0.410099 0.241875 0.156759
0.485390 0.241875 0.154111
0.560682 0.241875 0.151463
0.634920 0.241875 0.148852
0.707050 0.241875 0.146315
0.776019 0.241875 0.143890
0.840773 0.241875 0.141612
0.900259 0.241875 0.139520
0.953422 0.241875 0.137650
0.999209 0.241875 0.136040
0.000000 0.308330 0.164102
0.023537 0.308330 0.162492
0.076700 0.308330 0.160622
0.136186 0.308330 0.158530
0.200940 0.308330 0.156253
0.269909 0.308330 0.153827
0.342040 0.308330 0.151290
0.416277 0.308330 0.148679
0.491569 0.308330 0.146031
0.566861 0.308330 0.143383
0.641098 0.308330 0.140772
0.713229 0.308330 0.138235
0.782198 0.308330 0.135810
0.846952 0.308330 0.133532
0.906438 0.308330 0.131440
0.959601 0.308330 0.129570
1.000000 0.308330 0.127960
0.000000 0.377422 0.155702
0.029961 0.377422 0.154091
0.083124 0.377422 0.152222
0.142610 0.377422 0.150129
0.207364 0.377422 0.147852
0.276333 0.377422 0.145426
0.348464 0.377422 0.142890
0.422701 0.377422 0.140279
0.497993 0.377422 0.137631
0.573284 0.377422 0.134983
0.647522 0.377422 0.132372
0.719653 0.377422 0.129835
0.788622 0.377422 0.127409
0.853376 0.377422 0.125132
0.912862 0.377422 0.123040
0.966025 0.377422 0.121170
1.000000 0.377422 0.119560
0.000000 0.448271 0.147087
0.036548 0.448271 0.145477
0.089712 0.448271 0.143607
0.149197 0.448271 0.141515
0.213951 0.448271 0.139238
0.282921 0.448271 0.136812
0.355051 0.448271 0.134275
0.429289 0.448271 0.131664
0.504580 0.448271 0.129016
0.579872 0.448271 0.126368
0.654110 0.448271 0.123758
0.726240 0.448271 0.121221
0.795209 0.448271 0.118795
0.859963 0.448271 0.116518
0.919449 0.448271 0.114426
0.972612 0.448271 0.112556
1.000000 0.448271 0.110945
0.000000 0.520000 0.138366
0.043217 0.520000 0.136756
0.096381 0.520000 0.134886
0.155866 0.520000 0.132794
0.220620 0.520000 0.130517
0.289590 0.520000 0.128091
0.361720 0.520000 0.125554
0.435958 0.520000 0.122943
0.511249 0.520000 0.120295
0.586541 0.520000 0.117647
0.660779 0.520000 0.115036
0.732909 0.520000 0.112500
0.801878 0.520000 0.110074
0.866632 0.520000 0.107797
0.926118 0.520000 0.105705
0.979281 0.520000 0.103835
1.000000 0.520000 0.102224
0.004099 0.591729 0.129645
0.049886 0.591729 0.128035
0.103050 0.591729 0.126165
0.162535 0.591729 0.124073
0.227289 0.591729 0.121796
0.296259 0.591729 0.119370
0.368389 0.591729 0.116833
0.442627 0.591729 0.114222
0.517918 0.591729 0.111574
0.593210 0.591729 0.108926
0.667448 0.591729 0.106315
0.739578 0.591729 0.103779
0.808547 0.591729 0.101353
0.873301 0.591729 0.099076
0.932787 0.591729 0.096983
0.985950 0.591729 0.095114
1.000000 0.591729 0.093503
0.010687 0.662578 0.121031
0.056474 0.662578 0.119421
0.109637 0.662578 0.117551
0.169122 0.662578 0.115459
0.233877 0.662578 0.113182
0.302846 0.662578 0.110756
0.374976 0.662578 0.108219
0.449214 0.662578 0.105608
0.524506 0.662578 0.102960
0.599797 0.662578 0.100312
0.674035 0.662578 0.097701
0.746165 0.662578 0.095164
0.815134 0.662578 0.092739
0.879889 0.662578 0.090461
0.939374 0.662578 0.088369
0.992538 0.662578 0.086500
1.000000 0.662578 0.084889
0.017110 0.731670 0.112631
0.062898 0.731670 0.111020
0.116061 0.731670 0.109151
0.175546 0.731670 0.107059
0.240301 0.731670 0.104781
0.309270 0.731670 0.102356
0.381400 0.731670 0.099819
0.455638 0.731670 0.097208
0.530929 0.731670 0.094560
0.606221 0.731670 0.091912
0.680459 0.731670 0.089301
0.752589 0.731670 0.086764
0.821558 0.731670 0.084338
0.886313 0.731670 0.082061
0.945798 0.731670 0.079969
0.998961 0.731670 0.078099
1.000000 0.731670 0.076489
0.023289 0.798125 0.104551
0.069076 0.798125 0.102941
0.122240 0.798125 0.101071
0.181725 0.798125 0.098979
0.246479 0.798125 0.096701
0.315449 0.798125 0.094276
0.387579 0.798125 0.091739
0.461817 0.798125 0.089128
0.537108 0.798125 0.086480
0.612400 0.798125 0.083832
0.686638 0.798125 0.081221
0.758768 0.798125 0.078684
0.827737 0.798125 0.076258
0.892491 0.798125 0.073981
0.951977 0.798125 0.071889
1.000000 0.798125 0.070019
1.000000 0.798125 0.068409
0.029141 0.861064 0.096898
0.074928 0.861064 0.095288
0.128091 0.861064 0.093418
0.187577 0.861064 0.091326
0.252331 0.861064 0.089049
0.321300 0.861064 0.086623
0.393431 0.861064 0.084086
0.467669 0.861064 0.081475
0.542960 0.861064 0.078827
0.618252 0.861064 0.076179
0.692489 0.861064 0.073569
0.764620 0.861064 0.071032
0.833589 0.861064 0.068606
0.898343 0.861064 0.066329
0.957829 0.861064 0.064237
1.000000 0.861064 0.062367
1.000000 0.861064 0.060756
0.034584 0.919609 0.089780
0.080371 0.919609 0.088170
0.133535 0.919609 0.086300
0.193020 0.919609 0.084208
0.257774 0.919609 0.081931
0.326744 0.919609 0.079505
0.398874 0.919609 0.076968
0.473112 0.919609 0.074357
0.548403 0.919609 0.071709
0.623695 0.919609 0.069061
0.697933 0.919609 0.066450
0.770063 0.919609 0.063914
0.839032 0.919609 0.061488
0.903786 0.919609 0.059211
0.963272 0.919609 0.057118
1.000000 0.919609 0.055249
1.000000 0.919609 0.053638
0.039537 0.972881 0.083303
0.085324 0.972881 0.081693
0.138488 0.972881 0.079823
0.197973 0.972881 0.077731
0.262727 0.972881 0.075454
0.331697 0.972881 0.073028
0.403827 0.972881 0.070491
0.478065 0.972881 0.067880
0.553356 0.972881 0.065232
0.628648 0.972881 0.062584
0.702886 0.972881 0.059973
0.775016 0.972881 0.057437
0.843985 0.972881 0.055011
0.908739 0.972881 0.052734
0.968225 0.972881 0.050641
1.000000 0.972881 0.048772
1.000000 0.972881 0.047161
0.043918 1.000000 0.077574
0.089705 1.000000 0.075964
0.142869 1.000000 0.074094
0.202354 1.000000 0.072002
0.267108 1.000000 0.069725
0.336078 1.000000 0.067299
0.408208 1.000000 0.064762
0.482446 1.000000 0.062151
0.557737 1.000000 0.059503
0.633029 1.000000 0.056855
0.707267 1.000000 0.054244
0.779397 1.000000 0.051708
0.848366 1.000000 0.049282
0.913120 1.000000 0.047005
0.972606 1.000000 0.044913
1.000000 1.000000 0.043043
1.000000 1.000000 0.041432
0.000000 0.020000 0.256985
0.000000 0.020000 0.255374
0.050442 0.020000 0.253505
0.109928 0.020000 0.251413
0.174682 0.020000 0.249135
0.243651 0.020000 0.246710
0.315781 0.020000 0.244173
0.390019 0.020000 0.241562
0.465311 0.020000 0.238914
0.540602 0.020000 0.236266
0.614840 0.020000 0.233655
0.686970 0.020000 0.231118
0.755940 0.020000 0.228692
0.820694 0.020000 0.226415
0.880179 0.020000 0.224323
0.933343 0.020000 0.222453
0.979130 0.020000 0.220843
0.000000 0.067119 0.251256
