library/luts/teal_orange.cube
# CrabbyCut preset LUT — sinh bởi scripts/generate_preset_luts.js
TITLE "Teal & Orange"
LUT_3D_SIZE 9
0.000000 0.020000 0.100000
0.048950 0.020000 0.096520
0.173190 0.020000 0.092150
0.314290 0.020000 0.087188
0.463819 0.020000 0.081929
0.613348 0.020000 0.076670
0.754448 0.020000 0.071708
0.878688 0.020000 0.067338
0.977638 0.020000 0.063858
0.000000 0.120391 0.087794
0.058284 0.120391 0.084314
0.182524 0.120391 0.079945
0.323624 0.120391 0.074982
0.473153 0.120391 0.069723
0.622682 0.120391 0.064464
0.763782 0.120391 0.059502
0.888022 0.120391 0.055132
0.986972 0.120391 0.051652
0.000000 0.241875 0.073024
0.069579 0.241875 0.069543
0.193819 0.241875 0.065174
0.334919 0.241875 0.060211
0.484448 0.241875 0.054953
0.633977 0.241875 0.049694
0.775077 0.241875 0.044731
0.899317 0.241875 0.040362
0.998267 0.241875 0.036882
0.000000 0.377422 0.056543
0.082182 0.377422 0.053063
0.206422 0.377422 0.048694
0.347521 0.377422 0.043731
0.497051 0.377422 0.038472
0.646580 0.377422 0.033213
0.787680 0.377422 0.028251
0.911919 0.377422 0.023881
1.000000 0.377422 0.020401
0.000000 0.520000 0.039208
0.095438 0.520000 0.035728
0.219678 0.520000 0.031358
0.360778 0.520000 0.026396
0.510307 0.520000 0.021137
0.659836 0.520000 0.015878
0.800936 0.520000 0.010916
0.925176 0.520000 0.006546
1.000000 0.520000 0.003066
0.009744 0.662578 0.021873
0.108695 0.662578 0.018393
0.232934 0.662578 0.014023
0.374034 0.662578 0.009061
0.523563 0.662578 0.003802
0.673093 0.662578 0.000000
0.814192 0.662578 0.000000
0.938432 0.662578 0.000000
1.000000 0.662578 0.000000
0.022347 0.798125 0.005392
0.121297 0.798125 0.001912
0.245537 0.798125 0.000000
0.386637 0.798125 0.000000
0.536166 0.798125 0.000000
0.685695 0.798125 0.000000
0.826795 0.798125 0.000000
0.951035 0.798125 0.000000
1.000000 0.798125 0.000000
0.033642 0.919609 0.000000
0.132592 0.919609 0.000000
0.256832 0.919609 0.000000
0.397932 0.919609 0.000000
0.547461 0.919609 0.000000
0.696990 0.919609 0.000000
0.838090 0.919609 0.000000
0.962330 0.919609 0.000000
1.000000 0.919609 0.000000
0.042976 1.000000 0.000000
0.141926 1.000000 0.000000
0.266166 1.000000 0.000000
0.407266 1.000000 0.000000
0.556795 1.000000 0.000000
0.706324 1.000000 0.000000
0.847424 1.000000 0.000000
0.971664 1.000000 0.000000
1.000000 1.000000 0.000000
0.000000 0.020000 0.199158
0.049893 0.020000 0.195678
0.174132 0.020000 0.191309
0.315232 0.020000 0.186346
0.464761 0.020000 0.181087
0.614291 0.020000 0.175828
0.755390 0.020000 0.170866
0.879630 0.020000 0.166497
0.978580 0.020000 0.163016
0.000000 0.120391 0.186953
0.059226 0.120391 0.183472
0.183466 0.120391 0.179103
0.324566 0.120391 0.174140
0.474095 0.120391 0.168882
0.623625 0.120391 0.163623
0.764724 0.120391 0.158660
0.888964 0.120391 0.154291
0.987914 0.120391 0.150811
0.000000 0.241875 0.172182
0.070522 0.241875 0.168702
0.194761 0.241875 0.164332
0.335861 0.241875 0.159370
0.485390 0.241875 0.154111
0.634920 0.241875 0.148852
0.776019 0.241875 0.143890
0.900259 0.241875 0.139520
0.999209 0.241875 0.136040
0.000000 0.377422 0.155702
0.083124 0.377422 0.152222
0.207364 0.377422 0.147852
0.348464 0.377422 0.142890
0.497993 0.377422 0.137631
0.647522 0.377422 0.132372
0.788622 0.377422 0.127409
0.912862 0.377422 0.123040
1.000000 0.377422 0.119560
0.000000 0.520000 0.138366
0.096381 0.520000 0.134886
0.220620 0.520000 0.130517
0.361720 0.520000 0.125554
0.511249 0.520000 0.120295
0.660779 0.520000 0.115036
0.801878 0.520000 0.110074
0.926118 0.520000 0.105705
1.000000 0.520000 0.102224
0.010687 0.662578 0.121031
0.109637 0.662578 0.117551
0.233877 0.662578 0.113182
0.374976 0.662578 0.108219
0.524506 0.662578 0.102960
0.674035 0.662578 0.097701
0.815134 0.662578 0.092739
0.939374 0.662578 0.088369
1.000000 0.662578 0.084889
0.023289 0.798125 0.104551
0.122240 0.798125 0.101071
0.246479 0.798125 0.096701
0.387579 0.798125 0.091739
0.537108 0.798125 0.086480
0.686638 0.798125 0.081221
0.827737 0.798125 0.076258
0.951977 0.798125 0.071889
1.000000 0.798125 0.068409
0.034584 0.919609 0.089780
0.133535 0.919609 0.086300
0.257774 0.919609 0.081931
0.398874 0.919609 0.076968
0.548403 0.919609 0.071709
0.697933 0.919609 0.066450
0.839032 0.919609 0.061488
0.963272 0.919609 0.057118
1.000000 0.919609 0.053638
0.043918 1.000000 0.077574
0.142869 1.000000 0.074094
0.267108 1.000000 0.069725
0.408208 1.000000 0.064762
0.557737 1.000000 0.059503
0.707267 1.000000 0.054244
0.848366 1.000000 0.049282
0.972606 1.000000 0.044913
1.000000 1.000000 0.041432
0.000000 0.020000 0.319152
0.051033 0.020000 0.315672
0.175273 0.020000 0.311302
0.316372 0.020000 0.306340
0.465902 0.020000 0.301081
0.615431 0.020000 0.295822
0.756530 0.020000 0.290859
0.880770 0.020000 0.286490
0.979721 0.020000 0.283010
0.000000 0.120391 0.306946
0.060367 0.120391 0.303466
0.184607 0.120391 0.299096
0.325706 0.120391 0.294134
0.475235 0.120391 0.288875
0.624765 0.120391 0.283616
0.765864 0.120391 0.278653
0.890104 0.120391 0.274284
0.989054 0.120391 0.270804
0.000000 0.241875 0.292175
0.071662 0.241875 0.288695
0.195902 0.241875 0.284326
0.337001 0.241875 0.279363
0.486531 0.241875 0.274104
0.636060 0.241875 0.268845
0.777159 0.241875 0.263883
0.901399 0.241875 0.259513
1.000000 0.241875 0.256033
0.000000 0.377422 0.275695
0.084264 0.377422 0.272215
0.208504 0.377422 0.267845
0.349604 0.377422 0.262883
0.499133 0.377422 0.257624
0.648663 0.377422 0.252365
0.789762 0.377422 0.247403
0.914002 0.377422 0.243033
1.000000 0.377422 0.239553
0.000000 0.520000 0.258360
0.097521 0.520000 0.254880
0.221761 0.520000 0.250510
0.362860 0.520000 0.245548
0.512390 0.520000 0.240289
0.661919 0.520000 0.235030
0.803018 0.520000 0.230067
0.927258 0.520000 0.225698
1.000000 0.520000 0.222218
0.011827 0.662578 0.241024
0.110777 0.662578 0.237544
0.235017 0.662578 0.233175
0.376117 0.662578 0.228212
0.525646 0.662578 0.222953
0.675175 0.662578 0.217695
0.816275 0.662578 0.212732
0.940515 0.662578 0.208363
1.000000 0.662578 0.204882
0.024429 0.798125 0.224544
0.123380 0.798125 0.221064
0.247620 0.798125 0.216695
0.388719 0.798125 0.211732
0.538248 0.798125 0.206473
0.687778 0.798125 0.201214
0.828877 0.798125 0.196252
0.953117 0.798125 0.191882
1.000000 0.798125 0.188402
0.035725 0.919609 0.209774
0.134675 0.919609 0.206294
0.258915 0.919609 0.201924
0.400014 0.919609 0.196962
0.549544 0.919609 0.191703
0.699073 0.919609 0.186444
0.840172 0.919609 0.181481
0.964412 0.919609 0.177112
1.000000 0.919609 0.173632
0.045059 1.000000 0.197568
0.144009 1.000000 0.194088
0.268249 1.000000 0.189718
0.409348 1.000000 0.184756
0.558878 1.000000 0.179497
0.708407 1.000000 0.174238
0.849506 1.000000 0.169275
0.973746 1.000000 0.164906
1.000000 1.000000 0.161426
0.000000 0.020000 0.453035
0.052305 0.020000 0.449555
0.176545 0.020000 0.445185
0.317644 0.020000 0.440223
0.467174 0.020000 0.434964
0.616703 0.020000 0.429705
0.757803 0.020000 0.424742
0.882042 0.020000 0.420373
0.980993 0.020000 0.416893
0.000000 0.120391 0.440829
0.061639 0.120391 0.437349
0.185879 0.120391 0.432979
0.326978 0.120391 0.428017
0.476508 0.120391 0.422758
0.626037 0.120391 0.417499
0.767137 0.120391 0.412537
0.891376 0.120391 0.408167
0.990327 0.120391 0.404687
0.000000 0.241875 0.426058
0.072934 0.241875 0.422578
0.197174 0.241875 0.418209
0.338273 0.241875 0.413246
0.487803 0.241875 0.407987
0.637332 0.241875 0.402728
0.778432 0.241875 0.397766
0.902672 0.241875 0.393397
1.000000 0.241875 0.389916
0.000000 0.377422 0.409578
0.085537 0.377422 0.406098
0.209777 0.377422 0.401729
0.350876 0.377422 0.396766
0.500405 0.377422 0.391507
0.649935 0.377422 0.386248
0.791034 0.377422 0.381286
0.915274 0.377422 0.376916
1.000000 0.377422 0.373436
0.000000 0.520000 0.392243
0.098793 0.520000 0.388763
0.223033 0.520000 0.384393
0.364132 0.520000 0.379431
0.513662 0.520000 0.374172
0.663191 0.520000 0.368913
0.804291 0.520000 0.363950
0.928530 0.520000 0.359581
1.000000 0.520000 0.356101
0.013099 0.662578 0.374908
0.112049 0.662578 0.371428
0.236289 0.662578 0.367058
0.377389 0.662578 0.362096
0.526918 0.662578 0.356837
0.676447 0.662578 0.351578
0.817547 0.662578 0.346615
0.941787 0.662578 0.342246
1.000000 0.662578 0.338766
0.025702 0.798125 0.358427
0.124652 0.798125 0.354947
0.248892 0.798125 0.350578
0.389991 0.798125 0.345615
0.539521 0.798125 0.340356
0.689050 0.798125 0.335097
0.830150 0.798125 0.330135
0.954389 0.798125 0.325765
1.000000 0.798125 0.322285
0.036997 0.919609 0.343657
0.135947 0.919609 0.340177
0.260187 0.919609 0.335807
0.401286 0.919609 0.330845
0.550816 0.919609 0.325586
0.700345 0.919609 0.320327
0.841445 0.919609 0.315364
0.965685 0.919609 0.310995
1.000000 0.919609 0.307515
0.046331 1.000000 0.331451
0.145281 1.000000 0.327971
0.269521 1.000000 0.323601
0.410620 1.000000 0.318639
0.560150 1.000000 0.313380
0.709679 1.000000 0.308121
0.850779 1.000000 0.303158
0.975018 1.000000 0.298789
1.000000 1.000000 0.295309
0.000000 0.020000 0.593863
0.053643 0.020000 0.590383
0.177883 0.020000 0.586013
0.318983 0.020000 0.581051
0.468512 0.020000 0.575792
0.618041 0.020000 0.570533
0.759141 0.020000 0.565571
0.883381 0.020000 0.561201
0.982331 0.020000 0.557721
0.000000 0.120391 0.581657
0.062977 0.120391 0.578177
0.187217 0.120391 0.573808
0.328317 0.120391 0.568845
0.477846 0.120391 0.563586
0.627375 0.120391 0.558327
0.768475 0.120391 0.553365
0.892715 0.120391 0.548995
0.991665 0.120391 0.545515
0.000000 0.241875 0.566887
0.074272 0.241875 0.563406
0.198512 0.241875 0.559037
0.339612 0.241875 0.554074
0.489141 0.241875 0.548816
0.638670 0.241875 0.543557
0.779770 0.241875 0.538594
0.904010 0.241875 0.534225
1.000000 0.241875 0.530745
0.000000 0.377422 0.550406
0.086875 0.377422 0.546926
0.211115 0.377422 0.542557
0.352214 0.377422 0.537594
0.501744 0.377422 0.532335
0.651273 0.377422 0.527076
0.792373 0.377422 0.522114
0.916612 0.377422 0.517744
1.000000 0.377422 0.514264
0.001181 0.520000 0.533071
0.100131 0.520000 0.529591
0.224371 0.520000 0.525221
0.365471 0.520000 0.520259
0.515000 0.520000 0.515000
0.664529 0.520000 0.509741
0.805629 0.520000 0.504779
0.929869 0.520000 0.500409
1.000000 0.520000 0.496929
0.014437 0.662578 0.515736
0.113388 0.662578 0.512256
0.237627 0.662578 0.507886
0.378727 0.662578 0.502924
0.528256 0.662578 0.497665
0.677786 0.662578 0.492406
0.818885 0.662578 0.487443
0.943125 0.662578 0.483074
1.000000 0.662578 0.479594
0.027040 0.798125 0.499255
0.125990 0.798125 0.495775
0.250230 0.798125 0.491406
0.391330 0.798125 0.486443
0.540859 0.798125 0.481184
0.690388 0.798125 0.475926
0.831488 0.798125 0.470963
0.955728 0.798125 0.466594
1.000000 0.798125 0.463113
0.038335 0.919609 0.484485
0.137285 0.919609 0.481005
0.261525 0.919609 0.476635
0.402625 0.919609 0.471673
0.552154 0.919609 0.466414
0.701683 0.919609 0.461155
0.842783 0.919609 0.456192
0.967023 0.919609 0.451823
1.000000 0.919609 0.448343
0.047669 1.000000 0.472279
0.146619 1.000000 0.468799
0.270859 1.000000 0.464429
0.411959 1.000000 0.459467
0.561488 1.000000 0.454208
0.711017 1.000000 0.448949
0.852117 1.000000 0.443987
0.976357 1.000000 0.439617
1.000000 1.000000 0.436137
0.000000 0.020000 0.734691
0.054982 0.020000 0.731211
0.179221 0.020000 0.726842
0.320321 0.020000 0.721879
0.469850 0.020000 0.716620
0.619380 0.020000 0.711361
0.760479 0.020000 0.706399
0.884719 0.020000 0.702029
0.983669 0.020000 0.698549
0.000000 0.120391 0.722485
0.064315 0.120391 0.719005
0.188555 0.120391 0.714636
0.329655 0.120391 0.709673
0.479184 0.120391 0.704414
0.628714 0.120391 0.699155
0.769813 0.120391 0.694193
0.894053 0.120391 0.689823
0.993003 0.120391 0.686343
0.000000 0.241875 0.707715
0.075611 0.241875 0.704235
0.199850 0.241875 0.699865
0.340950 0.241875 0.694903
0.490479 0.241875 0.689644
0.640009 0.241875 0.684385
0.781108 0.241875 0.679422
0.905348 0.241875 0.675053
1.000000 0.241875 0.671573
0.000000 0.377422 0.691234
0.088213 0.377422 0.687754
0.212453 0.377422 0.683385
0.353553 0.377422 0.678422
0.503082 0.377422 0.673163
0.652611 0.377422 0.667904
0.793711 0.377422 0.662942
0.917951 0.377422 0.658572
1.000000 0.377422 0.655092
0.002519 0.520000 0.673899
0.101470 0.520000 0.670419
0.225709 0.520000 0.666050
0.366809 0.520000 0.661087
0.516338 0.520000 0.655828
0.665868 0.520000 0.650569
0.806967 0.520000 0.645607
0.931207 0.520000 0.641237
1.000000 0.520000 0.637757
0.015776 0.662578 0.656564
0.114726 0.662578 0.653084
0.238966 0.662578 0.648714
0.380065 0.662578 0.643752
0.529595 0.662578 0.638493
0.679124 0.662578 0.633234
0.820223 0.662578 0.628271
0.944463 0.662578 0.623902
1.000000 0.662578 0.620422
0.028378 0.798125 0.640084
0.127328 0.798125 0.636603
0.251568 0.798125 0.632234
0.392668 0.798125 0.627272
0.542197 0.798125 0.622013
0.691727 0.798125 0.616754
0.832826 0.798125 0.611791
0.957066 0.798125 0.607422
1.000000 0.798125 0.603942
0.039673 0.919609 0.625313
0.138624 0.919609 0.621833
0.262863 0.919609 0.617463
0.403963 0.919609 0.612501
0.553492 0.919609 0.607242
0.703022 0.919609 0.601983
0.844121 0.919609 0.597021
0.968361 0.919609 0.592651
1.000000 0.919609 0.589171
0.049007 1.000000 0.613107
0.147958 1.000000 0.609627
0.272197 1.000000 0.605258
0.413297 1.000000 0.600295
0.562826 1.000000 0.595036
0.712356 1.000000 0.589777
0.853455 1.000000 0.584815
0.977695 1.000000 0.580445
1.000000 1.000000 0.576965
0.000000 0.020000 0.868574
0.056254 0.020000 0.865094
0.180494 0.020000 0.860725
0.321593 0.020000 0.855762
0.471122 0.020000 0.850503
0.620652 0.020000 0.845244
0.761751 0.020000 0.840282
0.885991 0.020000 0.835912
0.984941 0.020000 0.832432
0.000000 0.120391 0.856368
0.065588 0.120391 0.852888
0.189828 0.120391 0.848519
0.330927 0.120391 0.843556
0.480456 0.120391 0.838297
0.629986 0.120391 0.833038
0.771085 0.120391 0.828076
0.895325 0.120391 0.823706
0.994275 0.120391 0.820226
0.000000 0.241875 0.841598
0.076883 0.241875 0.838118
0.201123 0.241875 0.833748
0.342222 0.241875 0.828786
0.491752 0.241875 0.823527
0.641281 0.241875 0.818268
0.782380 0.241875 0.813305
0.906620 0.241875 0.808936
1.000000 0.241875 0.805456
0.000000 0.377422 0.825118
0.089485 0.377422 0.821637
0.213725 0.377422 0.817268
0.354825 0.377422 0.812305
0.504354 0.377422 0.807047
0.653883 0.377422 0.801788
0.794983 0.377422 0.796825
0.919223 0.377422 0.792456
1.000000 0.377422 0.788976
0.003791 0.520000 0.807782
0.102742 0.520000 0.804302
0.226982 0.520000 0.799933
0.368081 0.520000 0.794970
0.517610 0.520000 0.789711
0.667140 0.520000 0.784452
0.808239 0.520000 0.779490
0.932479 0.520000 0.775120
1.000000 0.520000 0.771640
0.017048 0.662578 0.790447
0.115998 0.662578 0.786967
0.240238 0.662578 0.782597
0.381337 0.662578 0.777635
0.530867 0.662578 0.772376
0.680396 0.662578 0.767117
0.821496 0.662578 0.762155
0.945736 0.662578 0.757785
1.000000 0.662578 0.754305
0.029650 0.798125 0.773967
0.128601 0.798125 0.770487
0.252841 0.798125 0.766117
0.393940 0.798125 0.761155
0.543469 0.798125 0.755896
0.692999 0.798125 0.750637
0.834098 0.798125 0.745674
0.958338 0.798125 0.741305
1.000000 0.798125 0.737825
0.040946 0.919609 0.759196
0.139896 0.919609 0.755716
0.264136 0.919609 0.751347
0.405235 0.919609 0.746384
0.554765 0.919609 0.741125
0.704294 0.919609 0.735866
0.845393 0.919609 0.730904
0.969633 0.919609 0.726534
1.000000 0.919609 0.723054
0.050279 1.000000 0.746990
0.149230 1.000000 0.743510
0.273470 1.000000 0.739141
0.414569 1.000000 0.734178
0.564098 1.000000 0.728919
0.713628 1.000000 0.723660
0.854727 1.000000 0.718698
0.978967 1.000000 0.714328
1.000000 1.000000 0.710848
0.000000 0.020000 0.988568
0.057394 0.020000 0.985087
0.181634 0.020000 0.980718
0.322733 0.020000 0.975756
0.472263 0.020000 0.970497
0.621792 0.020000 0.965238
0.762892 0.020000 0.960275
0.887131 0.020000 0.955906
0.986082 0.020000 0.952426
0.000000 0.120391 0.976362
0.066728 0.120391 0.972882
0.190968 0.120391 0.968512
0.332067 0.120391 0.963550
0.481597 0.120391 0.958291
0.631126 0.120391 0.953032
0.772226 0.120391 0.948069
0.896465 0.120391 0.943700
0.995416 0.120391 0.940220
0.000000 0.241875 0.961591
0.078023 0.241875 0.958111
0.202263 0.241875 0.953742
0.343362 0.241875 0.948779
0.492892 0.241875 0.943520
0.642421 0.241875 0.938261
0.783521 0.241875 0.933299
0.907760 0.241875 0.928929
1.000000 0.241875 0.925449
0.000000 0.377422 0.945111
0.090626 0.377422 0.941631
0.214866 0.377422 0.937261
0.355965 0.377422 0.932299
0.505494 0.377422 0.927040
0.655024 0.377422 0.921781
0.796123 0.377422 0.916818
0.920363 0.377422 0.912449
1.000000 0.377422 0.908969
0.004932 0.520000 0.927776
0.103882 0.520000 0.924295
0.228122 0.520000 0.919926
0.369221 0.520000 0.914964
0.518751 0.520000 0.909705
0.668280 0.520000 0.904446
0.809380 0.520000 0.899483
0.933619 0.520000 0.895114
1.000000 0.520000 0.891634
0.018188 0.662578 0.910440
0.117138 0.662578 0.906960
0.241378 0.662578 0.902591
0.382478 0.662578 0.897628
0.532007 0.662578 0.892369
0.681536 0.662578 0.887110
0.822636 0.662578 0.882148
0.946876 0.662578 0.877778
1.000000 0.662578 0.874298
0.030791 0.798125 0.893960
0.129741 0.798125 0.890480
0.253981 0.798125 0.886110
0.395080 0.798125 0.881148
0.544610 0.798125 0.875889
0.694139 0.798125 0.870630
0.835239 0.798125 0.865668
0.959478 0.798125 0.861298
1.000000 0.798125 0.857818
0.042086 0.919609 0.879189
0.141036 0.919609 0.875709
0.265276 0.919609 0.871340
0.406375 0.919609 0.866377
0.555905 0.919609 0.861118
0.705434 0.919609 0.855860
0.846534 0.919609 0.850897
0.970774 0.919609 0.846528
1.000000 0.919609 0.843047
0.051420 1.000000 0.866984
0.150370 1.000000 0.863503
0.274610 1.000000 0.859134
0.415709 1.000000 0.854172
0.565239 1.000000 0.848913
0.714768 1.000000 0.843654
0.855868 1.000000 0.838691
0.980107 1.000000 0.834322
1.000000 1.000000 0.830842
0.000000 0.020000 1.000000
0.058336 0.020000 1.000000
0.182576 0.020000 1.000000
0.323676 0.020000 1.000000
0.473205 0.020000 1.000000
0.622734 0.020000 1.000000
0.763834 0.020000 1.000000
0.888074 0.020000 1.000000
0.987024 0.020000 1.000000
0.000000 0.120391 1.000000
0.067670 0.120391 1.000000
0.191910 0.120391 1.000000
0.333010 0.120391 1.000000
0.482539 0.120391 1.000000
0.632068 0.120391 1.000000
0.773168 0.120391 1.000000
0.897408 0.120391 1.000000
0.996358 0.120391 1.000000
0.000000 0.241875 1.000000
0.078965 0.241875 1.000000
0.203205 0.241875 1.000000
0.344305 0.241875 1.000000
0.493834 0.241875 1.000000
0.643363 0.241875 1.000000
0.784463 0.241875 1.000000
0.908703 0.241875 1.000000
1.000000 0.241875 1.000000
0.000000 0.377422 1.000000
0.091568 0.377422 1.000000
0.215808 0.377422 1.000000
0.356907 0.377422 1.000000
0.506437 0.377422 1.000000
0.655966 0.377422 1.000000
0.797066 0.377422 1.000000
0.921305 0.377422 1.000000
1.000000 0.377422 1.000000
0.005874 0.520000 1.000000
0.104824 0.520000 1.000000
0.229064 0.520000 1.000000
0.370164 0.520000 1.000000
0.519693 0.520000 1.000000
0.669222 0.520000 1.000000
0.810322 0.520000 0.998642
0.934562 0.520000 0.994272
1.000000 0.520000 0.990792
0.019130 0.662578 1.000000
0.118081 0.662578 1.000000
0.242320 0.662578 1.000000
0.383420 0.662578 0.996787
0.532949 0.662578 0.991528
0.682479 0.662578 0.986269
0.823578 0.662578 0.981306
0.947818 0.662578 0.976937
1.000000 0.662578 0.973457
0.031733 0.798125 0.993118
0.130683 0.798125 0.989638
0.254923 0.798125 0.985269
0.396023 0.798125 0.980306
0.545552 0.798125 0.975047
0.695081 0.798125 0.969789
0.836181 0.798125 0.964826
0.960421 0.798125 0.960457
1.000000 0.798125 0.956976
0.043028 0.919609 0.978348
0.141978 0.919609 0.974868
0.266218 0.919609 0.970498
0.407318 0.919609 0.965536
0.556847 0.919609 0.960277
0.706376 0.919609 0.955018
0.847476 0.919609 0.950055
0.971716 0.919609 0.945686
1.000000 0.919609 0.942206
0.052362 1.000000 0.966142
0.151312 1.000000 0.962662
0.275552 1.000000 0.958292
0.416652 1.000000 0.953330
0.566181 1.000000 0.948071
0.715710 1.000000 0.942812
0.856810 1.000000 0.937850
0.981050 1.000000 0.933480
1.000000 1.000000 0.930000
