library/luts/vintage_fade.cube
# CrabbyCut preset LUT — sinh bởi scripts/generate_preset_luts.js
TITLE "Hoài cổ (fade)"
LUT_3D_SIZE 5
0.095000 0.080000 0.060000
0.283551 0.088407 0.068407
0.472102 0.096814 0.076814
0.660652 0.105221 0.085221
0.849203 0.113628 0.093628
0.123282 0.288425 0.088282
0.311832 0.296832 0.096689
0.500383 0.305239 0.105096
0.688934 0.313646 0.113503
0.877485 0.322053 0.121910
0.151563 0.496851 0.116563
0.340114 0.505258 0.124970
0.528665 0.513665 0.133377
0.717216 0.522072 0.141784
0.905766 0.530479 0.150191
0.179845 0.705276 0.144845
0.368396 0.713683 0.153252
0.556947 0.722090 0.161659
0.745497 0.730497 0.170066
0.934048 0.738904 0.178473
0.208127 0.913702 0.173127
0.396678 0.922109 0.181534
0.585228 0.930516 0.189941
0.773779 0.938923 0.198348
0.962330 0.947330 0.206755
0.097855 0.082855 0.242999
0.286406 0.091262 0.251406
0.474957 0.099669 0.259813
0.663507 0.108076 0.268220
0.852058 0.116483 0.276627
0.126137 0.291280 0.271280
0.314688 0.299687 0.279687
0.503238 0.308095 0.288095
0.691789 0.316502 0.296502
0.880340 0.324909 0.304909
0.154418 0.499706 0.299562
0.342969 0.508113 0.307969
0.531520 0.516520 0.316376
0.720071 0.524927 0.324783
0.908621 0.533334 0.333190
0.182700 0.708131 0.327844
0.371251 0.716538 0.336251
0.559802 0.724945 0.344658
0.748352 0.733352 0.353065
0.936903 0.741759 0.361472
0.210982 0.916557 0.356126
0.399533 0.924964 0.364533
0.588083 0.933371 0.372940
0.776634 0.941778 0.381347
0.965185 0.950185 0.389754
0.100710 0.085710 0.425998
0.289261 0.094117 0.434405
0.477812 0.102524 0.442812
0.666362 0.110931 0.451219
0.854913 0.119338 0.459626
0.128992 0.294136 0.454279
0.317543 0.302543 0.462686
0.506093 0.310950 0.471093
0.694644 0.319357 0.479500
0.883195 0.327764 0.487907
0.157273 0.502561 0.482561
0.345824 0.510968 0.490968
0.534375 0.519375 0.499375
0.722926 0.527782 0.507782
0.911477 0.536189 0.516189
0.185555 0.710986 0.510843
0.374106 0.719393 0.519250
0.562657 0.727800 0.527657
0.751207 0.736207 0.536064
0.939758 0.744614 0.544471
0.213837 0.919412 0.539124
0.402388 0.927819 0.547531
0.590938 0.936226 0.555938
0.779489 0.944633 0.564345
0.968040 0.953040 0.572752
0.103565 0.088565 0.608996
0.292116 0.096972 0.617403
0.480667 0.105379 0.625810
0.669217 0.113786 0.634217
0.857768 0.122193 0.642624
0.131847 0.296991 0.637278
0.320398 0.305398 0.645685
0.508948 0.313805 0.654092
0.697499 0.322212 0.662499
0.886050 0.330619 0.670906
0.160129 0.505416 0.665560
0.348679 0.513823 0.673967
0.537230 0.522230 0.682374
0.725781 0.530637 0.690781
0.914332 0.539044 0.699188
0.188410 0.713841 0.693841
0.376961 0.722248 0.702248
0.565512 0.730655 0.710655
0.754063 0.739063 0.719063
0.942613 0.747470 0.727470
0.216692 0.922267 0.722123
0.405243 0.930674 0.730530
0.593793 0.939081 0.738937
0.782344 0.947488 0.747344
0.970895 0.955895 0.755751
0.106420 0.091420 0.791995
0.294971 0.099827 0.800402
0.483522 0.108234 0.808809
0.672072 0.116641 0.817216
0.860623 0.125048 0.825623
0.134702 0.299846 0.820277
0.323253 0.308253 0.828684
0.511803 0.316660 0.837091
0.700354 0.325067 0.845498
0.888905 0.333474 0.853905
0.162984 0.508271 0.848559
0.351534 0.516678 0.856966
0.540085 0.525085 0.865373
0.728636 0.533492 0.873780
0.917187 0.541899 0.882187
0.191265 0.716697 0.876840
0.379816 0.725104 0.885247
0.568367 0.733511 0.893654
0.756918 0.741918 0.902061
0.945468 0.750325 0.910468
0.219547 0.925122 0.905122
0.408098 0.933529 0.913529
0.596648 0.941936 0.921936
0.785199 0.950343 0.930343
0.973750 0.958750 0.938750
