library/luts/vintage_fade.cube
# CrabbyCut preset LUT — sinh bởi scripts/generate_preset_luts.js
TITLE "Hoài cổ (fade)"
LUT_3D_SIZE 17
0.095000 0.080000 0.060000
0.142138 0.082102 0.062102
0.189275 0.084204 0.064204
0.236413 0.086305 0.066305
0.283551 0.088407 0.068407
0.330688 0.090509 0.070509
0.377826 0.092611 0.072611
0.424964 0.094712 0.074712
0.472102 0.096814 0.076814
0.519239 0.098916 0.078916
0.566377 0.101018 0.081018
0.613515 0.103119 0.083119
0.660652 0.105221 0.085221
0.707790 0.107323 0.087323
0.754928 0.109425 0.089425
0.802065 0.111526 0.091526
0.849203 0.113628 0.093628
0.102070 0.132106 0.067070
0.149208 0.134208 0.069172
0.196346 0.136310 0.071274
0.243483 0.138412 0.073376
0.290621 0.140513 0.075477
0.337759 0.142615 0.077579
0.384897 0.144717 0.079681
0.432034 0.146819 0.081783
0.479172 0.148920 0.083884
0.526310 0.151022 0.085986
0.573447 0.153124 0.088088
0.620585 0.155226 0.090190
0.667723 0.157327 0.092291
0.714860 0.159429 0.094393
0.761998 0.161531 0.096495
0.809136 0.163633 0.098597
0.856273 0.165734 0.100698
0.109141 0.184213 0.074141
0.156279 0.186314 0.076243
0.203416 0.188416 0.078344
0.250554 0.190518 0.080446
0.297692 0.192620 0.082548
0.344829 0.194721 0.084650
0.391967 0.196823 0.086751
0.439105 0.198925 0.088853
0.486242 0.201027 0.090955
0.533380 0.203128 0.093057
0.580518 0.205230 0.095158
0.627655 0.207332 0.097260
0.674793 0.209434 0.099362
0.721931 0.211535 0.101464
0.769068 0.213637 0.103565
0.816206 0.215739 0.105667
0.863344 0.217841 0.107769
0.116211 0.236319 0.081211
0.163349 0.238421 0.083313
0.210487 0.240523 0.085415
0.257624 0.242624 0.087517
0.304762 0.244726 0.089618
0.351900 0.246828 0.091720
0.399037 0.248930 0.093822
0.446175 0.251031 0.095924
0.493313 0.253133 0.098025
0.540450 0.255235 0.100127
0.587588 0.257337 0.102229
0.634726 0.259438 0.104331
0.681864 0.261540 0.106432
0.729001 0.263642 0.108534
0.776139 0.265744 0.110636
0.823277 0.267845 0.112738
0.870414 0.269947 0.114839
0.123282 0.288425 0.088282
0.170419 0.290527 0.090383
0.217557 0.292629 0.092485
0.264695 0.294731 0.094587
0.311832 0.296832 0.096689
0.358970 0.298934 0.098790
0.406108 0.301036 0.100892
0.453246 0.303138 0.102994
0.500383 0.305239 0.105096
0.547521 0.307341 0.107197
0.594659 0.309443 0.109299
0.641796 0.311545 0.111401
0.688934 0.313646 0.113503
0.736072 0.315748 0.115604
0.783209 0.317850 0.117706
0.830347 0.319952 0.119808
0.877485 0.322053 0.121910
0.130352 0.340532 0.095352
0.177490 0.342634 0.097454
0.224627 0.344735 0.099556
0.271765 0.346837 0.101657
0.318903 0.348939 0.103759
0.366041 0.351041 0.105861
0.413178 0.353142 0.107963
0.460316 0.355244 0.110064
0.507454 0.357346 0.112166
0.554591 0.359448 0.114268
0.601729 0.361549 0.116370
0.648867 0.363651 0.118471
0.696004 0.365753 0.120573
0.743142 0.367855 0.122675
0.790280 0.369956 0.124777
0.837417 0.372058 0.126878
0.884555 0.374160 0.128980
0.137423 0.392638 0.102423
0.184560 0.394740 0.104524
0.231698 0.396842 0.106626
0.278836 0.398943 0.108728
0.325973 0.401045 0.110830
0.373111 0.403147 0.112931
0.420249 0.405249 0.115033
0.467386 0.407350 0.117135
0.514524 0.409452 0.119237
0.561662 0.411554 0.121338
0.608799 0.413656 0.123440
0.655937 0.415757 0.125542
0.703075 0.417859 0.127644
0.750212 0.419961 0.129745
0.797350 0.422063 0.131847
0.844488 0.424164 0.133949
0.891626 0.426266 0.136051
0.144493 0.444745 0.109493
0.191631 0.446846 0.111595
0.238768 0.448948 0.113696
0.285906 0.451050 0.115798
0.333044 0.453152 0.117900
0.380181 0.455253 0.120002
0.427319 0.457355 0.122103
0.474457 0.459457 0.124205
0.521594 0.461559 0.126307
0.568732 0.463660 0.128409
0.615870 0.465762 0.130510
0.663008 0.467864 0.132612
0.710145 0.469966 0.134714
0.757283 0.472067 0.136816
0.804421 0.474169 0.138917
0.851558 0.476271 0.141019
0.898696 0.478373 0.143121
0.151563 0.496851 0.116563
0.198701 0.498953 0.118665
0.245839 0.501054 0.120767
0.292976 0.503156 0.122869
0.340114 0.505258 0.124970
0.387252 0.507360 0.127072
0.434390 0.509461 0.129174
0.481527 0.511563 0.131276
0.528665 0.513665 0.133377
0.575803 0.515767 0.135479
0.622940 0.517868 0.137581
0.670078 0.519970 0.139683
0.717216 0.522072 0.141784
0.764353 0.524174 0.143886
0.811491 0.526275 0.145988
0.858629 0.528377 0.148090
0.905766 0.530479 0.150191
0.158634 0.548957 0.123634
0.205771 0.551059 0.125736
0.252909 0.553161 0.127837
0.300047 0.555262 0.129939
0.347185 0.557364 0.132041
0.394322 0.559466 0.134143
0.441460 0.561568 0.136244
0.488598 0.563669 0.138346
0.535735 0.565771 0.140448
0.582873 0.567873 0.142550
0.630011 0.569975 0.144651
0.677148 0.572076 0.146753
0.724286 0.574178 0.148855
0.771424 0.576280 0.150957
0.818561 0.578382 0.153058
0.865699 0.580483 0.155160
0.912837 0.582585 0.157262
0.165704 0.601064 0.130704
0.212842 0.603165 0.132806
0.259980 0.605267 0.134908
0.307117 0.607369 0.137009
0.354255 0.609471 0.139111
0.401393 0.611572 0.141213
0.448530 0.613674 0.143315
0.495668 0.615776 0.145416
0.542806 0.617878 0.147518
0.589943 0.619979 0.149620
0.637081 0.622081 0.151722
0.684219 0.624183 0.153823
0.731356 0.626285 0.155925
0.778494 0.628386 0.158027
0.825632 0.630488 0.160129
0.872770 0.632590 0.162230
0.919907 0.634692 0.164332
0.172775 0.653170 0.137775
0.219912 0.655272 0.139876
0.267050 0.657373 0.141978
0.314188 0.659475 0.144080
0.361325 0.661577 0.146182
0.408463 0.663679 0.148283
0.455601 0.665780 0.150385
0.502738 0.667882 0.152487
0.549876 0.669984 0.154589
0.597014 0.672086 0.156690
0.644152 0.674187 0.158792
0.691289 0.676289 0.160894
0.738427 0.678391 0.162996
0.785565 0.680493 0.165097
0.832702 0.682594 0.167199
0.879840 0.684696 0.169301
0.926978 0.686798 0.171403
0.179845 0.705276 0.144845
0.226983 0.707378 0.146947
0.274120 0.709480 0.149049
0.321258 0.711582 0.151150
0.368396 0.713683 0.153252
0.415534 0.715785 0.155354
0.462671 0.717887 0.157456
0.509809 0.719989 0.159557
0.556947 0.722090 0.161659
0.604084 0.724192 0.163761
0.651222 0.726294 0.165863
0.698360 0.728396 0.167964
0.745497 0.730497 0.170066
0.792635 0.732599 0.172168
0.839773 0.734701 0.174270
0.886910 0.736803 0.176371
0.934048 0.738904 0.178473
0.186915 0.757383 0.151915
0.234053 0.759484 0.154017
0.281191 0.761586 0.156119
0.328329 0.763688 0.158221
0.375466 0.765790 0.160322
0.422604 0.767891 0.162424
0.469742 0.769993 0.164526
0.516879 0.772095 0.166628
0.564017 0.774197 0.168729
0.611155 0.776298 0.170831
0.658292 0.778400 0.172933
0.705430 0.780502 0.175035
0.752568 0.782604 0.177136
0.799705 0.784705 0.179238
0.846843 0.786807 0.181340
0.893981 0.788909 0.183442
0.941118 0.791011 0.185543
0.193986 0.809489 0.158986
0.241124 0.811591 0.161088
0.288261 0.813693 0.163189
0.335399 0.815794 0.165291
0.382537 0.817896 0.167393
0.429674 0.819998 0.169495
0.476812 0.822100 0.171596
0.523950 0.824201 0.173698
0.571087 0.826303 0.175800
0.618225 0.828405 0.177902
0.665363 0.830507 0.180003
0.712500 0.832608 0.182105
0.759638 0.834710 0.184207
0.806776 0.836812 0.186309
0.853914 0.838914 0.188410
0.901051 0.841015 0.190512
0.948189 0.843117 0.192614
0.201056 0.861595 0.166056
0.248194 0.863697 0.168158
0.295332 0.865799 0.170260
0.342469 0.867901 0.172362
0.389607 0.870002 0.174463
0.436745 0.872104 0.176565
0.483882 0.874206 0.178667
0.531020 0.876308 0.180769
0.578158 0.878409 0.182870
0.625296 0.880511 0.184972
0.672433 0.882613 0.187074
0.719571 0.884715 0.189176
0.766709 0.886816 0.191277
0.813846 0.888918 0.193379
0.860984 0.891020 0.195481
0.908122 0.893122 0.197583
0.955259 0.895223 0.199684
0.208127 0.913702 0.173127
0.255264 0.915804 0.175229
0.302402 0.917905 0.177330
0.349540 0.920007 0.179432
0.396678 0.922109 0.181534
0.443815 0.924211 0.183636
0.490953 0.926312 0.185737
0.538091 0.928414 0.187839
0.585228 0.930516 0.189941
0.632366 0.932618 0.192043
0.679504 0.934719 0.194144
0.726641 0.936821 0.196246
0.773779 0.938923 0.198348
0.820917 0.941025 0.200450
0.868054 0.943126 0.202551
0.915192 0.945228 0.204653
0.962330 0.947330 0.206755
0.095714 0.080714 0.105750
0.142851 0.082816 0.107851
0.189989 0.084917 0.109953
0.237127 0.087019 0.112055
0.284265 0.089121 0.114157
0.331402 0.091223 0.116258
0.378540 0.093324 0.118360
0.425678 0.095426 0.120462
0.472815 0.097528 0.122564
0.519953 0.099630 0.124665
0.567091 0.101731 0.126767
0.614228 0.103833 0.128869
0.661366 0.105935 0.130971
0.708504 0.108037 0.133072
0.755641 0.110138 0.135174
0.802779 0.112240 0.137276
0.849917 0.114342 0.139378
0.102784 0.132820 0.112820
0.149922 0.134922 0.114922
0.197060 0.137024 0.117024
0.244197 0.139125 0.119125
0.291335 0.141227 0.121227
0.338473 0.143329 0.123329
0.385610 0.145431 0.125431
0.432748 0.147532 0.127532
0.479886 0.149634 0.129634
0.527023 0.151736 0.131736
0.574161 0.153838 0.133838
0.621299 0.155939 0.135939
0.668436 0.158041 0.138041
0.715574 0.160143 0.140143
0.762712 0.162245 0.142245
0.809850 0.164346 0.144346
0.856987 0.166448 0.146448
0.109855 0.184926 0.119891
0.156992 0.187028 0.121992
0.204130 0.189130 0.124094
0.251268 0.191232 0.126196
0.298405 0.193333 0.128298
0.345543 0.195435 0.130399
0.392681 0.197537 0.132501
0.439818 0.199639 0.134603
0.486956 0.201740 0.136705
0.534094 0.203842 0.138806
0.581231 0.205944 0.140908
0.628369 0.208046 0.143010
0.675507 0.210147 0.145112
0.722645 0.212249 0.147213
0.769782 0.214351 0.149315
0.816920 0.216453 0.151417
0.864058 0.218554 0.153519
0.116925 0.237033 0.126961
0.164063 0.239135 0.129063
0.211200 0.241236 0.131164
0.258338 0.243338 0.133266
0.305476 0.245440 0.135368
0.352613 0.247542 0.137470
0.399751 0.249643 0.139571
0.446889 0.251745 0.141673
0.494027 0.253847 0.143775
0.541164 0.255949 0.145877
0.588302 0.258050 0.147978
0.635440 0.260152 0.150080
0.682577 0.262254 0.152182
0.729715 0.264356 0.154284
0.776853 0.266457 0.156385
0.823990 0.268559 0.158487
0.871128 0.270661 0.160589
0.123995 0.289139 0.134031
0.171133 0.291241 0.136133
0.218271 0.293343 0.138235
0.265409 0.295444 0.140337
0.312546 0.297546 0.142438
0.359684 0.299648 0.144540
0.406822 0.301750 0.146642
0.453959 0.303851 0.148744
0.501097 0.305953 0.150845
0.548235 0.308055 0.152947
0.595372 0.310157 0.155049
0.642510 0.312258 0.157151
0.689648 0.314360 0.159252
0.736785 0.316462 0.161354
0.783923 0.318564 0.163456
0.831061 0.320665 0.165558
0.878198 0.322767 0.167659
0.131066 0.341246 0.141102
0.178204 0.343347 0.143204
0.225341 0.345449 0.145305
0.272479 0.347551 0.147407
0.319617 0.349653 0.149509
0.366754 0.351754 0.151611
0.413892 0.353856 0.153712
0.461030 0.355958 0.155814
0.508167 0.358060 0.157916
0.555305 0.360161 0.160018
0.602443 0.362263 0.162119
0.649580 0.364365 0.164221
0.696718 0.366467 0.166323
0.743856 0.368568 0.168425
0.790994 0.370670 0.170526
0.838131 0.372772 0.172628
0.885269 0.374874 0.174730
0.138136 0.393352 0.148172
0.185274 0.395454 0.150274
0.232412 0.397555 0.152376
0.279549 0.399657 0.154477
0.326687 0.401759 0.156579
0.373825 0.403861 0.158681
0.420962 0.405962 0.160783
0.468100 0.408064 0.162884
0.515238 0.410166 0.164986
0.562375 0.412268 0.167088
0.609513 0.414369 0.169190
0.656651 0.416471 0.171291
0.703789 0.418573 0.173393
0.750926 0.420675 0.175495
0.798064 0.422776 0.177597
0.845202 0.424878 0.179698
0.892339 0.426980 0.181800
0.145207 0.445458 0.155243
0.192344 0.447560 0.157344
0.239482 0.449662 0.159446
0.286620 0.451764 0.161548
0.333757 0.453865 0.163650
0.380895 0.455967 0.165751
0.428033 0.458069 0.167853
0.475171 0.460171 0.169955
0.522308 0.462272 0.172057
0.569446 0.464374 0.174158
0.616584 0.466476 0.176260
0.663721 0.468578 0.178362
0.710859 0.470679 0.180464
0.757997 0.472781 0.182565
0.805134 0.474883 0.184667
0.852272 0.476985 0.186769
0.899410 0.479086 0.188871
0.152277 0.497565 0.162313
0.199415 0.499666 0.164415
0.246553 0.501768 0.166517
0.293690 0.503870 0.168618
0.340828 0.505972 0.170720
0.387966 0.508073 0.172822
0.435103 0.510175 0.174924
0.482241 0.512277 0.177025
0.529379 0.514379 0.179127
0.576516 0.516480 0.181229
0.623654 0.518582 0.183331
0.670792 0.520684 0.185432
0.717929 0.522786 0.187534
0.765067 0.524887 0.189636
0.812205 0.526989 0.191738
0.859342 0.529091 0.193839
0.906480 0.531193 0.195941
0.159348 0.549671 0.169384
0.206485 0.551773 0.171485
0.253623 0.553875 0.173587
0.300761 0.555976 0.175689
0.347898 0.558078 0.177791
0.395036 0.560180 0.179892
0.442174 0.562282 0.181994
0.489311 0.564383 0.184096
0.536449 0.566485 0.186198
0.583587 0.568587 0.188299
0.630724 0.570689 0.190401
0.677862 0.572790 0.192503
0.725000 0.574892 0.194605
0.772138 0.576994 0.196706
0.819275 0.579096 0.198808
0.866413 0.581197 0.200910
0.913551 0.583299 0.203012
0.166418 0.601777 0.176454
0.213556 0.603879 0.178556
0.260693 0.605981 0.180657
0.307831 0.608083 0.182759
0.354969 0.610184 0.184861
0.402106 0.612286 0.186963
0.449244 0.614388 0.189064
0.496382 0.616490 0.191166
0.543519 0.618591 0.193268
0.590657 0.620693 0.195370
0.637795 0.622795 0.197471
0.684933 0.624897 0.199573
0.732070 0.626998 0.201675
0.779208 0.629100 0.203777
0.826346 0.631202 0.205878
0.873483 0.633304 0.207980
0.920621 0.635405 0.210082
0.173488 0.653884 0.183524
0.220626 0.655985 0.185626
0.267764 0.658087 0.187728
0.314901 0.660189 0.189830
0.362039 0.662291 0.191931
0.409177 0.664392 0.194033
0.456315 0.666494 0.196135
0.503452 0.668596 0.198237
0.550590 0.670698 0.200338
0.597728 0.672799 0.202440
0.644865 0.674901 0.204542
0.692003 0.677003 0.206644
0.739141 0.679105 0.208745
0.786278 0.681206 0.210847
0.833416 0.683308 0.212949
0.880554 0.685410 0.215051
0.927691 0.687512 0.217152
0.180559 0.705990 0.190595
0.227697 0.708092 0.192697
0.274834 0.710194 0.194798
0.321972 0.712295 0.196900
0.369110 0.714397 0.199002
0.416247 0.716499 0.201104
0.463385 0.718601 0.203205
0.510523 0.720702 0.205307
0.557660 0.722804 0.207409
0.604798 0.724906 0.209511
0.651936 0.727008 0.211612
0.699073 0.729109 0.213714
0.746211 0.731211 0.215816
0.793349 0.733313 0.217918
0.840486 0.735415 0.220019
0.887624 0.737516 0.222121
0.934762 0.739618 0.224223
0.187629 0.758096 0.197665
0.234767 0.760198 0.199767
0.281905 0.762300 0.201869
0.329042 0.764402 0.203970
0.376180 0.766503 0.206072
0.423318 0.768605 0.208174
0.470455 0.770707 0.210276
0.517593 0.772809 0.212377
0.564731 0.774910 0.214479
0.611868 0.777012 0.216581
0.659006 0.779114 0.218683
0.706144 0.781216 0.220784
0.753282 0.783317 0.222886
0.800419 0.785419 0.224988
0.847557 0.787521 0.227090
0.894695 0.789623 0.229191
0.941832 0.791724 0.231293
0.194700 0.810203 0.204736
0.241837 0.812305 0.206837
0.288975 0.814406 0.208939
0.336113 0.816508 0.211041
0.383250 0.818610 0.213143
0.430388 0.820712 0.215244
0.477526 0.822813 0.217346
0.524663 0.824915 0.219448
0.571801 0.827017 0.221550
0.618939 0.829119 0.223651
0.666077 0.831220 0.225753
0.713214 0.833322 0.227855
0.760352 0.835424 0.229957
0.807490 0.837526 0.232058
0.854627 0.839627 0.234160
0.901765 0.841729 0.236262
0.948903 0.843831 0.238364
0.201770 0.862309 0.211806
0.248908 0.864411 0.213908
0.296045 0.866513 0.216010
0.343183 0.868614 0.218111
0.390321 0.870716 0.220213
0.437459 0.872818 0.222315
0.484596 0.874920 0.224417
0.531734 0.877021 0.226518
0.578872 0.879123 0.228620
0.626009 0.881225 0.230722
0.673147 0.883327 0.232824
0.720285 0.885428 0.234925
0.767422 0.887530 0.237027
0.814560 0.889632 0.239129
0.861698 0.891734 0.241231
0.908835 0.893835 0.243332
0.955973 0.895937 0.245434
0.208841 0.914416 0.218876
0.255978 0.916517 0.220978
0.303116 0.918619 0.223080
0.350254 0.920721 0.225182
0.397391 0.922823 0.227283
0.444529 0.924924 0.229385
0.491667 0.927026 0.231487
0.538804 0.929128 0.233589
0.585942 0.931230 0.235690
0.633080 0.933331 0.237792
0.680217 0.935433 0.239894
0.727355 0.937535 0.241996
0.774493 0.939637 0.244097
0.821630 0.941738 0.246199
0.868768 0.943840 0.248301
0.915906 0.945942 0.250403
0.963044 0.948044 0.252504
0.096428 0.081428 0.151499
0.143565 0.083529 0.153601
0.190703 0.085631 0.155703
0.237841 0.087733 0.157805
0.284978 0.089835 0.159906
0.332116 0.091936 0.162008
0.379254 0.094038 0.164110
0.426391 0.096140 0.166212
0.473529 0.098242 0.168313
0.520667 0.100343 0.170415
0.567804 0.102445 0.172517
0.614942 0.104547 0.174619
0.662080 0.106649 0.176720
0.709217 0.108750 0.178822
0.756355 0.110852 0.180924
0.803493 0.112954 0.183026
0.850631 0.115056 0.185127
0.103498 0.133534 0.158570
0.150636 0.135636 0.160672
0.197773 0.137737 0.162773
0.244911 0.139839 0.164875
0.292049 0.141941 0.166977
0.339186 0.144043 0.169079
0.386324 0.146144 0.171180
0.433462 0.148246 0.173282
0.480599 0.150348 0.175384
0.527737 0.152450 0.177486
0.574875 0.154551 0.179587
0.622013 0.156653 0.181689
0.669150 0.158755 0.183791
0.716288 0.160857 0.185893
0.763426 0.162958 0.187994
0.810563 0.165060 0.190096
0.857701 0.167162 0.192198
0.110568 0.185640 0.165640
0.157706 0.187742 0.167742
0.204844 0.189844 0.169844
0.251981 0.191946 0.171946
0.299119 0.194047 0.174047
0.346257 0.196149 0.176149
0.393395 0.198251 0.178251
0.440532 0.200353 0.180353
0.487670 0.202454 0.182454
0.534808 0.204556 0.184556
0.581945 0.206658 0.186658
0.629083 0.208760 0.188760
0.676221 0.210861 0.190861
0.723358 0.212963 0.192963
0.770496 0.215065 0.195065
0.817634 0.217167 0.197167
0.864771 0.219268 0.199268
0.117639 0.237747 0.172711
0.164776 0.239848 0.174812
0.211914 0.241950 0.176914
0.259052 0.244052 0.179016
0.306190 0.246154 0.181118
0.353327 0.248255 0.183219
0.400465 0.250357 0.185321
0.447603 0.252459 0.187423
0.494740 0.254561 0.189525
0.541878 0.256662 0.191626
0.589016 0.258764 0.193728
0.636153 0.260866 0.195830
0.683291 0.262968 0.197932
0.730429 0.265069 0.200033
0.777566 0.267171 0.202135
0.824704 0.269273 0.204237
0.871842 0.271375 0.206339
0.124709 0.289853 0.179781
0.171847 0.291955 0.181883
0.218985 0.294056 0.183985
0.266122 0.296158 0.186086
0.313260 0.298260 0.188188
0.360398 0.300362 0.190290
0.407535 0.302463 0.192392
0.454673 0.304565 0.194493
0.501811 0.306667 0.196595
0.548948 0.308769 0.198697
0.596086 0.310870 0.200799
0.643224 0.312972 0.202900
0.690361 0.315074 0.205002
0.737499 0.317176 0.207104
0.784637 0.319277 0.209206
0.831775 0.321379 0.211307
0.878912 0.323481 0.213409
0.131780 0.341959 0.186852
0.178917 0.344061 0.188953
0.226055 0.346163 0.191055
0.273193 0.348265 0.193157
0.320330 0.350366 0.195259
0.367468 0.352468 0.197360
0.414606 0.354570 0.199462
0.461743 0.356672 0.201564
0.508881 0.358773 0.203666
0.556019 0.360875 0.205767
0.603157 0.362977 0.207869
0.650294 0.365079 0.209971
0.697432 0.367180 0.212073
0.744570 0.369282 0.214174
0.791707 0.371384 0.216276
0.838845 0.373486 0.218378
0.885983 0.375587 0.220480
0.138850 0.394066 0.193922
0.185988 0.396167 0.196024
0.233125 0.398269 0.198125
0.280263 0.400371 0.200227
0.327401 0.402473 0.202329
0.374539 0.404574 0.204431
0.421676 0.406676 0.206532
0.468814 0.408778 0.208634
0.515952 0.410880 0.210736
0.563089 0.412981 0.212838
0.610227 0.415083 0.214939
0.657365 0.417185 0.217041
0.704502 0.419287 0.219143
0.751640 0.421388 0.221245
0.798778 0.423490 0.223346
0.845915 0.425592 0.225448
0.893053 0.427694 0.227550
0.145920 0.446172 0.200992
0.193058 0.448274 0.203094
0.240196 0.450376 0.205196
0.287334 0.452477 0.207298
0.334471 0.454579 0.209399
0.381609 0.456681 0.211501
0.428747 0.458783 0.213603
0.475884 0.460884 0.215705
0.523022 0.462986 0.217806
0.570160 0.465088 0.219908
0.617297 0.467190 0.222010
0.664435 0.469291 0.224112
0.711573 0.471393 0.226213
0.758710 0.473495 0.228315
0.805848 0.475597 0.230417
0.852986 0.477698 0.232519
0.900123 0.479800 0.234620
0.152991 0.498278 0.208063
0.200129 0.500380 0.210165
0.247266 0.502482 0.212266
0.294404 0.504584 0.214368
0.341542 0.506685 0.216470
0.388679 0.508787 0.218572
0.435817 0.510889 0.220673
0.482955 0.512991 0.222775
0.530092 0.515092 0.224877
0.577230 0.517194 0.226979
0.624368 0.519296 0.229080
0.671505 0.521398 0.231182
0.718643 0.523499 0.233284
0.765781 0.525601 0.235386
0.812919 0.527703 0.237487
0.860056 0.529805 0.239589
0.907194 0.531906 0.241691
0.160061 0.550385 0.215133
0.207199 0.552487 0.217235
0.254337 0.554588 0.219337
0.301474 0.556690 0.221438
0.348612 0.558792 0.223540
0.395750 0.560894 0.225642
0.442887 0.562995 0.227744
0.490025 0.565097 0.229845
0.537163 0.567199 0.231947
0.584301 0.569301 0.234049
0.631438 0.571402 0.236151
0.678576 0.573504 0.238252
0.725714 0.575606 0.240354
0.772851 0.577708 0.242456
0.819989 0.579809 0.244558
0.867127 0.581911 0.246659
0.914264 0.584013 0.248761
0.167132 0.602491 0.222204
0.214269 0.604593 0.224305
0.261407 0.606695 0.226407
0.308545 0.608796 0.228509
0.355683 0.610898 0.230611
0.402820 0.613000 0.232712
0.449958 0.615102 0.234814
0.497096 0.617203 0.236916
0.544233 0.619305 0.239018
0.591371 0.621407 0.241119
0.638509 0.623509 0.243221
0.685646 0.625610 0.245323
0.732784 0.627712 0.247425
0.779922 0.629814 0.249526
0.827059 0.631916 0.251628
0.874197 0.634017 0.253730
0.921335 0.636119 0.255832
0.174202 0.654597 0.229274
0.221340 0.656699 0.231376
0.268478 0.658801 0.233478
0.315615 0.660903 0.235579
0.362753 0.663004 0.237681
0.409891 0.665106 0.239783
0.457028 0.667208 0.241885
0.504166 0.669310 0.243986
0.551304 0.671411 0.246088
0.598441 0.673513 0.248190
0.645579 0.675615 0.250292
0.692717 0.677717 0.252393
0.739854 0.679818 0.254495
0.786992 0.681920 0.256597
0.834130 0.684022 0.258699
0.881267 0.686124 0.260800
0.928405 0.688225 0.262902
0.181273 0.706704 0.236344
0.228410 0.708806 0.238446
0.275548 0.710907 0.240548
0.322686 0.713009 0.242650
0.369823 0.715111 0.244751
0.416961 0.717213 0.246853
0.464099 0.719314 0.248955
0.511236 0.721416 0.251057
0.558374 0.723518 0.253158
0.605512 0.725620 0.255260
0.652649 0.727721 0.257362
0.699787 0.729823 0.259464
0.746925 0.731925 0.261565
0.794063 0.734027 0.263667
0.841200 0.736128 0.265769
0.888338 0.738230 0.267871
0.935476 0.740332 0.269972
0.188343 0.758810 0.243415
0.235481 0.760912 0.245517
0.282618 0.763014 0.247618
0.329756 0.765115 0.249720
0.376894 0.767217 0.251822
0.424031 0.769319 0.253924
0.471169 0.771421 0.256025
0.518307 0.773522 0.258127
0.565445 0.775624 0.260229
0.612582 0.777726 0.262331
0.659720 0.779828 0.264432
0.706858 0.781929 0.266534
0.753995 0.784031 0.268636
0.801133 0.786133 0.270738
0.848271 0.788235 0.272839
0.895408 0.790336 0.274941
0.942546 0.792438 0.277043
0.195413 0.810917 0.250485
0.242551 0.813018 0.252587
0.289689 0.815120 0.254689
0.336827 0.817222 0.256791
0.383964 0.819324 0.258892
0.431102 0.821425 0.260994
0.478240 0.823527 0.263096
0.525377 0.825629 0.265198
0.572515 0.827731 0.267299
0.619653 0.829832 0.269401
0.666790 0.831934 0.271503
0.713928 0.834036 0.273605
0.761066 0.836138 0.275706
0.808203 0.838239 0.277808
0.855341 0.840341 0.279910
0.902479 0.842443 0.282012
0.949616 0.844545 0.284113
0.202484 0.863023 0.257556
0.249622 0.865125 0.259657
0.296759 0.867226 0.261759
0.343897 0.869328 0.263861
0.391035 0.871430 0.265963
0.438172 0.873532 0.268064
0.485310 0.875633 0.270166
0.532448 0.877735 0.272268
0.579585 0.879837 0.274370
0.626723 0.881939 0.276471
0.673861 0.884040 0.278573
0.720998 0.886142 0.280675
0.768136 0.888244 0.282777
0.815274 0.890346 0.284878
0.862411 0.892447 0.286980
0.909549 0.894549 0.289082
0.956687 0.896651 0.291184
0.209554 0.915129 0.264626
0.256692 0.917231 0.266728
0.303830 0.919333 0.268830
0.350967 0.921435 0.270931
0.398105 0.923536 0.273033
0.445243 0.925638 0.275135
0.492380 0.927740 0.277237
0.539518 0.929842 0.279338
0.586656 0.931943 0.281440
0.633793 0.934045 0.283542
0.680931 0.936147 0.285644
0.728069 0.938249 0.287745
0.775207 0.940350 0.289847
0.822344 0.942452 0.291949
0.869482 0.944554 0.294051
0.916620 0.946656 0.296152
0.963757 0.948757 0.298254
0.097141 0.082141 0.197249
0.144279 0.084243 0.199351
0.191417 0.086345 0.201453
0.238554 0.088447 0.203554
0.285692 0.090548 0.205656
0.332830 0.092650 0.207758
0.379967 0.094752 0.209860
0.427105 0.096854 0.211961
0.474243 0.098955 0.214063
0.521380 0.101057 0.216165
0.568518 0.103159 0.218267
0.615656 0.105261 0.220368
0.662794 0.107362 0.222470
0.709931 0.109464 0.224572
0.757069 0.111566 0.226674
0.804207 0.113668 0.228775
0.851344 0.115769 0.230877
0.104212 0.134248 0.204320
