library/luts/vintage_fade.cube
# CrabbyCut preset LUT — sinh bởi scripts/generate_preset_luts.js
TITLE "Hoài cổ (fade)"
LUT_3D_SIZE 9
0.095000 0.080000 0.060000
0.189275 0.084204 0.064204
0.283551 0.088407 0.068407
0.377826 0.092611 0.072611
0.472102 0.096814 0.076814
0.566377 0.101018 0.081018
0.660652 0.105221 0.085221
0.754928 0.109425 0.089425
0.849203 0.113628 0.093628
0.109141 0.184213 0.074141
0.203416 0.188416 0.078344
0.297692 0.192620 0.082548
0.391967 0.196823 0.086751
0.486242 0.201027 0.090955
0.580518 0.205230 0.095158
0.674793 0.209434 0.099362
0.769068 0.213637 0.103565
0.863344 0.217841 0.107769
0.123282 0.288425 0.088282
0.217557 0.292629 0.092485
0.311832 0.296832 0.096689
0.406108 0.301036 0.100892
0.500383 0.305239 0.105096
0.594659 0.309443 0.109299
0.688934 0.313646 0.113503
0.783209 0.317850 0.117706
0.877485 0.322053 0.121910
0.137423 0.392638 0.102423
0.231698 0.396842 0.106626
0.325973 0.401045 0.110830
0.420249 0.405249 0.115033
0.514524 0.409452 0.119237
0.608799 0.413656 0.123440
0.703075 0.417859 0.127644
0.797350 0.422063 0.131847
0.891626 0.426266 0.136051
0.151563 0.496851 0.116563
0.245839 0.501054 0.120767
0.340114 0.505258 0.124970
0.434390 0.509461 0.129174
0.528665 0.513665 0.133377
0.622940 0.517868 0.137581
0.717216 0.522072 0.141784
0.811491 0.526275 0.145988
0.905766 0.530479 0.150191
0.165704 0.601064 0.130704
0.259980 0.605267 0.134908
0.354255 0.609471 0.139111
0.448530 0.613674 0.143315
0.542806 0.617878 0.147518
0.637081 0.622081 0.151722
0.731356 0.626285 0.155925
0.825632 0.630488 0.160129
0.919907 0.634692 0.164332
0.179845 0.705276 0.144845
0.274120 0.709480 0.149049
0.368396 0.713683 0.153252
0.462671 0.717887 0.157456
0.556947 0.722090 0.161659
0.651222 0.726294 0.165863
0.745497 0.730497 0.170066
0.839773 0.734701 0.174270
0.934048 0.738904 0.178473
0.193986 0.809489 0.158986
0.288261 0.813693 0.163189
0.382537 0.817896 0.167393
0.476812 0.822100 0.171596
0.571087 0.826303 0.175800
0.665363 0.830507 0.180003
0.759638 0.834710 0.184207
0.853914 0.838914 0.188410
0.948189 0.843117 0.192614
0.208127 0.913702 0.173127
0.302402 0.917905 0.177330
0.396678 0.922109 0.181534
0.490953 0.926312 0.185737
0.585228 0.930516 0.189941
0.679504 0.934719 0.194144
0.773779 0.938923 0.198348
0.868054 0.943126 0.202551
0.962330 0.947330 0.206755
0.096428 0.081428 0.151499
0.190703 0.085631 0.155703
0.284978 0.089835 0.159906
0.379254 0.094038 0.164110
0.473529 0.098242 0.168313
0.567804 0.102445 0.172517
0.662080 0.106649 0.176720
0.756355 0.110852 0.180924
0.850631 0.115056 0.185127
0.110568 0.185640 0.165640
0.204844 0.189844 0.169844
0.299119 0.194047 0.174047
0.393395 0.198251 0.178251
0.487670 0.202454 0.182454
0.581945 0.206658 0.186658
0.676221 0.210861 0.190861
0.770496 0.215065 0.195065
0.864771 0.219268 0.199268
0.124709 0.289853 0.179781
0.218985 0.294056 0.183985
0.313260 0.298260 0.188188
0.407535 0.302463 0.192392
0.501811 0.306667 0.196595
0.596086 0.310870 0.200799
0.690361 0.315074 0.205002
0.784637 0.319277 0.209206
0.878912 0.323481 0.213409
0.138850 0.394066 0.193922
0.233125 0.398269 0.198125
0.327401 0.402473 0.202329
0.421676 0.406676 0.206532
0.515952 0.410880 0.210736
0.610227 0.415083 0.214939
0.704502 0.419287 0.219143
0.798778 0.423490 0.223346
0.893053 0.427694 0.227550
0.152991 0.498278 0.208063
0.247266 0.502482 0.212266
0.341542 0.506685 0.216470
0.435817 0.510889 0.220673
0.530092 0.515092 0.224877
0.624368 0.519296 0.229080
0.718643 0.523499 0.233284
0.812919 0.527703 0.237487
0.907194 0.531906 0.241691
0.167132 0.602491 0.222204
0.261407 0.606695 0.226407
0.355683 0.610898 0.230611
0.449958 0.615102 0.234814
0.544233 0.619305 0.239018
0.638509 0.623509 0.243221
0.732784 0.627712 0.247425
0.827059 0.631916 0.251628
0.921335 0.636119 0.255832
0.181273 0.706704 0.236344
0.275548 0.710907 0.240548
0.369823 0.715111 0.244751
0.464099 0.719314 0.248955
0.558374 0.723518 0.253158
0.652649 0.727721 0.257362
0.746925 0.731925 0.261565
0.841200 0.736128 0.265769
0.935476 0.740332 0.269972
0.195413 0.810917 0.250485
0.289689 0.815120 0.254689
0.383964 0.819324 0.258892
0.478240 0.823527 0.263096
0.572515 0.827731 0.267299
0.666790 0.831934 0.271503
0.761066 0.836138 0.275706
0.855341 0.840341 0.279910
0.949616 0.844545 0.284113
0.209554 0.915129 0.264626
0.303830 0.919333 0.268830
0.398105 0.923536 0.273033
0.492380 0.927740 0.277237
0.586656 0.931943 0.281440
0.680931 0.936147 0.285644
0.775207 0.940350 0.289847
0.869482 0.944554 0.294051
0.963757 0.948757 0.298254
0.097855 0.082855 0.242999
0.192130 0.087059 0.247202
0.286406 0.091262 0.251406
0.380681 0.095466 0.255609
0.474957 0.099669 0.259813
0.569232 0.103873 0.264016
0.663507 0.108076 0.268220
0.757783 0.112280 0.272423
0.852058 0.116483 0.276627
0.111996 0.187068 0.257140
0.206271 0.191271 0.261343
0.300547 0.195475 0.265547
0.394822 0.199678 0.269750
0.489097 0.203882 0.273954
0.583373 0.208085 0.278157
0.677648 0.212289 0.282361
0.771924 0.216492 0.286564
0.866199 0.220696 0.290768
0.126137 0.291280 0.271280
0.220412 0.295484 0.275484
0.314688 0.299687 0.279687
0.408963 0.303891 0.283891
0.503238 0.308095 0.288095
0.597514 0.312298 0.292298
0.691789 0.316502 0.296502
0.786064 0.320705 0.300705
0.880340 0.324909 0.304909
0.140278 0.395493 0.285421
0.234553 0.399697 0.289625
0.328828 0.403900 0.293828
0.423104 0.408104 0.298032
0.517379 0.412307 0.302235
0.611654 0.416511 0.306439
0.705930 0.420714 0.310642
0.800205 0.424918 0.314846
0.894481 0.429121 0.319049
0.154418 0.499706 0.299562
0.248694 0.503909 0.303766
0.342969 0.508113 0.307969
0.437245 0.512316 0.312173
0.531520 0.516520 0.316376
0.625795 0.520723 0.320580
0.720071 0.524927 0.324783
0.814346 0.529130 0.328987
0.908621 0.533334 0.333190
0.168559 0.603919 0.313703
0.262835 0.608122 0.317907
0.357110 0.612326 0.322110
0.451385 0.616529 0.326314
0.545661 0.620733 0.330517
0.639936 0.624936 0.334721
0.734212 0.629140 0.338924
0.828487 0.633343 0.343128
0.922762 0.637547 0.347331
0.182700 0.708131 0.327844
0.276976 0.712335 0.332047
0.371251 0.716538 0.336251
0.465526 0.720742 0.340454
0.559802 0.724945 0.344658
0.654077 0.729149 0.348861
0.748352 0.733352 0.353065
0.842628 0.737556 0.357268
0.936903 0.741759 0.361472
0.196841 0.812344 0.341985
0.291116 0.816548 0.346188
0.385392 0.820751 0.350392
0.479667 0.824955 0.354595
0.573942 0.829158 0.358799
0.668218 0.833362 0.363002
0.762493 0.837565 0.367206
0.856769 0.841769 0.371409
0.951044 0.845972 0.375613
0.210982 0.916557 0.356126
0.305257 0.920760 0.360329
0.399533 0.924964 0.364533
0.493808 0.929167 0.368736
0.588083 0.933371 0.372940
0.682359 0.937574 0.377143
0.776634 0.941778 0.381347
0.870909 0.945981 0.385550
0.965185 0.950185 0.389754
0.099283 0.084283 0.334498
0.193558 0.088486 0.338702
0.287833 0.092690 0.342905
0.382109 0.096893 0.347109
0.476384 0.101097 0.351312
0.570659 0.105300 0.355516
0.664935 0.109504 0.359719
0.759210 0.113707 0.363923
0.853486 0.117911 0.368126
0.113423 0.188495 0.348639
0.207699 0.192699 0.352843
0.301974 0.196902 0.357046
0.396250 0.201106 0.361250
0.490525 0.205309 0.365453
0.584800 0.209513 0.369657
0.679076 0.213716 0.373860
0.773351 0.217920 0.378064
0.867626 0.222123 0.382267
0.127564 0.292708 0.362780
0.221840 0.296912 0.366983
0.316115 0.301115 0.371187
0.410390 0.305319 0.375390
0.504666 0.309522 0.379594
0.598941 0.313726 0.383797
0.693217 0.317929 0.388001
0.787492 0.322133 0.392204
0.881767 0.326336 0.396408
0.141705 0.396921 0.376921
0.235980 0.401124 0.381124
0.330256 0.405328 0.385328
0.424531 0.409531 0.389531
0.518807 0.413735 0.393735
0.613082 0.417938 0.397938
0.707357 0.422142 0.402142
0.801633 0.426345 0.406345
0.895908 0.430549 0.410549
0.155846 0.501133 0.391062
0.250121 0.505337 0.395265
0.344397 0.509540 0.399469
0.438672 0.513744 0.403672
0.532947 0.517947 0.407876
0.627223 0.522151 0.412079
0.721498 0.526354 0.416283
0.815774 0.530558 0.420486
0.910049 0.534761 0.424690
0.169987 0.605346 0.405202
0.264262 0.609550 0.409406
0.358538 0.613753 0.413609
0.452813 0.617957 0.417813
0.547088 0.622160 0.422016
0.641364 0.626364 0.426220
0.735639 0.630567 0.430423
0.829914 0.634771 0.434627
0.924190 0.638974 0.438830
0.184128 0.709559 0.419343
0.278403 0.713762 0.423547
0.372678 0.717966 0.427750
0.466954 0.722169 0.431954
0.561229 0.726373 0.436157
0.655505 0.730576 0.440361
0.749780 0.734780 0.444564
0.844055 0.738983 0.448768
0.938331 0.743187 0.452971
0.198269 0.813772 0.433484
0.292544 0.817975 0.437688
0.386819 0.822179 0.441891
0.481095 0.826382 0.446095
0.575370 0.830586 0.450298
0.669645 0.834789 0.454502
0.763921 0.838993 0.458705
0.858196 0.843196 0.462909
0.952472 0.847400 0.467112
0.212409 0.917984 0.447625
0.306685 0.922188 0.451828
0.400960 0.926391 0.456032
0.495235 0.930595 0.460235
0.589511 0.934798 0.464439
0.683786 0.939002 0.468642
0.778062 0.943205 0.472846
0.872337 0.947409 0.477049
0.966612 0.951612 0.481253
0.100710 0.085710 0.425998
0.194985 0.089914 0.430201
0.289261 0.094117 0.434405
0.383536 0.098321 0.438608
0.477812 0.102524 0.442812
0.572087 0.106728 0.447015
0.666362 0.110931 0.451219
0.760638 0.115135 0.455422
0.854913 0.119338 0.459626
0.114851 0.189923 0.440138
0.209126 0.194126 0.444342
0.303402 0.198330 0.448545
0.397677 0.202533 0.452749
0.491952 0.206737 0.456952
0.586228 0.210940 0.461156
0.680503 0.215144 0.465359
0.774779 0.219347 0.469563
0.869054 0.223551 0.473766
0.128992 0.294136 0.454279
0.223267 0.298339 0.458483
0.317543 0.302543 0.462686
0.411818 0.306746 0.466890
0.506093 0.310950 0.471093
0.600369 0.315153 0.475297
0.694644 0.319357 0.479500
0.788919 0.323560 0.483704
0.883195 0.327764 0.487907
0.143133 0.398348 0.468420
0.237408 0.402552 0.472624
0.331683 0.406755 0.476827
0.425959 0.410959 0.481031
0.520234 0.415162 0.485234
0.614510 0.419366 0.489438
0.708785 0.423569 0.493641
0.803060 0.427773 0.497845
0.897336 0.431976 0.502048
0.157273 0.502561 0.482561
0.251549 0.506764 0.486764
0.345824 0.510968 0.490968
0.440100 0.515171 0.495171
0.534375 0.519375 0.499375
0.628650 0.523579 0.503579
0.722926 0.527782 0.507782
0.817201 0.531986 0.511986
0.911477 0.536189 0.516189
0.171414 0.606774 0.496702
0.265690 0.610977 0.500905
0.359965 0.615181 0.505109
0.454240 0.619384 0.509312
0.548516 0.623588 0.513516
0.642791 0.627791 0.517719
0.737067 0.631995 0.521923
0.831342 0.636198 0.526126
0.925617 0.640402 0.530330
0.185555 0.710986 0.510843
0.279831 0.715190 0.515046
0.374106 0.719393 0.519250
0.468381 0.723597 0.523453
0.562657 0.727800 0.527657
0.656932 0.732004 0.531860
0.751207 0.736207 0.536064
0.845483 0.740411 0.540267
0.939758 0.744614 0.544471
0.199696 0.815199 0.524984
0.293971 0.819403 0.529187
0.388247 0.823606 0.533391
0.482522 0.827810 0.537594
0.576798 0.832013 0.541798
0.671073 0.836217 0.546001
0.765348 0.840420 0.550205
0.859624 0.844624 0.554408
0.953899 0.848827 0.558612
0.213837 0.919412 0.539124
0.308112 0.923615 0.543328
0.402388 0.927819 0.547531
0.496663 0.932022 0.551735
0.590938 0.936226 0.555938
0.685214 0.940429 0.560142
0.779489 0.944633 0.564345
0.873765 0.948836 0.568549
0.968040 0.953040 0.572752
0.102138 0.087138 0.517497
0.196413 0.091341 0.521701
0.290688 0.095545 0.525904
0.384964 0.099748 0.530108
0.479239 0.103952 0.534311
0.573515 0.108155 0.538515
0.667790 0.112359 0.542718
0.762065 0.116562 0.546922
0.856341 0.120766 0.551125
0.116278 0.191350 0.531638
0.210554 0.195554 0.535841
0.304829 0.199757 0.540045
0.399105 0.203961 0.544248
0.493380 0.208164 0.548452
0.587655 0.212368 0.552655
0.681931 0.216571 0.556859
0.776206 0.220775 0.561062
0.870481 0.224978 0.565266
0.130419 0.295563 0.545779
0.224695 0.299767 0.549982
0.318970 0.303970 0.554186
0.413245 0.308174 0.558389
0.507521 0.312377 0.562593
0.601796 0.316581 0.566796
0.696072 0.320784 0.571000
0.790347 0.324988 0.575203
0.884622 0.329191 0.579407
0.144560 0.399776 0.559920
0.238836 0.403979 0.564123
0.333111 0.408183 0.568327
0.427386 0.412386 0.572530
0.521662 0.416590 0.576734
0.615937 0.420793 0.580937
0.710212 0.424997 0.585141
0.804488 0.429200 0.589344
0.898763 0.433404 0.593548
0.158701 0.503989 0.574060
0.252976 0.508192 0.578264
0.347252 0.512396 0.582467
0.441527 0.516599 0.586671
0.535803 0.520803 0.590874
0.630078 0.525006 0.595078
0.724353 0.529210 0.599281
0.818629 0.533413 0.603485
0.912904 0.537617 0.607688
0.172842 0.608201 0.588201
0.267117 0.612405 0.592405
0.361393 0.616608 0.596608
0.455668 0.620812 0.600812
0.549943 0.625015 0.605015
0.644219 0.629219 0.609219
0.738494 0.633422 0.613422
0.832770 0.637626 0.617626
0.927045 0.641829 0.621829
0.186983 0.712414 0.602342
0.281258 0.716617 0.606546
0.375533 0.720821 0.610749
0.469809 0.725024 0.614953
0.564084 0.729228 0.619156
0.658360 0.733431 0.623360
0.752635 0.737635 0.627563
0.846910 0.741838 0.631767
0.941186 0.746042 0.635970
0.201124 0.816627 0.616483
0.295399 0.820830 0.620686
0.389674 0.825034 0.624890
0.483950 0.829237 0.629093
0.578225 0.833441 0.633297
0.672500 0.837644 0.637500
0.766776 0.841848 0.641704
0.861051 0.846051 0.645907
0.955327 0.850255 0.650111
0.215264 0.920839 0.630624
0.309540 0.925043 0.634827
0.403815 0.929246 0.639031
0.498091 0.933450 0.643234
0.592366 0.937653 0.647438
0.686641 0.941857 0.651641
0.780917 0.946060 0.655845
0.875192 0.950264 0.660048
0.969467 0.954467 0.664252
0.103565 0.088565 0.608996
0.197841 0.092769 0.613200
0.292116 0.096972 0.617403
0.386391 0.101176 0.621607
0.480667 0.105379 0.625810
0.574942 0.109583 0.630014
0.669217 0.113786 0.634217
0.763493 0.117990 0.638421
0.857768 0.122193 0.642624
0.117706 0.192778 0.623137
0.211981 0.196981 0.627341
0.306257 0.201185 0.631544
0.400532 0.205388 0.635748
0.494808 0.209592 0.639951
0.589083 0.213795 0.644155
0.683358 0.217999 0.648358
0.777634 0.222202 0.652562
0.871909 0.226406 0.656765
0.131847 0.296991 0.637278
0.226122 0.301194 0.641482
0.320398 0.305398 0.645685
0.414673 0.309601 0.649889
0.508948 0.313805 0.654092
0.603224 0.318008 0.658296
0.697499 0.322212 0.662499
0.791774 0.326415 0.666703
0.886050 0.330619 0.670906
0.145988 0.401203 0.651419
0.240263 0.405407 0.655622
0.334538 0.409610 0.659826
0.428814 0.413814 0.664029
0.523089 0.418017 0.668233
0.617365 0.422221 0.672436
0.711640 0.426424 0.676640
0.805915 0.430628 0.680843
0.900191 0.434831 0.685047
0.160129 0.505416 0.665560
0.254404 0.509620 0.669763
0.348679 0.513823 0.673967
0.442955 0.518027 0.678170
0.537230 0.522230 0.682374
0.631505 0.526434 0.686577
0.725781 0.530637 0.690781
0.820056 0.534841 0.694984
0.914332 0.539044 0.699188
0.174269 0.609629 0.679701
0.268545 0.613832 0.683904
0.362820 0.618036 0.688108
0.457096 0.622239 0.692311
0.551371 0.626443 0.696515
0.645646 0.630646 0.700718
0.739922 0.634850 0.704922
0.834197 0.639053 0.709125
0.928472 0.643257 0.713329
0.188410 0.713841 0.693841
0.282686 0.718045 0.698045
0.376961 0.722248 0.702248
0.471236 0.726452 0.706452
0.565512 0.730655 0.710655
0.659787 0.734859 0.714859
0.754063 0.739063 0.719063
0.848338 0.743266 0.723266
0.942613 0.747470 0.727470
0.202551 0.818054 0.707982
0.296826 0.822258 0.712186
0.391102 0.826461 0.716389
0.485377 0.830665 0.720593
0.579653 0.834868 0.724796
0.673928 0.839072 0.729000
0.768203 0.843275 0.733203
0.862479 0.847479 0.737407
0.956754 0.851682 0.741610
0.216692 0.922267 0.722123
0.310967 0.926470 0.726327
0.405243 0.930674 0.730530
0.499518 0.934877 0.734734
0.593793 0.939081 0.738937
0.688069 0.943284 0.743141
0.782344 0.947488 0.747344
0.876620 0.951691 0.751548
0.970895 0.955895 0.755751
0.104993 0.089993 0.700496
0.199268 0.094196 0.704699
0.293543 0.098400 0.708903
0.387819 0.102603 0.713106
0.482094 0.106807 0.717310
0.576370 0.111010 0.721513
0.670645 0.115214 0.725717
0.764920 0.119417 0.729920
0.859196 0.123621 0.734124
0.119134 0.194205 0.714637
0.213409 0.198409 0.718840
0.307684 0.202612 0.723044
0.401960 0.206816 0.727247
0.496235 0.211019 0.731451
0.590510 0.215223 0.735654
0.684786 0.219426 0.739858
0.779061 0.223630 0.744061
0.873337 0.227833 0.748265
0.133274 0.298418 0.728778
0.227550 0.302622 0.732981
0.321825 0.306825 0.737185
0.416101 0.311029 0.741388
0.510376 0.315232 0.745592
0.604651 0.319436 0.749795
0.698927 0.323639 0.753999
0.793202 0.327843 0.758202
0.887477 0.332046 0.762406
0.147415 0.402631 0.742918
0.241691 0.406834 0.747122
0.335966 0.411038 0.751325
0.430241 0.415241 0.755529
0.524517 0.419445 0.759732
0.618792 0.423648 0.763936
0.713067 0.427852 0.768139
0.807343 0.432055 0.772343
0.901618 0.436259 0.776546
0.161556 0.506844 0.757059
0.255831 0.511047 0.761263
0.350107 0.515251 0.765466
0.444382 0.519454 0.769670
0.538658 0.523658 0.773873
0.632933 0.527861 0.778077
0.727208 0.532065 0.782280
0.821484 0.536268 0.786484
0.915759 0.540472 0.790687
0.175697 0.611056 0.771200
0.269972 0.615260 0.775404
0.364248 0.619463 0.779607
0.458523 0.623667 0.783811
0.552798 0.627870 0.788014
0.647074 0.632074 0.792218
0.741349 0.636277 0.796421
0.835625 0.640481 0.800625
0.929900 0.644684 0.804828
0.189838 0.715269 0.785341
0.284113 0.719473 0.789544
0.378389 0.723676 0.793748
0.472664 0.727880 0.797951
0.566939 0.732083 0.802155
0.661215 0.736287 0.806358
0.755490 0.740490 0.810562
0.849765 0.744694 0.814765
0.944041 0.748897 0.818969
0.203979 0.819482 0.799482
0.298254 0.823685 0.803685
0.392529 0.827889 0.807889
0.486805 0.832092 0.812092
0.581080 0.836296 0.816296
0.675355 0.840499 0.820499
0.769631 0.844703 0.824703
0.863906 0.848906 0.828906
0.958182 0.853110 0.833110
0.218119 0.923694 0.813623
0.312395 0.927898 0.817826
0.406670 0.932101 0.822030
0.500946 0.936305 0.826233
0.595221 0.940508 0.830437
0.689496 0.944712 0.834640
0.783772 0.948915 0.838844
0.878047 0.953119 0.843047
0.972322 0.957322 0.847251
0.106420 0.091420 0.791995
0.200696 0.095624 0.796199
0.294971 0.099827 0.800402
0.389246 0.104031 0.804606
0.483522 0.108234 0.808809
0.577797 0.112438 0.813013
0.672072 0.116641 0.817216
0.766348 0.120845 0.821420
0.860623 0.125048 0.825623
0.120561 0.195633 0.806136
0.214836 0.199836 0.810340
0.309112 0.204040 0.814543
0.403387 0.208243 0.818747
0.497663 0.212447 0.822950
0.591938 0.216650 0.827154
0.686213 0.220854 0.831357
0.780489 0.225057 0.835561
0.874764 0.229261 0.839764
0.134702 0.299846 0.820277
0.228977 0.304049 0.824480
0.323253 0.308253 0.828684
0.417528 0.312456 0.832887
0.511803 0.316660 0.837091
0.606079 0.320863 0.841294
0.700354 0.325067 0.845498
0.794630 0.329270 0.849701
0.888905 0.333474 0.853905
0.148843 0.404058 0.834418
0.243118 0.408262 0.838621
0.337394 0.412465 0.842825
0.431669 0.416669 0.847028
0.525944 0.420872 0.851232
0.620220 0.425076 0.855435
0.714495 0.429279 0.859639
0.808770 0.433483 0.863842
0.903046 0.437686 0.868046
0.162984 0.508271 0.848559
0.257259 0.512475 0.852762
0.351534 0.516678 0.856966
0.445810 0.520882 0.861169
0.540085 0.525085 0.865373
0.634360 0.529289 0.869576
0.728636 0.533492 0.873780
0.822911 0.537696 0.877983
0.917187 0.541899 0.882187
0.177124 0.612484 0.862699
0.271400 0.616687 0.866903
0.365675 0.620891 0.871106
0.459951 0.625094 0.875310
0.554226 0.629298 0.879513
0.648501 0.633501 0.883717
0.742777 0.637705 0.887920
0.837052 0.641908 0.892124
0.931327 0.646112 0.896327
0.191265 0.716697 0.876840
0.285541 0.720900 0.881044
0.379816 0.725104 0.885247
0.474091 0.729307 0.889451
0.568367 0.733511 0.893654
0.662642 0.737714 0.897858
0.756918 0.741918 0.902061
0.851193 0.746121 0.906265
0.945468 0.750325 0.910468
0.205406 0.820909 0.890981
0.299682 0.825113 0.895185
0.393957 0.829316 0.899388
0.488232 0.833520 0.903592
0.582508 0.837723 0.907795
0.676783 0.841927 0.911999
0.771058 0.846130 0.916202
0.865334 0.850334 0.920406
0.959609 0.854537 0.924609
0.219547 0.925122 0.905122
0.313822 0.929325 0.909325
0.408098 0.933529 0.913529
0.502373 0.937732 0.917732
0.596648 0.941936 0.921936
0.690924 0.946139 0.926139
0.785199 0.950343 0.930343
0.879475 0.954546 0.934546
0.973750 0.958750 0.938750
