library/luts/vivid_pop.cube
# CrabbyCut preset LUT — sinh bởi scripts/generate_preset_luts.js
TITLE "Rực rỡ"
LUT_3D_SIZE 9
0.000000 0.000000 0.000000
0.171522 0.000000 0.000000
0.338355 0.000000 0.000000
0.495123 0.000000 0.000000
0.635508 0.000000 0.000000
0.756345 0.000000 0.000000
0.856753 0.000000 0.000000
0.937407 0.000000 0.000000
1.000000 0.000000 0.000000
0.000000 0.143335 0.000000
0.131670 0.131670 0.000000
0.300437 0.122525 0.000000
0.462738 0.116801 0.000000
0.610260 0.113983 0.000000
0.738575 0.113797 0.000000
0.845981 0.116085 0.000000
0.932649 0.120750 0.000000
1.000000 0.127745 0.000000
0.000000 0.288454 0.000000
0.102725 0.277375 0.000000
0.267706 0.267706 0.000000
0.434375 0.258920 0.000000
0.587964 0.253515 0.000000
0.722816 0.251165 0.000000
0.836421 0.251665 0.000000
0.928439 0.254878 0.000000
1.000000 0.260714 0.000000
0.000000 0.433408 0.000000
0.085459 0.423829 0.000000
0.241212 0.415433 0.000000
0.407439 0.407439 0.000000
0.566615 0.399483 0.000000
0.707661 0.394820 0.000000
0.827219 0.393224 0.000000
0.924397 0.394540 0.000000
1.000000 0.398649 0.000000
0.000000 0.572661 0.000000
0.077686 0.565069 0.000000
0.226070 0.558397 0.000000
0.385027 0.552030 0.000000
0.545853 0.545853 0.000000
0.692857 0.539023 0.000000
0.818218 0.535327 0.000000
0.920451 0.534604 0.000000
1.000000 0.536730 0.000000
0.000000 0.701826 0.000000
0.078312 0.696400 0.000000
0.221008 0.691625 0.000000
0.373602 0.687063 0.000000
0.528393 0.682631 0.000000
0.678291 0.678291 0.000000
0.809349 0.672746 0.000000
0.916571 0.670102 0.000000
1.000000 0.670244 0.000000
0.000000 0.817591 0.000000
0.086855 0.814273 0.000000
0.225296 0.811352 0.000000
0.372376 0.808560 0.000000
0.521379 0.805846 0.000000
0.666049 0.803188 0.000000
0.800573 0.800573 0.000000
0.912737 0.796354 0.000000
1.000000 0.794736 0.000000
0.000000 0.917541 0.000000
0.103256 0.916083 0.000000
0.238570 0.914800 0.000000
0.380833 0.913574 0.000000
0.524296 0.912383 0.000000
0.663492 0.911217 0.000000
0.793311 0.910071 0.000000
0.908939 0.908939 0.000000
1.000000 0.905992 0.000000
0.000000 1.000000 0.000000
0.127745 1.000000 0.000000
0.260714 1.000000 0.000000
0.398649 1.000000 0.000000
0.536730 1.000000 0.000000
0.670244 1.000000 0.000000
0.794736 1.000000 0.000000
0.905992 1.000000 0.000000
1.000000 1.000000 0.000000
0.000000 0.000000 0.179541
0.167422 0.000000 0.167422
0.334500 0.000000 0.152286
0.491852 0.000000 0.141066
0.632967 0.000000 0.133080
0.754561 0.000000 0.127956
0.855671 0.000000 0.125454
0.936929 0.000000 0.125418
1.000000 0.000000 0.127745
0.000000 0.139356 0.139356
0.127745 0.127745 0.127745
0.304305 0.117470 0.117470
0.475111 0.110674 0.110674
0.630411 0.106808 0.106808
0.764911 0.105581 0.105581
0.876438 0.106816 0.106816
0.964970 0.110408 0.110408
1.000000 0.116298 0.116298
0.000000 0.284684 0.108969
0.093728 0.276363 0.093728
0.264668 0.264668 0.083927
0.439459 0.254628 0.082192
0.601031 0.248011 0.083086
0.742627 0.244474 0.086421
0.861088 0.243798 0.092098
0.955740 0.245837 0.100077
1.000000 0.250495 0.110353
0.000000 0.430154 0.090467
0.071888 0.426207 0.071888
0.232482 0.415659 0.063799
0.405621 0.405621 0.056194
0.572836 0.396362 0.061273
0.721092 0.390428 0.068671
0.846193 0.387584 0.078364
0.946775 0.387665 0.090368
1.000000 0.390552 0.104729
0.000000 0.570084 0.081602
0.059727 0.570792 0.059727
0.211952 0.561970 0.053114
0.377263 0.553550 0.046886
0.545377 0.545377 0.040921
0.699967 0.537258 0.051969
0.831522 0.532295 0.065336
0.937932 0.530324 0.081090
1.000000 0.531221 0.099318
0.000000 0.699985 0.081225
0.055908 0.705029 0.055908
0.201629 0.698205 0.050607
0.360071 0.691679 0.045604
0.522008 0.685332 0.040801
0.679113 0.679113 0.036153
0.816975 0.672343 0.052889
0.929151 0.668489 0.072155
1.000000 0.667438 0.094070
0.000000 0.816465 0.088809
0.059751 0.825062 0.059751
0.200639 0.820268 0.055666
0.353175 0.815677 0.051800
0.509186 0.811207 0.048080
0.661240 0.806822 0.044470
0.802500 0.802500 0.040951
0.920399 0.797168 0.063513
1.000000 0.794443 0.088958
0.000000 0.917046 0.104249
0.071045 0.928041 0.071045
0.208499 0.925116 0.068139
0.355991 0.922315 0.065383
0.506386 0.919586 0.062723
0.653114 0.916908 0.060136
0.790098 0.914267 0.057608
0.911655 0.911655 0.055130
1.000000 0.907744 0.083962
0.000000 1.000000 0.127745
0.089922 1.000000 0.089922
0.225015 1.000000 0.088215
0.368144 1.000000 0.086592
0.513189 1.000000 0.085022
0.654401 1.000000 0.083491
0.786427 1.000000 0.081992
0.904238 1.000000 0.080519
1.000000 1.000000 0.079068
0.000000 0.000000 0.352477
0.158106 0.000000 0.341084
0.331121 0.000000 0.331121
0.488981 0.000000 0.310773
0.630735 0.000000 0.294361
0.752992 0.000000 0.281417
0.854721 0.000000 0.271632
0.936508 0.000000 0.264787
1.000000 0.000000 0.260714
0.000000 0.134602 0.314343
0.124241 0.124241 0.312179
0.300267 0.114012 0.300267
0.471507 0.107745 0.284827
0.627455 0.104376 0.273081
0.762677 0.103622 0.264615
0.874901 0.105316 0.259161
0.964047 0.109358 0.256531
1.000000 0.115696 0.256590
0.000000 0.281381 0.281381
0.090383 0.272382 0.272382
0.260714 0.260714 0.260714
0.442550 0.249587 0.249587
0.611109 0.241920 0.241920
0.758549 0.237352 0.237352
0.881043 0.235654 0.235654
0.977563 0.236673 0.236673
1.000000 0.240303 0.240303
0.000000 0.427298 0.252287
0.069128 0.422623 0.238937
0.223604 0.414488 0.223604
0.402660 0.402660 0.212757
0.576921 0.392261 0.210368
0.731505 0.385215 0.210869
0.861377 0.381279 0.214092
0.964674 0.380282 0.219930
1.000000 0.382097 0.228318
0.000000 0.567820 0.234748
0.057472 0.567797 0.217256
0.198450 0.563732 0.198450
0.369106 0.553507 0.189307
0.543583 0.543583 0.180513
0.704873 0.534330 0.185712
0.841871 0.528254 0.193525
0.951823 0.525188 0.203895
1.000000 0.525003 0.216797
0.000000 0.698367 0.227433
0.054102 0.702714 0.205869
0.183651 0.702648 0.183651
0.346895 0.694401 0.176062
0.515021 0.686374 0.168756
0.678502 0.678502 0.161667
0.822415 0.670654 0.173774
0.938938 0.665735 0.188426
1.000000 0.663633 0.205634
0.000000 0.815476 0.229559
0.058361 0.823436 0.203876
0.178190 0.826828 0.178190
0.335082 0.820674 0.172043
0.497100 0.814673 0.166117
0.655669 0.808777 0.160360
0.802958 0.802958 0.154740
0.925985 0.796643 0.173442
1.000000 0.792943 0.194772
0.000000 0.916611 0.240705
0.070056 0.927049 0.210766
0.181466 0.932980 0.181466
0.333009 0.928830 0.176686
0.489280 0.924777 0.172073
0.642623 0.920790 0.167584
0.786022 0.916850 0.163196
0.912945 0.912945 0.158894
1.000000 0.908185 0.184173
0.000000 1.000000 0.260714
0.089342 1.000000 0.226321
0.193195 1.000000 0.193195
0.340247 1.000000 0.189750
0.491128 1.000000 0.186420
0.639068 1.000000 0.183176
0.777830 1.000000 0.179999
0.901591 1.000000 0.176880
1.000000 1.000000 0.173810
0.000000 0.000000 0.512392
0.150333 0.000000 0.502760
0.315891 0.000000 0.494305
0.486243 0.000000 0.486243
0.628606 0.000000 0.461797
0.751495 0.000000 0.441079
0.853813 0.000000 0.423788
0.936107 0.000000 0.409703
1.000000 0.000000 0.398649
0.000000 0.131098 0.479992
0.121905 0.121905 0.488807
0.291178 0.113185 0.478190
0.468072 0.104964 0.468072
0.624635 0.102065 0.448375
0.760543 0.101760 0.432288
0.873433 0.103889 0.419525
0.963164 0.108359 0.409879
1.000000 0.115122 0.403190
0.000000 0.275133 0.451584
0.092973 0.267445 0.453117
0.256927 0.256927 0.450408
0.438511 0.245827 0.438511
0.607669 0.238702 0.423009
0.755840 0.234655 0.411008
0.879079 0.233462 0.402237
0.976279 0.234974 0.396501
1.000000 0.239088 0.393656
0.000000 0.424576 0.424576
0.066509 0.419207 0.419207
0.219910 0.410468 0.410468
0.398649 0.398649 0.398649
0.579619 0.387170 0.387170
0.740253 0.379070 0.379070
0.874613 0.374097 0.374097
0.980289 0.372075 0.372075
1.000000 0.372873 0.372873
0.000000 0.565661 0.398535
0.055331 0.564941 0.388526
0.195337 0.560261 0.375762
0.360171 0.552269 0.360171
0.540672 0.540672 0.348816
0.708397 0.530337 0.346004
0.850610 0.523199 0.346184
0.963860 0.519087 0.349208
1.000000 0.517872 0.354973
0.000000 0.696824 0.383616
0.052386 0.700505 0.369106
0.181068 0.699851 0.352450
0.333224 0.695843 0.333224
0.507156 0.686212 0.323513
0.676760 0.676760 0.314060
0.826525 0.667878 0.319168
0.947220 0.661940 0.327033
1.000000 0.658831 0.337581
0.000000 0.814532 0.378997
0.057038 0.821884 0.360063
0.176098 0.824742 0.339582
0.316789 0.824364 0.316789
0.484376 0.816907 0.308639
0.649175 0.809570 0.300704
0.802320 0.802320 0.292941
0.930345 0.795063 0.305453
1.000000 0.790427 0.320615
0.000000 0.916197 0.384128
0.069116 0.926102 0.360788
0.179840 0.931574 0.336492
0.310133 0.934063 0.310133
0.471776 0.928765 0.303475
0.631408 0.923541 0.296989
0.781031 0.918367 0.290640
0.913229 0.913229 0.284408
1.000000 0.907654 0.304023
0.000000 1.000000 0.398649
0.088789 1.000000 0.370884
0.192024 1.000000 0.342735
0.312758 1.000000 0.312758
0.468903 1.000000 0.307544
0.623198 1.000000 0.302461
0.768480 1.000000 0.297481
0.898092 1.000000 0.292589
1.000000 1.000000 0.287772
0.000000 0.000000 0.652875
0.143809 0.000000 0.645429
0.302292 0.000000 0.638878
0.465882 0.000000 0.632620
0.626540 0.000000 0.626540
0.750042 0.000000 0.599231
0.852933 0.000000 0.575257
0.935718 0.000000 0.554464
1.000000 0.000000 0.536730
0.000000 0.128647 0.627757
0.120571 0.120571 0.646901
0.283467 0.113298 0.638235
0.453772 0.106429 0.629950
0.621898 0.099831 0.621898
0.758471 0.099959 0.599133
0.872008 0.102508 0.579667
0.962307 0.107391 0.563339
1.000000 0.114566 0.550024
0.000000 0.270149 0.605555
0.096386 0.263721 0.617656
0.254307 0.254307 0.624255
0.429542 0.244774 0.614152
0.604331 0.235589 0.604331
0.753209 0.232045 0.585502
0.877171 0.231340 0.569951
0.975031 0.233328 0.557511
1.000000 0.237912 0.548051
0.000000 0.417093 0.584278
0.074100 0.413041 0.589561
0.222481 0.405461 0.590167
0.394747 0.394747 0.587238
0.575697 0.383279 0.575697
0.737063 0.375717 0.560626
0.872221 0.371268 0.548809
0.978658 0.369759 0.540074
1.000000 0.371062 0.534286
0.000000 0.563568 0.563568
0.053263 0.562170 0.562170
0.192327 0.556894 0.556894
0.356310 0.548332 0.548332
0.536730 0.536730 0.536730
0.710743 0.525346 0.525346
0.858057 0.517177 0.517177
0.974457 0.512052 0.512052
1.000000 0.509835 0.509835
0.000000 0.695326 0.541595
0.050727 0.698360 0.535579
0.178569 0.697135 0.526235
0.329922 0.692577 0.513784
0.498409 0.684978 0.498409
0.673988 0.673988 0.487013
0.829519 0.664098 0.483963
0.954308 0.657165 0.483881
1.000000 0.653077 0.486643
0.000000 0.813616 0.530122
0.055758 0.820377 0.519565
0.174074 0.822716 0.506230
0.314018 0.821837 0.489975
0.470925 0.818082 0.470925
0.641769 0.809344 0.461063
0.800699 0.800699 0.451389
0.933691 0.792520 0.456248
1.000000 0.786970 0.463885
0.000000 0.915794 0.528638
0.068205 0.925183 0.513612
0.178267 0.930207 0.496352
0.307870 0.932269 0.476360
0.453705 0.931752 0.453705
0.619396 0.925333 0.445354
0.775151 0.918962 0.437162
0.912623 0.912623 0.429103
1.000000 0.906249 0.441512
0.000000 1.000000 0.536730
0.088254 1.000000 0.517301
0.190890 1.000000 0.496168
0.310986 1.000000 0.472487
0.446269 1.000000 0.446269
0.606638 1.000000 0.439399
0.758321 1.000000 0.432659
0.893778 1.000000 0.426028
1.000000 1.000000 0.419490
0.000000 0.000000 0.771252
0.138375 0.000000 0.766044
0.290099 0.000000 0.761456
0.447074 0.000000 0.757068
0.602172 0.000000 0.752802
0.748621 0.000000 0.748621
0.852072 0.000000 0.719709
0.935337 0.000000 0.693587
1.000000 0.000000 0.670244
0.000000 0.127144 0.753656
0.120146 0.120146 0.781234
0.276967 0.114279 0.774721
0.440878 0.108728 0.768482
0.603350 0.103386 0.762406
0.756444 0.098203 0.756444
0.870612 0.101161 0.731937
0.961468 0.106447 0.710235
1.000000 0.114023 0.691305
0.000000 0.266292 0.738040
0.100592 0.261085 0.759200
0.252741 0.252741 0.773821
0.421846 0.244733 0.765914
0.590854 0.237009 0.758205
0.750633 0.229500 0.750633
0.875301 0.229269 0.729790
0.973807 0.231722 0.711793
1.000000 0.236763 0.696586
0.000000 0.410845 0.723013
0.082445 0.408078 0.737882
0.225971 0.401627 0.747048
0.391989 0.391989 0.752459
0.567076 0.382091 0.743119
0.733940 0.372443 0.733940
0.869876 0.368506 0.716495
0.977059 0.367498 0.701946
1.000000 0.369292 0.690215
0.000000 0.555176 0.708324
0.065340 0.555064 0.716948
0.200506 0.550914 0.720649
0.358798 0.543425 0.720829
0.532865 0.532865 0.717883
0.707062 0.521478 0.707062
0.855216 0.513825 0.692906
0.972463 0.509208 0.681690
1.000000 0.507494 0.673317
0.000000 0.693862 0.693862
0.049111 0.696262 0.696262
0.176133 0.694478 0.694478
0.326699 0.689380 0.689380
0.494539 0.681251 0.681251
0.670244 0.670244 0.670244
0.831510 0.659363 0.659363
0.960370 0.651453 0.651453
1.000000 0.646403 0.646403
0.000000 0.812720 0.676418
0.054511 0.818902 0.674456
0.172100 0.820731 0.668799
0.311313 0.819362 0.659957
0.467575 0.815123 0.648140
0.633470 0.808177 0.633470
0.798158 0.798158 0.622454
0.936137 0.789067 0.619332
1.000000 0.782615 0.619048
0.000000 0.915401 0.668654
0.067316 0.924283 0.662349
0.176731 0.928869 0.652845
0.305660 0.930511 0.640294
0.450868 0.929580 0.624836
0.606567 0.926260 0.606567
0.768403 0.918714 0.596932
0.911192 0.911192 0.587423
1.000000 0.904025 0.591910
0.000000 1.000000 0.670244
0.087731 1.000000 0.659659
0.189782 1.000000 0.646366
0.309255 1.000000 0.630166
0.443935 1.000000 0.611133
0.589335 1.000000 0.589335
0.747333 1.000000 0.581109
0.888670 1.000000 0.572995
1.000000 1.000000 0.564975
0.000000 0.000000 0.867404
0.133932 0.000000 0.864254
0.279169 0.000000 0.861479
0.429667 0.000000 0.858826
0.579131 0.000000 0.856245
0.721536 0.000000 0.853715
0.851225 0.000000 0.851225
0.934963 0.000000 0.821919
1.000000 0.000000 0.794736
0.000000 0.126522 0.856762
0.120573 0.120573 0.890249
0.271572 0.116083 0.885796
0.429257 0.111827 0.881527
0.586077 0.107723 0.877364
0.734940 0.103735 0.873275
0.869239 0.099841 0.869239
0.960643 0.105521 0.844347
1.000000 0.113490 0.821616
0.000000 0.263473 0.847312
0.105574 0.259459 0.875166
0.252158 0.252158 0.895574
0.415316 0.245641 0.889889
0.578604 0.239349 0.884335
0.733841 0.233226 0.878867
0.873461 0.227239 0.873461
0.972602 0.230146 0.852039
1.000000 0.235636 0.832859
0.000000 0.405734 0.838212
0.091560 0.404224 0.860514
0.230346 0.398878 0.876274
0.390294 0.390294 0.888137
0.559622 0.381934 0.881194
0.721580 0.373782 0.874347
0.867568 0.365796 0.867568
0.975483 0.365278 0.849199
1.000000 0.367556 0.833175
0.000000 0.547951 0.829308
0.078250 0.549104 0.846067
0.209517 0.546061 0.857103
0.362246 0.539628 0.864531
0.530093 0.530093 0.868921
0.699034 0.520225 0.860633
0.852417 0.510533 0.852417
0.970496 0.506416 0.836882
1.000000 0.505195 0.823800
0.000000 0.684946 0.820529
0.065517 0.688575 0.831730
0.189489 0.687854 0.837954
0.335071 0.683762 0.840806
0.496885 0.676607 0.840724
0.666554 0.666554 0.837935
0.828189 0.655657 0.828189
0.957976 0.648225 0.815409
1.000000 0.643652 0.805185
0.000000 0.811840 0.811840
0.053289 0.817451 0.817451
0.170165 0.818780 0.818780
0.308661 0.816927 0.816927
0.464287 0.812209 0.812209
0.629733 0.804784 0.804784
0.794736 0.794736 0.794736
0.937756 0.784739 0.784739
1.000000 0.777390 0.777390
0.000000 0.915014 0.798956
0.066445 0.923398 0.800637
0.175225 0.927551 0.798471
0.303493 0.928779 0.793221
0.448083 0.927440 0.785123
0.603297 0.923708 0.774296
0.760801 0.917672 0.760801
0.908973 0.908973 0.750554
1.000000 0.901015 0.747515
0.000000 1.000000 0.794736
0.087218 1.000000 0.792454
0.188696 1.000000 0.786773
0.307558 1.000000 0.778113
0.441644 1.000000 0.766636
0.586543 1.000000 0.752421
0.735510 1.000000 0.735510
0.882779 1.000000 0.726450
1.000000 1.000000 0.717462
0.000000 0.000000 0.942835
0.130407 0.000000 0.941439
0.269400 0.000000 0.940210
0.413552 0.000000 0.939036
0.557337 0.000000 0.937895
0.695412 0.000000 0.936778
0.822748 0.000000 0.935679
0.934595 0.000000 0.934595
1.000000 0.000000 0.905992
0.000000 0.126733 0.938124
0.121814 0.121814 0.974805
0.267206 0.118680 0.972140
0.418818 0.115705 0.969583
0.569997 0.112830 0.967090
0.714433 0.110032 0.964640
0.846229 0.107295 0.962222
0.959829 0.104610 0.959829
1.000000 0.112966 0.935853
0.000000 0.261629 0.933954
0.111323 0.258786 0.965773
0.252508 0.252508 0.989268
0.409877 0.247457 0.985585
0.567501 0.242575 0.981980
0.718080 0.237819 0.978426
0.854837 0.233165 0.974907
0.971412 0.228596 0.971412
1.000000 0.234527 0.950861
0.000000 0.401686 0.929950
0.101458 0.401413 0.956992
0.235581 0.397154 0.976739
0.389605 0.389605 0.992385
0.553262 0.382757 0.987711
0.710268 0.376077 0.983088
0.852895 0.369530 0.978497
0.973925 0.363094 0.973925
1.000000 0.365847 0.956182
0.000000 0.541821 0.926041
0.092023 0.544220 0.948324
0.219357 0.542270 0.964224
0.366619 0.536878 0.976436
0.528353 0.528353 0.985710
0.692050 0.519984 0.979970
0.841500 0.511763 0.974255
0.968551 0.503665 0.968551
1.000000 0.502931 0.953228
0.000000 0.677089 0.922196
0.082931 0.681933 0.939709
0.203692 0.682266 0.951657
0.344308 0.679173 0.960244
0.500188 0.672984 0.966079
0.663877 0.663877 0.969497
0.820995 0.654404 0.962550
0.955606 0.645043 0.955606
1.000000 0.640940 0.942492
0.000000 0.802829 0.918397
0.074131 0.809595 0.931116
0.188504 0.811905 0.939005
0.322575 0.810968 0.943790
0.472534 0.807127 0.945944
0.631885 0.800556 0.945715
0.791350 0.791350 0.943242
0.934913 0.781326 0.934913
1.000000 0.774403 0.923947
0.000000 0.914633 0.914633
0.065589 0.922525 0.922525
0.173744 0.926251 0.926251
0.301360 0.927068 0.927068
0.445342 0.925324 0.925324
0.600074 0.921184 0.921184
0.757329 0.914731 0.914731
0.905992 0.905992 0.905992
1.000000 0.897238 0.897238
0.000000 1.000000 0.905992
0.086713 1.000000 0.910519
0.187627 1.000000 0.911271
0.305887 1.000000 0.909195
0.439389 1.000000 0.904555
0.583791 1.000000 0.897469
0.732438 1.000000 0.887986
0.876112 1.000000 0.876112
1.000000 1.000000 0.866999
0.000000 0.000000 1.000000
0.127745 0.000000 1.000000
0.260714 0.000000 1.000000
0.398649 0.000000 1.000000
0.536730 0.000000 1.000000
0.670244 0.000000 1.000000
0.794736 0.000000 1.000000
0.905992 0.000000 1.000000
1.000000 0.000000 1.000000
0.000000 0.127745 1.000000
0.123839 0.123839 1.000000
0.263812 0.122049 1.000000
0.409490 0.120347 1.000000
0.555048 0.118700 1.000000
0.694898 0.117094 1.000000
0.823794 0.115520 1.000000
0.936785 0.113973 1.000000
1.000000 0.112449 1.000000
0.000000 0.260714 1.000000
0.117835 0.259024 1.000000
0.253753 0.253753 1.000000
0.405470 0.250148 1.000000
0.557486 0.246661 1.000000
0.703313 0.243261 1.000000
0.836900 0.239930 1.000000
0.952561 0.236657 1.000000
1.000000 0.233433 1.000000
0.000000 0.398649 1.000000
0.112154 0.399595 1.000000
0.241660 0.396407 1.000000
0.389877 0.389877 1.000000
0.547944 0.384521 1.000000
0.699961 0.379294 1.000000
0.839010 0.374169 1.000000
0.958611 0.369128 1.000000
1.000000 0.364160 1.000000
0.000000 0.536730 1.000000
0.106687 0.540361 1.000000
0.230028 0.539491 1.000000
0.371889 0.535128 1.000000
0.527601 0.527601 1.000000
0.686063 0.520711 1.000000
0.831442 0.513943 1.000000
0.956400 0.507277 1.000000
1.000000 0.500696 1.000000
0.000000 0.670244 1.000000
0.101384 0.676292 1.000000
0.218753 0.677670 1.000000
0.354400 0.675568 1.000000
0.504415 0.670337 1.000000
0.662171 0.662171 1.000000
0.814700 0.654107 1.000000
0.946457 0.646143 1.000000
1.000000 0.638261 1.000000
0.000000 0.794736 1.000000
0.096216 0.802650 1.000000
0.207775 0.805938 1.000000
0.337326 0.805916 1.000000
0.481644 0.802952 1.000000
0.634955 0.797235 1.000000
0.788872 0.788872 1.000000
0.928781 0.780131 1.000000
1.000000 0.771447 1.000000
0.000000 0.905992 1.000000
0.091164 0.914958 1.000000
0.197057 0.919572 1.000000
0.320617 0.921200 1.000000
0.459237 0.920216 1.000000
0.607926 0.916806 1.000000
0.759241 0.911065 1.000000
0.903032 0.903032 1.000000
1.000000 0.894241 1.000000
0.000000 1.000000 1.000000
0.086215 1.000000 1.000000
0.186573 1.000000 1.000000
0.304239 1.000000 1.000000
0.437163 1.000000 1.000000
0.581074 1.000000 1.000000
0.729401 1.000000 1.000000
0.873029 1.000000 1.000000
1.000000 1.000000 1.000000
