library/luts/vivid_pop.cube
# CrabbyCut preset LUT — sinh bởi scripts/generate_preset_luts.js
TITLE "Rực rỡ"
LUT_3D_SIZE 17
0.000000 0.000000 0.000000
0.087135 0.000000 0.000000
0.171522 0.000000 0.000000
0.255659 0.000000 0.000000
0.338355 0.000000 0.000000
0.418476 0.000000 0.000000
0.495123 0.000000 0.000000
0.567625 0.000000 0.000000
0.635508 0.000000 0.000000
0.698469 0.000000 0.000000
0.756345 0.000000 0.000000
0.809090 0.000000 0.000000
0.856753 0.000000 0.000000
0.899462 0.000000 0.000000
0.937407 0.000000 0.000000
0.970828 0.000000 0.000000
1.000000 0.000000 0.000000
0.000000 0.072447 0.000000
0.066341 0.066341 0.000000
0.150085 0.061283 0.000000
0.234488 0.057253 0.000000
0.318086 0.054068 0.000000
0.399561 0.051632 0.000000
0.477871 0.049882 0.000000
0.552233 0.048772 0.000000
0.622085 0.048271 0.000000
0.687050 0.048355 0.000000
0.746907 0.049005 0.000000
0.801563 0.050207 0.000000
0.851033 0.051953 0.000000
0.895414 0.054236 0.000000
0.934878 0.057052 0.000000
0.969651 0.060401 0.000000
1.000000 0.064282 0.000000
0.000000 0.143335 0.000000
0.049873 0.137103 0.000000
0.131670 0.131670 0.000000
0.216156 0.126619 0.000000
0.300437 0.122525 0.000000
0.383022 0.119276 0.000000
0.462738 0.116801 0.000000
0.538699 0.115049 0.000000
0.610260 0.113983 0.000000
0.676977 0.113573 0.000000
0.738575 0.113797 0.000000
0.794916 0.114639 0.000000
0.845981 0.116085 0.000000
0.891842 0.118124 0.000000
0.932649 0.120750 0.000000
0.968615 0.123958 0.000000
1.000000 0.127745 0.000000
0.000000 0.215535 0.000000
0.037070 0.209387 0.000000
0.115527 0.204015 0.000000
0.198915 0.198915 0.000000
0.283748 0.193935 0.000000
0.367319 0.189879 0.000000
0.448326 0.186668 0.000000
0.525780 0.184245 0.000000
0.598953 0.182571 0.000000
0.667334 0.181612 0.000000
0.730591 0.181342 0.000000
0.788545 0.181742 0.000000
0.841139 0.182796 0.000000
0.888419 0.184489 0.000000
0.930515 0.186813 0.000000
0.967625 0.189760 0.000000
1.000000 0.193323 0.000000
0.000000 0.288454 0.000000
0.027186 0.282546 0.000000
0.102725 0.277375 0.000000
0.183340 0.272459 0.000000
0.267706 0.267706 0.000000
0.352164 0.262862 0.000000
0.434375 0.258920 0.000000
0.513246 0.255819 0.000000
0.587964 0.253515 0.000000
0.657949 0.251973 0.000000
0.722816 0.251165 0.000000
0.782337 0.251068 0.000000
0.836421 0.251665 0.000000
0.885086 0.252939 0.000000
0.928439 0.254878 0.000000
0.966664 0.257473 0.000000
1.000000 0.260714 0.000000
0.000000 0.361323 0.000000
0.019799 0.355774 0.000000
0.092804 0.350910 0.000000
0.170936 0.346281 0.000000
0.252930 0.341800 0.000000
0.337428 0.337428 0.000000
0.420768 0.332779 0.000000
0.500992 0.329010 0.000000
0.577201 0.326075 0.000000
0.648747 0.323937 0.000000
0.715184 0.322567 0.000000
0.776241 0.321941 0.000000
0.831788 0.322038 0.000000
0.881814 0.322841 0.000000
0.926403 0.324337 0.000000
0.965722 0.326513 0.000000
1.000000 0.329360 0.000000
0.000000 0.433408 0.000000
0.014628 0.428306 0.000000
0.085459 0.423829 0.000000
0.161387 0.419565 0.000000
0.241212 0.415433 0.000000
0.323644 0.411398 0.000000
0.407439 0.407439 0.000000
0.488960 0.403032 0.000000
0.566615 0.399483 0.000000
0.639683 0.396756 0.000000
0.707661 0.394820 0.000000
0.770230 0.393649 0.000000
0.827219 0.393224 0.000000
0.878587 0.393526 0.000000
0.924397 0.394540 0.000000
0.964795 0.396251 0.000000
1.000000 0.398649 0.000000
0.000000 0.504049 0.000000
0.011480 0.499456 0.000000
0.080471 0.495424 0.000000
0.154460 0.491579 0.000000
0.232317 0.487852 0.000000
0.312823 0.484210 0.000000
0.394797 0.480635 0.000000
0.477114 0.477114 0.000000
0.556173 0.472986 0.000000
0.630731 0.469693 0.000000
0.700224 0.467204 0.000000
0.764283 0.465494 0.000000
0.822699 0.464542 0.000000
0.875397 0.464329 0.000000
0.922414 0.464839 0.000000
0.963881 0.466057 0.000000
1.000000 0.467972 0.000000
0.000000 0.572661 0.000000
0.010220 0.568619 0.000000
0.077686 0.565069 0.000000
0.149985 0.561682 0.000000
0.226070 0.558397 0.000000
0.304789 0.555185 0.000000
0.385027 0.552030 0.000000
0.465720 0.548922 0.000000
0.545853 0.545853 0.000000
0.621871 0.542034 0.000000
0.692857 0.539023 0.000000
0.758390 0.536794 0.000000
0.818218 0.535327 0.000000
0.872235 0.534602 0.000000
0.920451 0.534604 0.000000
0.962976 0.535318 0.000000
1.000000 0.536730 0.000000
0.000000 0.638734 0.000000
0.010761 0.635266 0.000000
0.076990 0.632219 0.000000
0.147837 0.629311 0.000000
0.222334 0.626489 0.000000
0.299405 0.623729 0.000000
0.377999 0.621017 0.000000
0.457110 0.618344 0.000000
0.535780 0.615703 0.000000
0.613091 0.613091 0.000000
0.685549 0.609603 0.000000
0.752540 0.606891 0.000000
0.813770 0.604935 0.000000
0.869097 0.603718 0.000000
0.918504 0.603223 0.000000
0.962080 0.603435 0.000000
1.000000 0.604342 0.000000
0.000000 0.701826 0.000000
0.013054 0.698938 0.000000
0.078312 0.696400 0.000000
0.147922 0.693977 0.000000
0.221008 0.691625 0.000000
0.296563 0.689324 0.000000
0.373602 0.687063 0.000000
0.451180 0.684834 0.000000
0.528393 0.682631 0.000000
0.604374 0.680451 0.000000
0.678291 0.678291 0.000000
0.746727 0.675148 0.000000
0.809349 0.672746 0.000000
0.865979 0.671069 0.000000
0.916571 0.670102 0.000000
0.961192 0.669831 0.000000
1.000000 0.670244 0.000000
0.000000 0.761553 0.000000
0.017081 0.759237 0.000000
0.081606 0.757201 0.000000
0.150179 0.755258 0.000000
0.222013 0.753371 0.000000
0.296178 0.751524 0.000000
0.371752 0.749709 0.000000
0.447848 0.747920 0.000000
0.523616 0.746151 0.000000
0.598240 0.744401 0.000000
0.670936 0.742666 0.000000
0.740946 0.740946 0.000000
0.804951 0.738153 0.000000
0.862877 0.736065 0.000000
0.914649 0.734665 0.000000
0.960310 0.733943 0.000000
1.000000 0.733886 0.000000
0.000000 0.817591 0.000000
0.022852 0.815825 0.000000
0.086855 0.814273 0.000000
0.154568 0.812791 0.000000
0.225296 0.811352 0.000000
0.298185 0.809944 0.000000
0.372376 0.808560 0.000000
0.447040 0.807195 0.000000
0.521379 0.805846 0.000000
0.594628 0.804511 0.000000
0.666049 0.803188 0.000000
0.734927 0.801876 0.000000
0.800573 0.800573 0.000000
0.859790 0.798133 0.000000
0.912737 0.796354 0.000000
0.959433 0.795225 0.000000
1.000000 0.794736 0.000000
0.000000 0.869663 0.000000
0.030398 0.868415 0.000000
0.094065 0.867317 0.000000
0.161071 0.866268 0.000000
0.230822 0.865251 0.000000
0.302535 0.864255 0.000000
0.375418 0.863277 0.000000
0.448696 0.862312 0.000000
0.521624 0.861358 0.000000
0.593484 0.860415 0.000000
0.663583 0.859479 0.000000
0.731251 0.858551 0.000000
0.795839 0.857630 0.000000
0.856715 0.856715 0.000000
0.910834 0.854622 0.000000
0.958562 0.853145 0.000000
1.000000 0.852274 0.000000
0.000000 0.917541 0.000000
0.039772 0.916765 0.000000
0.103256 0.916083 0.000000
0.169687 0.915432 0.000000
0.238570 0.914800 0.000000
0.309195 0.914181 0.000000
0.380833 0.913574 0.000000
0.452765 0.912975 0.000000
0.524296 0.912383 0.000000
0.594754 0.911798 0.000000
0.663492 0.911217 0.000000
0.729881 0.910642 0.000000
0.793311 0.910071 0.000000
0.853190 0.909503 0.000000
0.908939 0.908939 0.000000
0.957695 0.907183 0.000000
1.000000 0.905992 0.000000
0.000000 0.961036 0.000000
0.051040 0.960679 0.000000
0.114466 0.960366 0.000000
0.180430 0.960066 0.000000
0.248533 0.959776 0.000000
0.318142 0.959492 0.000000
0.388586 0.959213 0.000000
0.459203 0.958938 0.000000
0.529346 0.958667 0.000000
0.598390 0.958398 0.000000
0.665729 0.958132 0.000000
0.730774 0.957868 0.000000
0.792956 0.957607 0.000000
0.851719 0.957347 0.000000
0.906520 0.957089 0.000000
0.956832 0.956832 0.000000
1.000000 0.955396 0.000000
0.000000 1.000000 0.000000
0.064282 1.000000 0.000000
0.127745 1.000000 0.000000
0.193323 1.000000 0.000000
0.260714 1.000000 0.000000
0.329360 1.000000 0.000000
0.398649 1.000000 0.000000
0.467972 1.000000 0.000000
0.536730 1.000000 0.000000
0.604342 1.000000 0.000000
0.670244 1.000000 0.000000
0.733886 1.000000 0.000000
0.794736 1.000000 0.000000
0.852274 1.000000 0.000000
0.905992 1.000000 0.000000
0.955396 1.000000 0.000000
1.000000 1.000000 0.000000
0.000000 0.000000 0.091300
0.085003 0.000000 0.085003
0.169336 0.000000 0.078343
0.253509 0.000000 0.072829
0.336301 0.000000 0.068245
0.416563 0.000000 0.064474
0.493381 0.000000 0.061439
0.566072 0.000000 0.059088
0.634155 0.000000 0.057379
0.697319 0.000000 0.056283
0.755395 0.000000 0.055774
0.808332 0.000000 0.055834
0.856177 0.000000 0.056449
0.899054 0.000000 0.057607
0.937152 0.000000 0.059302
0.970709 0.000000 0.061528
1.000000 0.000000 0.064282
0.000000 0.070366 0.070366
0.064282 0.064282 0.064282
0.149886 0.058939 0.058939
0.236450 0.054639 0.054639
0.322354 0.051193 0.051193
0.406161 0.048502 0.048502
0.486737 0.046499 0.046499
0.563230 0.045138 0.045138
0.635023 0.044386 0.044386
0.701699 0.044217 0.044217
0.763008 0.044612 0.044612
0.818839 0.045557 0.045557
0.869193 0.047040 0.047040
0.914168 0.049056 0.049056
0.953937 0.051599 0.051599
0.988736 0.054668 0.054668
1.000000 0.058263 0.058263
0.000000 0.141214 0.053477
0.046517 0.135687 0.046517
0.129751 0.129751 0.041353
0.216218 0.124392 0.038442
0.302695 0.120001 0.036307
0.387559 0.116462 0.034865
0.469534 0.113702 0.034063
0.547653 0.111669 0.033864
0.621209 0.110323 0.034244
0.689711 0.109634 0.035181
0.752849 0.109580 0.036664
0.810460 0.110141 0.038684
0.862509 0.111304 0.041233
0.909062 0.113058 0.044311
0.950268 0.115396 0.047916
0.986346 0.118311 0.052051
1.000000 0.121801 0.056720
0.000000 0.213444 0.040301
0.032541 0.208754 0.032541
0.112203 0.202834 0.027890
0.197216 0.197216 0.023502
0.284120 0.191910 0.022545
0.369904 0.187536 0.022229
0.453149 0.184014 0.022513
0.532778 0.181286 0.023369
0.607990 0.179308 0.024778
0.678221 0.178049 0.026728
0.743099 0.177480 0.029211
0.802414 0.177581 0.032222
0.856088 0.178335 0.035761
0.904156 0.179728 0.039829
0.946745 0.181750 0.044430
0.984054 0.184392 0.049569
1.000000 0.187648 0.055252
0.000000 0.286445 0.030083
0.021567 0.282784 0.021567
0.098086 0.277033 0.017375
0.180152 0.271567 0.013418
0.266283 0.266283 0.009619
0.352873 0.261101 0.010332
0.437290 0.256828 0.011610
0.518340 0.253401 0.013436
0.595133 0.250776 0.015797
0.667028 0.248915 0.018687
0.733590 0.247791 0.022103
0.794559 0.247381 0.026045
0.849817 0.247664 0.030517
0.899366 0.248625 0.035524
0.943307 0.250251 0.041073
0.981820 0.252532 0.047173
1.000000 0.255458 0.053833
0.000000 0.359437 0.022392
0.013139 0.356929 0.013139
0.086913 0.351465 0.009361
0.166329 0.346265 0.005794
0.249961 0.341232 0.002369
0.336323 0.336323 0.000000
0.421823 0.331327 0.001245
0.504222 0.327218 0.003967
0.582534 0.323948 0.007212
0.656041 0.321478 0.010979
0.724245 0.319780 0.015271
0.786834 0.318828 0.020093
0.843647 0.318601 0.025451
0.894652 0.319081 0.031356
0.939924 0.320256 0.037816
0.979624 0.322111 0.044843
1.000000 0.324636 0.052450
0.000000 0.431675 0.016942
0.006954 0.430390 0.006954
0.078356 0.425302 0.003554
0.155409 0.420455 0.000341
0.236749 0.415760 0.000000
0.320956 0.411175 0.000000
0.406678 0.406678 0.000000
0.490359 0.401920 0.000000
0.570136 0.398027 0.000000
0.645211 0.394959 0.003558
0.715023 0.392686 0.008676
0.779203 0.391182 0.014331
0.837549 0.390425 0.020535
0.889994 0.390398 0.027300
0.936583 0.391083 0.034639
0.977457 0.392468 0.042566
1.000000 0.394541 0.051096
0.000000 0.502489 0.013535
0.002797 0.502452 0.002797
0.072180 0.497806 0.000000
0.147145 0.493377 0.000000
0.226398 0.489082 0.000000
0.308592 0.484886 0.000000
0.392436 0.480766 0.000000
0.476709 0.476709 0.000000
0.557902 0.472232 0.000000
0.634507 0.468594 0.000000
0.705896 0.465764 0.002291
0.771645 0.463716 0.008737
0.831506 0.462428 0.015749
0.885376 0.461882 0.023342
0.933272 0.462061 0.031532
0.975311 0.462951 0.040334
1.000000 0.464538 0.049766
0.000000 0.571289 0.012032
0.000515 0.572483 0.000515
0.068211 0.568324 0.000000
0.141352 0.564357 0.000000
0.218722 0.560507 0.000000
0.299044 0.556744 0.000000
0.381096 0.553047 0.000000
0.463718 0.549405 0.000000
0.545808 0.545808 0.000000
0.623907 0.541644 0.000000
0.696846 0.538291 0.000000
0.764144 0.535724 0.003296
0.825506 0.533920 0.011081
0.880791 0.532862 0.019471
0.929985 0.532533 0.028485
0.973183 0.532918 0.038141
1.000000 0.534005 0.048456
0.000000 0.637557 0.012341
0.000004 0.639931 0.000004
0.066324 0.636287 0.000000
0.137891 0.632808 0.000000
0.213574 0.629432 0.000000
0.292169 0.626130 0.000000
0.372520 0.622884 0.000000
0.453530 0.619685 0.000000
0.534154 0.616524 0.000000
0.613397 0.613397 0.000000
0.687860 0.609571 0.000000
0.756689 0.606525 0.000000
0.819540 0.604237 0.006521
0.876231 0.602689 0.015680
0.926717 0.601866 0.025494
0.971068 0.601753 0.035983
1.000000 0.602338 0.047164
0.000000 0.700845 0.014411
0.001200 0.704316 0.001200
0.066430 0.701198 0.000000
0.136657 0.698222 0.000000
0.210840 0.695331 0.000000
0.287848 0.692503 0.000000
0.366594 0.689722 0.000000
0.446041 0.686980 0.000000
0.525201 0.684270 0.000000
0.603133 0.681588 0.000000
0.678930 0.678930 0.000000
0.749273 0.675459 0.000000
0.813601 0.672733 0.002061
0.871690 0.670733 0.011963
0.923464 0.669445 0.022554
0.968964 0.668856 0.033856
1.000000 0.668952 0.045889
0.000000 0.760767 0.018219
0.004072 0.765223 0.004072
0.068474 0.762630 0.002211
0.137578 0.760154 0.000446
0.210434 0.757749 0.000000
0.285991 0.755394 0.000000
0.363226 0.753079 0.000000
0.441163 0.750796 0.000000
0.518871 0.748538 0.000000
0.595460 0.746303 0.000000
0.670074 0.744088 0.000000
0.741889 0.741889 0.000000
0.807684 0.738784 0.000000
0.867166 0.736384 0.008314
0.920223 0.734674 0.019660
0.966870 0.733643 0.031758
1.000000 0.733279 0.044629
0.000000 0.816992 0.023771
0.008619 0.822298 0.008619
0.072427 0.820215 0.007033
0.140604 0.818225 0.005527
0.212295 0.816293 0.004073
0.286526 0.814401 0.002658
0.362341 0.812540 0.001273
0.438822 0.810704 0.000000
0.515095 0.808890 0.000000
0.590320 0.807092 0.000000
0.663692 0.805311 0.000000
0.734431 0.803542 0.000000
0.801786 0.801786 0.000000
0.862655 0.799049 0.004729
0.916992 0.796975 0.016811
0.964783 0.795551 0.029688
1.000000 0.794768 0.043382
0.000000 0.869240 0.031097
0.014863 0.875238 0.014863
0.078286 0.873640 0.013552
0.145710 0.872113 0.012306
0.216380 0.870630 0.011102
0.289399 0.869178 0.009929
0.363877 0.867750 0.008781
0.438955 0.866341 0.007654
0.513812 0.864948 0.006544
0.587660 0.863568 0.005451
0.659739 0.862200 0.004371
0.729317 0.860843 0.003305
0.795685 0.859494 0.002250
0.858154 0.858154 0.001207
0.913768 0.855783 0.014002
0.962703 0.854028 0.027642
1.000000 0.852880 0.042148
0.000000 0.917278 0.040246
0.022848 0.923791 0.022848
0.086065 0.922641 0.021816
0.152888 0.921543 0.020835
0.222663 0.920477 0.019886
0.294571 0.919433 0.018961
0.367785 0.918406 0.018054
0.441508 0.917393 0.017163
0.514968 0.916392 0.016286
0.587428 0.915400 0.015420
0.658173 0.914417 0.014565
0.726516 0.913442 0.013719
0.791789 0.912472 0.012883
0.853344 0.911509 0.012054
0.910551 0.910551 0.011233
0.960628 0.908539 0.025620
1.000000 0.907091 0.040925
0.000000 0.960915 0.051282
0.032636 0.967748 0.032636
0.095797 0.967003 0.031891
0.162146 0.966291 0.031182
0.231133 0.965600 0.030496
0.302015 0.964924 0.029826
0.374030 0.964258 0.029170
0.446435 0.963602 0.028524
0.518514 0.962954 0.027888
0.589575 0.962312 0.027260
0.658949 0.961676 0.026639
0.725991 0.961044 0.026024
0.790074 0.960417 0.025416
0.850589 0.959794 0.024813
0.906943 0.959174 0.024215
0.958558 0.958558 0.023621
1.000000 0.956889 0.039713
0.000000 1.000000 0.064282
0.044302 1.000000 0.044302
0.107528 1.000000 0.043855
0.173506 1.000000 0.043429
0.241791 1.000000 0.043017
0.311714 1.000000 0.042614
0.382579 1.000000 0.042219
0.453699 1.000000 0.041830
0.524406 1.000000 0.041447
0.594055 1.000000 0.041068
0.662021 1.000000 0.040693
0.727701 1.000000 0.040322
0.790506 1.000000 0.039955
0.849866 1.000000 0.039590
0.905224 1.000000 0.039228
0.956037 1.000000 0.038869
1.000000 1.000000 0.038512
0.000000 0.000000 0.179541
0.081669 0.000000 0.173070
0.167422 0.000000 0.167422
0.251623 0.000000 0.159298
0.334500 0.000000 0.152286
0.414885 0.000000 0.146240
0.491852 0.000000 0.141066
0.564709 0.000000 0.136697
0.632967 0.000000 0.133080
0.696309 0.000000 0.130178
0.754561 0.000000 0.127956
0.807667 0.000000 0.126388
0.855671 0.000000 0.125454
0.898696 0.000000 0.125135
0.936929 0.000000 0.125418
0.970605 0.000000 0.126291
1.000000 0.000000 0.127745
0.000000 0.068217 0.157932
0.062462 0.062462 0.153893
0.147832 0.057136 0.147832
0.234394 0.052980 0.141044
0.320362 0.049670 0.135298
0.404279 0.047108 0.130462
0.485000 0.045228 0.126451
0.561659 0.043988 0.123206
0.633631 0.043352 0.120680
0.700492 0.043297 0.118838
0.761986 0.043804 0.117653
0.817996 0.044858 0.117101
0.868521 0.046451 0.117165
0.913655 0.048575 0.117830
0.953568 0.051226 0.119085
0.988495 0.054403 0.120922
1.000000 0.058107 0.123335
0.000000 0.139356 0.139356
0.044757 0.133667 0.133667
0.127745 0.127745 0.127745
0.215917 0.122119 0.122119
0.304305 0.117470 0.117470
0.391160 0.113681 0.113681
0.475111 0.110674 0.110674
0.555117 0.108397 0.108397
0.630411 0.106808 0.106808
0.700457 0.105878 0.105878
0.764911 0.105581 0.105581
0.823589 0.105899 0.105899
0.876438 0.106816 0.106816
0.923515 0.108322 0.108322
0.964970 0.110408 0.110408
1.000000 0.113068 0.113068
1.000000 0.116298 0.116298
0.000000 0.211611 0.122461
0.030956 0.206740 0.115754
0.108979 0.201446 0.108979
0.195377 0.195377 0.103491
0.284076 0.189787 0.100237
0.371790 0.185138 0.097783
0.456995 0.181345 0.096064
0.538527 0.178350 0.095034
0.615521 0.176110 0.094660
0.687362 0.174588 0.094916
0.753638 0.173758 0.095785
0.814109 0.173599 0.097251
0.868680 0.174092 0.099304
0.917372 0.175223 0.101937
0.960306 0.176981 0.105144
0.997684 0.179357 0.108923
1.000000 0.182345 0.113274
0.000000 0.284684 0.108969
0.020138 0.280829 0.101304
0.093728 0.276363 0.093728
0.177019 0.270415 0.088733
0.264668 0.264668 0.083927
0.353113 0.259191 0.082714
0.439459 0.254628 0.082192
0.522420 0.250917 0.082325
0.601031 0.248011 0.083086
0.674593 0.245873 0.084456
0.742627 0.244474 0.086421
0.804840 0.243788 0.088970
0.861088 0.243798 0.092098
0.911357 0.244485 0.095801
0.955740 0.245837 0.100077
0.994416 0.247844 0.104927
1.000000 0.250495 0.110353
0.000000 0.357783 0.098409
0.011852 0.355072 0.089824
0.081480 0.351570 0.081480
0.161964 0.345869 0.076939
0.246997 0.340353 0.072569
0.334973 0.334973 0.068329
0.422361 0.329675 0.068927
0.506666 0.325268 0.070150
0.586823 0.321704 0.071978
0.662049 0.318945 0.074398
0.731795 0.316959 0.077400
0.795709 0.315722 0.080978
0.853603 0.315211 0.085131
0.905425 0.315409 0.089858
0.951237 0.316301 0.095161
0.991193 0.317875 0.101043
1.000000 0.320119 0.107510
0.000000 0.430154 0.090467
0.005796 0.428662 0.080982
0.071888 0.426207 0.071888
0.149859 0.420849 0.067767
0.232482 0.415659 0.063799
0.318222 0.410592 0.059948
0.405621 0.405621 0.056194
0.491195 0.400558 0.058440
0.572836 0.396362 0.061273
0.649674 0.392996 0.064685
0.721092 0.390428 0.068671
0.786677 0.388631 0.073230
0.846193 0.387584 0.078364
0.899549 0.387267 0.084075
0.946775 0.387665 0.090368
0.988002 0.388764 0.097251
1.000000 0.390552 0.104729
0.000000 0.501120 0.084920
0.001757 0.500874 0.074540
0.064700 0.499506 0.064700
0.140442 0.494563 0.060968
0.220867 0.489770 0.057374
0.304509 0.485087 0.053884
0.389978 0.480490 0.050480
0.475963 0.475963 0.047150
0.559029 0.471179 0.050930
0.637435 0.467238 0.055280
0.710489 0.464109 0.060202
0.777719 0.461764 0.065697
0.838837 0.460182 0.071771
0.893713 0.459343 0.078430
0.942343 0.459232 0.085682
0.984833 0.459833 0.093536
1.000000 0.461134 0.102000
0.000000 0.570084 0.081602
0.000000 0.571071 0.070320
0.059727 0.570792 0.059727
0.133515 0.566314 0.056359
0.211952 0.561970 0.053114
0.293641 0.557722 0.049962
0.377263 0.553550 0.046886
0.461569 0.549438 0.043875
0.545377 0.545377 0.040921
0.625309 0.540911 0.046159
0.699967 0.537258 0.051969
0.768817 0.534393 0.058359
0.831522 0.532295 0.065336
0.887906 0.530944 0.072909
0.937932 0.530324 0.081090
0.981680 0.530421 0.089889
1.000000 0.531221 0.099318
0.000000 0.636523 0.080397
0.000000 0.638694 0.068194
0.056830 0.639471 0.056830
0.128928 0.635492 0.053805
0.205580 0.631631 0.050889
0.285466 0.627852 0.048055
0.367333 0.624138 0.045288
0.449997 0.620477 0.042578
0.532336 0.616859 0.039918
0.613279 0.613279 0.037303
0.689511 0.609157 0.043957
0.759961 0.605816 0.051201
0.824237 0.603236 0.059045
0.882119 0.601399 0.067502
0.933537 0.600288 0.076584
0.978538 0.599890 0.086304
1.000000 0.600190 0.096676
0.000000 0.699985 0.081225
0.000472 0.703258 0.068072
0.055908 0.705029 0.055908
0.126564 0.701567 0.053210
0.201629 0.698205 0.050607
0.279860 0.694915 0.048077
0.360071 0.691679 0.045604
0.441142 0.688487 0.043181
0.522008 0.685332 0.040801
0.601655 0.682209 0.038459
0.679113 0.679113 0.036153
0.751142 0.675355 0.044212
0.816975 0.672343 0.052889
0.876348 0.670059 0.062198
0.929151 0.668489 0.072155
0.975405 0.667620 0.082775
1.000000 0.667438 0.094070
0.000000 0.760077 0.084037
0.003439 0.764343 0.069894
0.056895 0.767020 0.056895
0.126341 0.764078 0.054511
0.200006 0.761220 0.052210
0.276724 0.758422 0.049971
0.355378 0.755669 0.047782
0.434911 0.752953 0.045636
0.514314 0.750267 0.043526
0.592630 0.747607 0.041450
0.668938 0.744970 0.039403
0.742352 0.742352 0.037383
0.809731 0.738972 0.046859
0.870587 0.736297 0.056993
0.924773 0.734315 0.067800
0.972277 0.733012 0.079297
1.000000 0.732378 0.091499
0.000000 0.816465 0.088809
0.008080 0.821591 0.073630
0.059751 0.825062 0.059751
0.128201 0.822630 0.057673
0.200639 0.820268 0.055666
0.275980 0.817954 0.053712
0.353175 0.815677 0.051800
0.431227 0.813430 0.049924
0.509186 0.811207 0.048080
0.586147 0.809006 0.046262
0.661240 0.806822 0.044470
0.733628 0.804654 0.042700
0.802500 0.802500 0.040951
0.864833 0.799503 0.051880
0.920399 0.797168 0.063513
0.969153 0.795485 0.075867
1.000000 0.794443 0.088958
0.000000 0.868867 0.095540
0.014417 0.874695 0.079273
0.064465 0.878827 0.064465
0.132110 0.876885 0.062688
0.203481 0.874998 0.060971
0.277570 0.873150 0.059298
0.353397 0.871331 0.057660
0.430025 0.869535 0.056052
0.506562 0.867759 0.054469
0.582154 0.865999 0.052909
0.655979 0.864253 0.051369
0.727249 0.862520 0.049848
0.795197 0.860797 0.048344
0.859084 0.859084 0.046855
0.916027 0.856470 0.059290
0.966030 0.854470 0.072482
1.000000 0.853078 0.086446
0.000000 0.917046 0.104249
0.022497 0.923401 0.086836
0.071045 0.928041 0.071045
0.138055 0.926558 0.069568
0.208499 0.925116 0.068139
0.281449 0.923704 0.066747
0.355991 0.922315 0.065383
0.431249 0.920943 0.064043
0.506386 0.919586 0.062723
0.580599 0.918241 0.061422
0.653114 0.916908 0.060136
0.723187 0.915583 0.058865
0.790098 0.914267 0.057608
0.853147 0.912957 0.056363
0.911655 0.911655 0.055130
0.962908 0.909417 0.069140
1.000000 0.907744 0.083962
0.000000 0.960809 0.114969
0.032383 0.967495 0.096349
0.079516 0.972476 0.079516
0.146039 0.971411 0.078341
0.215678 0.970376 0.077205
0.287586 0.969363 0.076096
0.360917 0.968365 0.075009
0.434853 0.967381 0.073941
0.508610 0.966407 0.072888
0.581435 0.965442 0.071849
0.652602 0.964485 0.070822
0.721411 0.963534 0.069807
0.787184 0.962590 0.068801
0.849261 0.961650 0.067805
0.907003 0.960716 0.066818
0.959785 0.959785 0.065838
1.000000 0.957912 0.081503
0.000000 1.000000 0.127745
0.044150 1.000000 0.107856
0.089922 1.000000 0.089922
0.156079 1.000000 0.089055
0.225015 1.000000 0.088215
0.295964 1.000000 0.087395
0.368144 1.000000 0.086592
0.440796 1.000000 0.085801
0.513189 1.000000 0.085022
0.584617 1.000000 0.084252
0.654401 1.000000 0.083491
0.721883 1.000000 0.082738
0.786427 1.000000 0.081992
0.847413 1.000000 0.081252
0.904238 1.000000 0.080519
0.956315 1.000000 0.079791
1.000000 1.000000 0.079068
0.000000 0.000000 0.267059
0.078772 0.000000 0.260691
0.162541 0.000000 0.255121
0.249828 0.000000 0.249828
0.332784 0.000000 0.240348
0.413285 0.000000 0.231958
0.490394 0.000000 0.224550
0.563409 0.000000 0.218045
0.631834 0.000000 0.212386
0.695346 0.000000 0.207525
0.753764 0.000000 0.203424
0.807032 0.000000 0.200051
0.855189 0.000000 0.197381
0.898355 0.000000 0.195391
0.936715 0.000000 0.194061
0.970505 0.000000 0.193376
1.000000 0.000000 0.193323
0.000000 0.066434 0.245735
