library/luts/vivid_pop.cube
# CrabbyCut preset LUT — sinh bởi scripts/generate_preset_luts.js
TITLE "Rực rỡ"
LUT_3D_SIZE 5
0.000000 0.000000 0.000000
0.338355 0.000000 0.000000
0.635508 0.000000 0.000000
0.856753 0.000000 0.000000
1.000000 0.000000 0.000000
0.000000 0.288454 0.000000
0.267706 0.267706 0.000000
0.587964 0.253515 0.000000
0.836421 0.251665 0.000000
1.000000 0.260714 0.000000
0.000000 0.572661 0.000000
0.226070 0.558397 0.000000
0.545853 0.545853 0.000000
0.818218 0.535327 0.000000
1.000000 0.536730 0.000000
0.000000 0.817591 0.000000
0.225296 0.811352 0.000000
0.521379 0.805846 0.000000
0.800573 0.800573 0.000000
1.000000 0.794736 0.000000
0.000000 1.000000 0.000000
0.260714 1.000000 0.000000
0.536730 1.000000 0.000000
0.794736 1.000000 0.000000
1.000000 1.000000 0.000000
0.000000 0.000000 0.352477
0.331121 0.000000 0.331121
0.630735 0.000000 0.294361
0.854721 0.000000 0.271632
1.000000 0.000000 0.260714
0.000000 0.281381 0.281381
0.260714 0.260714 0.260714
0.611109 0.241920 0.241920
0.881043 0.235654 0.235654
1.000000 0.240303 0.240303
0.000000 0.567820 0.234748
0.198450 0.563732 0.198450
0.543583 0.543583 0.180513
0.841871 0.528254 0.193525
1.000000 0.525003 0.216797
0.000000 0.815476 0.229559
0.178190 0.826828 0.178190
0.497100 0.814673 0.166117
0.802958 0.802958 0.154740
1.000000 0.792943 0.194772
0.000000 1.000000 0.260714
0.193195 1.000000 0.193195
0.491128 1.000000 0.186420
0.777830 1.000000 0.179999
1.000000 1.000000 0.173810
0.000000 0.000000 0.652875
0.302292 0.000000 0.638878
0.626540 0.000000 0.626540
0.852933 0.000000 0.575257
1.000000 0.000000 0.536730
0.000000 0.270149 0.605555
0.254307 0.254307 0.624255
0.604331 0.235589 0.604331
0.877171 0.231340 0.569951
1.000000 0.237912 0.548051
0.000000 0.563568 0.563568
0.192327 0.556894 0.556894
0.536730 0.536730 0.536730
0.858057 0.517177 0.517177
1.000000 0.509835 0.509835
0.000000 0.813616 0.530122
0.174074 0.822716 0.506230
0.470925 0.818082 0.470925
0.800699 0.800699 0.451389
1.000000 0.786970 0.463885
0.000000 1.000000 0.536730
0.190890 1.000000 0.496168
0.446269 1.000000 0.446269
0.758321 1.000000 0.432659
1.000000 1.000000 0.419490
0.000000 0.000000 0.867404
0.279169 0.000000 0.861479
0.579131 0.000000 0.856245
0.851225 0.000000 0.851225
1.000000 0.000000 0.794736
0.000000 0.263473 0.847312
0.252158 0.252158 0.895574
0.578604 0.239349 0.884335
0.873461 0.227239 0.873461
1.000000 0.235636 0.832859
0.000000 0.547951 0.829308
0.209517 0.546061 0.857103
0.530093 0.530093 0.868921
0.852417 0.510533 0.852417
1.000000 0.505195 0.823800
0.000000 0.811840 0.811840
0.170165 0.818780 0.818780
0.464287 0.812209 0.812209
0.794736 0.794736 0.794736
1.000000 0.777390 0.777390
0.000000 1.000000 0.794736
0.188696 1.000000 0.786773
0.441644 1.000000 0.766636
0.735510 1.000000 0.735510
1.000000 1.000000 0.717462
0.000000 0.000000 1.000000
0.260714 0.000000 1.000000
0.536730 0.000000 1.000000
0.794736 0.000000 1.000000
1.000000 0.000000 1.000000
0.000000 0.260714 1.000000
0.253753 0.253753 1.000000
0.557486 0.246661 1.000000
0.836900 0.239930 1.000000
1.000000 0.233433 1.000000
0.000000 0.536730 1.000000
0.230028 0.539491 1.000000
0.527601 0.527601 1.000000
0.831442 0.513943 1.000000
1.000000 0.500696 1.000000
0.000000 0.794736 1.000000
0.207775 0.805938 1.000000
0.481644 0.802952 1.000000
0.788872 0.788872 1.000000
1.000000 0.771447 1.000000
0.000000 1.000000 1.000000
0.186573 1.000000 1.000000
0.437163 1.000000 1.000000
0.729401 1.000000 1.000000
1.000000 1.000000 1.000000
