library/luts/warm_film.cube
# CrabbyCut preset LUT — sinh bởi scripts/generate_preset_luts.js
TITLE "Phim ấm"
LUT_3D_SIZE 17
0.039938 0.010021 0.000000
0.097442 0.010143 0.000000
0.158953 0.010274 0.000000
0.223841 0.010411 0.000000
0.291477 0.010555 0.000000
0.361232 0.010703 0.000000
0.432476 0.010854 0.000000
0.504579 0.011007 0.000000
0.576914 0.011160 0.000000
0.648849 0.011313 0.000000
0.719755 0.011463 0.000000
0.789004 0.011610 0.000000
0.855966 0.011752 0.000000
0.920011 0.011888 0.000000
0.980510 0.012016 0.000000
1.000000 0.012126 0.000000
1.000000 0.012126 0.000000
0.040323 0.064230 0.000000
0.097827 0.064352 0.000000
0.159338 0.064482 0.000000
0.224226 0.064620 0.000000
0.291862 0.064763 0.000000
0.361617 0.064911 0.000000
0.432861 0.065063 0.000000
0.504964 0.065215 0.000000
0.577299 0.065369 0.000000
0.649234 0.065522 0.000000
0.720140 0.065672 0.000000
0.789389 0.065819 0.000000
0.856351 0.065961 0.000000
0.920396 0.066097 0.000000
0.980895 0.066225 0.000000
1.000000 0.066335 0.000000
1.000000 0.066335 0.000000
0.040735 0.122226 0.000000
0.098239 0.122348 0.000000
0.159750 0.122478 0.000000
0.224638 0.122616 0.000000
0.292274 0.122759 0.000000
0.362029 0.122907 0.000000
0.433272 0.123058 0.000000
0.505376 0.123211 0.000000
0.577710 0.123365 0.000000
0.649646 0.123517 0.000000
0.720552 0.123668 0.000000
0.789801 0.123815 0.000000
0.856763 0.123957 0.000000
0.920808 0.124093 0.000000
0.981306 0.124221 0.000000
1.000000 0.124330 0.000000
1.000000 0.124330 0.000000
0.041170 0.183461 0.000000
0.098674 0.183583 0.000000
0.160184 0.183714 0.000000
0.225072 0.183851 0.000000
0.292709 0.183995 0.000000
0.362463 0.184143 0.000000
0.433707 0.184294 0.000000
0.505811 0.184447 0.000000
0.578145 0.184600 0.000000
0.650080 0.184753 0.000000
0.720987 0.184903 0.000000
0.790236 0.185050 0.000000
0.857198 0.185192 0.000000
0.921242 0.185328 0.000000
0.981741 0.185457 0.000000
1.000000 0.185566 0.000000
1.000000 0.185566 0.000000
0.041624 0.247390 0.000000
0.099128 0.247512 0.000000
0.160638 0.247642 0.000000
0.225526 0.247780 0.000000
0.293163 0.247923 0.000000
0.362917 0.248071 0.000000
0.434161 0.248222 0.000000
0.506265 0.248375 0.000000
0.578599 0.248529 0.000000
0.650534 0.248681 0.000000
0.721441 0.248832 0.000000
0.790690 0.248979 0.000000
0.857651 0.249121 0.000000
0.921696 0.249257 0.000000
0.982195 0.249385 0.000000
1.000000 0.249495 0.000000
1.000000 0.249495 0.000000
0.042093 0.313464 0.000000
0.099597 0.313585 0.000000
0.161108 0.313716 0.000000
0.225996 0.313854 0.000000
0.293632 0.313997 0.000000
0.363387 0.314145 0.000000
0.434630 0.314296 0.000000
0.506734 0.314449 0.000000
0.579068 0.314603 0.000000
0.651004 0.314755 0.000000
0.721910 0.314906 0.000000
0.791159 0.315053 0.000000
0.858121 0.315195 0.000000
0.922166 0.315331 0.000000
0.982664 0.315459 0.000000
1.000000 0.315568 0.000000
1.000000 0.315568 0.000000
0.042574 0.381136 0.000000
0.100077 0.381258 0.000000
0.161588 0.381388 0.000000
0.226476 0.381526 0.000000
0.294112 0.381669 0.000000
0.363867 0.381817 0.000000
0.435111 0.381968 0.000000
0.507215 0.382121 0.000000
0.579549 0.382275 0.000000
0.651484 0.382427 0.000000
0.722391 0.382578 0.000000
0.791640 0.382725 0.000000
0.858601 0.382867 0.000000
0.922646 0.383003 0.000000
0.983145 0.383131 0.000000
1.000000 0.383241 0.000000
1.000000 0.383241 0.000000
0.043062 0.449859 0.000000
0.100565 0.449981 0.000000
0.162076 0.450111 0.000000
0.226964 0.450249 0.000000
0.294600 0.450393 0.000000
0.364355 0.450541 0.000000
0.435599 0.450692 0.000000
0.507703 0.450845 0.000000
0.580037 0.450998 0.000000
0.651972 0.451151 0.000000
0.722879 0.451301 0.000000
0.792128 0.451448 0.000000
0.859089 0.451590 0.000000
0.923134 0.451726 0.000000
0.983633 0.451854 0.000000
1.000000 0.451964 0.000000
1.000000 0.451964 0.000000
0.043553 0.519086 0.000000
0.101057 0.519208 0.000000
0.162568 0.519339 0.000000
0.227456 0.519476 0.000000
0.295092 0.519620 0.000000
0.364847 0.519768 0.000000
0.436091 0.519919 0.000000
0.508194 0.520072 0.000000
0.580529 0.520225 0.000000
0.652464 0.520378 0.000000
0.723370 0.520528 0.000000
0.792619 0.520675 0.000000
0.859581 0.520817 0.000000
0.923626 0.520953 0.000000
0.984125 0.521081 0.000000
1.000000 0.521191 0.000000
1.000000 0.521191 0.000000
0.044044 0.588270 0.000000
0.101548 0.588392 0.000000
0.163059 0.588522 0.000000
0.227947 0.588660 0.000000
0.295583 0.588803 0.000000
0.365338 0.588951 0.000000
0.436582 0.589103 0.000000
0.508686 0.589256 0.000000
0.581020 0.589409 0.000000
0.652955 0.589562 0.000000
0.723862 0.589712 0.000000
0.793111 0.589859 0.000000
0.860072 0.590001 0.000000
0.924117 0.590137 0.000000
0.984616 0.590265 0.000000
1.000000 0.590375 0.000000
1.000000 0.590375 0.000000
0.044532 0.656863 0.000000
0.102035 0.656985 0.000000
0.163546 0.657115 0.000000
0.228434 0.657253 0.000000
0.296070 0.657397 0.000000
0.365825 0.657545 0.000000
0.437069 0.657696 0.000000
0.509173 0.657849 0.000000
0.581507 0.658002 0.000000
0.653442 0.658155 0.000000
0.724349 0.658305 0.000000
0.793598 0.658452 0.000000
0.860559 0.658594 0.000000
0.924604 0.658730 0.000000
0.985103 0.658858 0.000000
1.000000 0.658968 0.000000
1.000000 0.658968 0.000000
0.045011 0.724318 0.000000
0.102514 0.724440 0.000000
0.164025 0.724571 0.000000
0.228913 0.724709 0.000000
0.296549 0.724852 0.000000
0.366304 0.725000 0.000000
0.437548 0.725151 0.000000
0.509652 0.725304 0.000000
0.581986 0.725458 0.000000
0.653921 0.725610 0.000000
0.724828 0.725761 0.000000
0.794077 0.725908 0.000000
0.861038 0.726050 0.000000
0.925083 0.726186 0.000000
0.985582 0.726314 0.000000
1.000000 0.726423 0.000000
1.000000 0.726423 0.000000
0.045478 0.790089 0.000000
0.102981 0.790211 0.000000
0.164492 0.790341 0.000000
0.229380 0.790479 0.000000
0.297016 0.790623 0.000000
0.366771 0.790771 0.000000
0.438015 0.790922 0.000000
0.510119 0.791075 0.000000
0.582453 0.791228 0.000000
0.654388 0.791381 0.000000
0.725295 0.791531 0.000000
0.794544 0.791678 0.000000
0.861505 0.791820 0.000000
0.925550 0.791956 0.000000
0.986049 0.792084 0.000000
1.000000 0.792194 0.000000
1.000000 0.792194 0.000000
0.045929 0.853627 0.000000
0.103433 0.853749 0.000000
0.164943 0.853880 0.000000
0.229831 0.854017 0.000000
0.297468 0.854161 0.000000
0.367222 0.854309 0.000000
0.438466 0.854460 0.000000
0.510570 0.854613 0.000000
0.582904 0.854766 0.000000
0.654839 0.854919 0.000000
0.725746 0.855069 0.000000
0.794995 0.855216 0.000000
0.861957 0.855358 0.000000
0.926001 0.855494 0.000000
0.986500 0.855623 0.000000
1.000000 0.855732 0.000000
1.000000 0.855732 0.000000
0.046360 0.914386 0.000000
0.103864 0.914508 0.000000
0.165375 0.914639 0.000000
0.230263 0.914776 0.000000
0.297899 0.914920 0.000000
0.367654 0.915068 0.000000
0.438898 0.915219 0.000000
0.511002 0.915372 0.000000
0.583336 0.915525 0.000000
0.655271 0.915678 0.000000
0.726178 0.915828 0.000000
0.795426 0.915975 0.000000
0.862388 0.916117 0.000000
0.926433 0.916253 0.000000
0.986932 0.916382 0.000000
1.000000 0.916491 0.000000
1.000000 0.916491 0.000000
0.046768 0.971818 0.000000
0.104272 0.971940 0.000000
0.165783 0.972071 0.000000
0.230671 0.972209 0.000000
0.298307 0.972352 0.000000
0.368062 0.972500 0.000000
0.439306 0.972651 0.000000
0.511409 0.972804 0.000000
0.583744 0.972958 0.000000
0.655679 0.973110 0.000000
0.726585 0.973261 0.000000
0.795834 0.973408 0.000000
0.862796 0.973550 0.000000
0.926841 0.973686 0.000000
0.987340 0.973814 0.000000
1.000000 0.973923 0.000000
1.000000 0.973923 0.000000
0.047090 1.000000 0.000000
0.104594 1.000000 0.000000
0.166105 1.000000 0.000000
0.230993 1.000000 0.000000
0.298629 1.000000 0.000000
0.368384 1.000000 0.000000
0.439628 1.000000 0.000000
0.511731 1.000000 0.000000
0.584066 1.000000 0.000000
0.656001 1.000000 0.000000
0.726907 1.000000 0.000000
0.796156 1.000000 0.000000
0.863118 1.000000 0.000000
0.927163 1.000000 0.000000
0.987662 1.000000 0.000000
1.000000 1.000000 0.000000
1.000000 1.000000 0.000000
0.039974 0.010057 0.039852
0.097478 0.010179 0.039608
0.158989 0.010310 0.039347
0.223877 0.010447 0.039071
0.291513 0.010591 0.038784
0.361268 0.010739 0.038488
0.432512 0.010890 0.038186
0.504616 0.011043 0.037880
0.576950 0.011196 0.037573
0.648885 0.011349 0.037268
0.719791 0.011499 0.036967
0.789040 0.011646 0.036673
0.856002 0.011788 0.036389
0.920047 0.011924 0.036117
0.980546 0.012053 0.035861
1.000000 0.012162 0.035642
1.000000 0.012162 0.035642
0.040359 0.064266 0.039082
0.097863 0.064388 0.038838
0.159374 0.064518 0.038577
0.224262 0.064656 0.038301
0.291898 0.064799 0.038014
0.361653 0.064947 0.037718
0.432897 0.065099 0.037416
0.505000 0.065252 0.037110
0.577335 0.065405 0.036803
0.649270 0.065558 0.036498
0.720176 0.065708 0.036197
0.789425 0.065855 0.035903
0.856387 0.065997 0.035619
0.920432 0.066133 0.035348
0.980931 0.066261 0.035091
1.000000 0.066371 0.034872
1.000000 0.066371 0.034872
0.040771 0.122262 0.038258
0.098275 0.122384 0.038014
0.159786 0.122514 0.037753
0.224674 0.122652 0.037478
0.292310 0.122795 0.037191
0.362065 0.122943 0.036895
0.433309 0.123094 0.036592
0.505412 0.123247 0.036286
0.577746 0.123401 0.035980
0.649682 0.123553 0.035674
0.720588 0.123704 0.035373
0.789837 0.123851 0.035080
0.856799 0.123993 0.034796
0.920844 0.124129 0.034524
0.981343 0.124257 0.034267
1.000000 0.124367 0.034048
1.000000 0.124367 0.034048
0.041206 0.183497 0.037388
0.098710 0.183619 0.037144
0.160220 0.183750 0.036883
0.225109 0.183887 0.036608
0.292745 0.184031 0.036321
0.362499 0.184179 0.036025
0.433743 0.184330 0.035723
0.505847 0.184483 0.035417
0.578181 0.184636 0.035110
0.650116 0.184789 0.034805
0.721023 0.184940 0.034504
0.790272 0.185086 0.034210
0.857234 0.185228 0.033926
0.921279 0.185364 0.033654
0.981777 0.185493 0.033397
1.000000 0.185602 0.033178
1.000000 0.185602 0.033178
0.041660 0.247426 0.036480
0.099164 0.247548 0.036236
0.160674 0.247678 0.035975
0.225563 0.247816 0.035700
0.293199 0.247959 0.035413
0.362953 0.248107 0.035117
0.434197 0.248258 0.034815
0.506301 0.248411 0.034509
0.578635 0.248565 0.034202
0.650570 0.248717 0.033897
0.721477 0.248868 0.033596
0.790726 0.249015 0.033302
0.857688 0.249157 0.033018
0.921732 0.249293 0.032746
0.982231 0.249421 0.032489
1.000000 0.249531 0.032270
1.000000 0.249531 0.032270
0.042129 0.313500 0.035542
0.099633 0.313622 0.035298
0.161144 0.313752 0.035037
0.226032 0.313890 0.034762
0.293668 0.314033 0.034475
0.363423 0.314181 0.034179
0.434667 0.314332 0.033876
0.506770 0.314485 0.033570
0.579104 0.314639 0.033264
0.651040 0.314791 0.032958
0.721946 0.314942 0.032657
0.791195 0.315089 0.032364
0.858157 0.315231 0.032080
0.922202 0.315367 0.031808
0.982701 0.315495 0.031551
1.000000 0.315604 0.031332
1.000000 0.315604 0.031332
0.042610 0.381172 0.034581
0.100113 0.381294 0.034337
0.161624 0.381424 0.034076
0.226512 0.381562 0.033801
0.294148 0.381705 0.033514
0.363903 0.381853 0.033218
0.435147 0.382005 0.032915
0.507251 0.382157 0.032609
0.579585 0.382311 0.032302
0.651520 0.382464 0.031997
0.722427 0.382614 0.031696
0.791676 0.382761 0.031403
0.858637 0.382903 0.031118
0.922682 0.383039 0.030847
0.983181 0.383167 0.030590
1.000000 0.383277 0.030371
1.000000 0.383277 0.030371
0.043098 0.449895 0.033605
0.100602 0.450017 0.033361
0.162112 0.450147 0.033100
0.227000 0.450285 0.032824
0.294636 0.450429 0.032537
0.364391 0.450577 0.032242
0.435635 0.450728 0.031939
0.507739 0.450881 0.031633
0.580073 0.451034 0.031326
0.652008 0.451187 0.031021
0.722915 0.451337 0.030720
0.792164 0.451484 0.030426
0.859125 0.451626 0.030142
0.923170 0.451762 0.029871
0.983669 0.451890 0.029614
1.000000 0.452000 0.029395
1.000000 0.452000 0.029395
0.043589 0.519122 0.032622
0.101093 0.519244 0.032378
0.162604 0.519375 0.032117
0.227492 0.519512 0.031841
0.295128 0.519656 0.031554
0.364883 0.519804 0.031258
0.436127 0.519955 0.030956
0.508231 0.520108 0.030650
0.580565 0.520261 0.030343
0.652500 0.520414 0.030038
0.723406 0.520564 0.029737
0.792655 0.520711 0.029443
0.859617 0.520853 0.029159
0.923662 0.520989 0.028887
0.984161 0.521118 0.028631
1.000000 0.521227 0.028412
1.000000 0.521227 0.028412
0.044081 0.588306 0.031639
0.101584 0.588428 0.031395
0.163095 0.588558 0.031134
0.227983 0.588696 0.030859
0.295619 0.588839 0.030572
0.365374 0.588987 0.030276
0.436618 0.589139 0.029973
0.508722 0.589292 0.029668
0.581056 0.589445 0.029361
0.652991 0.589598 0.029055
0.723898 0.589748 0.028755
0.793147 0.589895 0.028461
0.860108 0.590037 0.028177
0.924153 0.590173 0.027905
0.984652 0.590301 0.027648
1.000000 0.590411 0.027429
1.000000 0.590411 0.027429
0.044568 0.656899 0.030665
0.102071 0.657021 0.030421
0.163582 0.657152 0.030160
0.228470 0.657289 0.029885
0.296106 0.657433 0.029598
0.365861 0.657581 0.029302
0.437105 0.657732 0.028999
0.509209 0.657885 0.028693
0.581543 0.658038 0.028386
0.653478 0.658191 0.028081
0.724385 0.658341 0.027780
0.793634 0.658488 0.027487
0.860595 0.658630 0.027202
0.924640 0.658766 0.026931
0.985139 0.658894 0.026674
1.000000 0.659004 0.026455
1.000000 0.659004 0.026455
0.045047 0.724355 0.029707
0.102550 0.724477 0.029463
0.164061 0.724607 0.029202
0.228949 0.724745 0.028926
0.296585 0.724888 0.028639
0.366340 0.725036 0.028344
0.437584 0.725187 0.028041
0.509688 0.725340 0.027735
0.582022 0.725494 0.027428
0.653957 0.725646 0.027123
0.724864 0.725797 0.026822
0.794113 0.725944 0.026528
0.861074 0.726086 0.026244
0.925119 0.726222 0.025973
0.985618 0.726350 0.025716
1.000000 0.726459 0.025497
1.000000 0.726459 0.025497
0.045514 0.790125 0.028773
0.103018 0.790247 0.028529
0.164528 0.790377 0.028268
0.229416 0.790515 0.027992
0.297052 0.790659 0.027705
0.366807 0.790807 0.027409
0.438051 0.790958 0.027107
0.510155 0.791111 0.026801
0.582489 0.791264 0.026494
0.654424 0.791417 0.026189
0.725331 0.791567 0.025888
0.794580 0.791714 0.025594
0.861541 0.791856 0.025310
0.925586 0.791992 0.025039
0.986085 0.792120 0.024782
1.000000 0.792230 0.024563
1.000000 0.792230 0.024563
0.045965 0.853663 0.027870
0.103469 0.853785 0.027626
0.164979 0.853916 0.027365
0.229868 0.854053 0.027090
0.297504 0.854197 0.026803
0.367258 0.854345 0.026507
0.438502 0.854496 0.026205
0.510606 0.854649 0.025899
0.582940 0.854802 0.025592
0.654875 0.854955 0.025287
0.725782 0.855106 0.024986
0.795031 0.855252 0.024692
0.861993 0.855394 0.024408
0.926038 0.855530 0.024136
0.986536 0.855659 0.023879
1.000000 0.855768 0.023660
1.000000 0.855768 0.023660
0.046396 0.914422 0.027007
0.103900 0.914544 0.026763
0.165411 0.914675 0.026502
0.230299 0.914812 0.026227
0.297935 0.914956 0.025940
0.367690 0.915104 0.025644
0.438934 0.915255 0.025342
0.511038 0.915408 0.025036
0.583372 0.915561 0.024729
0.655307 0.915714 0.024424
0.726214 0.915864 0.024123
0.795462 0.916011 0.023829
0.862424 0.916153 0.023545
0.926469 0.916289 0.023273
0.986968 0.916418 0.023017
1.000000 0.916527 0.022798
1.000000 0.916527 0.022798
0.046804 0.971855 0.026192
0.104308 0.971977 0.025948
0.165819 0.972107 0.025687
0.230707 0.972245 0.025411
0.298343 0.972388 0.025124
0.368098 0.972536 0.024828
0.439342 0.972687 0.024526
0.511445 0.972840 0.024220
0.583780 0.972994 0.023913
0.655715 0.973146 0.023608
0.726621 0.973297 0.023307
0.795870 0.973444 0.023013
0.862832 0.973586 0.022729
0.926877 0.973722 0.022458
0.987376 0.973850 0.022201
1.000000 0.973959 0.021982
1.000000 0.973959 0.021982
0.047126 1.000000 0.025548
0.104630 1.000000 0.025304
0.166141 1.000000 0.025043
0.231029 1.000000 0.024767
0.298665 1.000000 0.024480
0.368420 1.000000 0.024184
0.439664 1.000000 0.023882
0.511768 1.000000 0.023576
0.584102 1.000000 0.023269
0.656037 1.000000 0.022964
0.726943 1.000000 0.022663
0.796192 1.000000 0.022369
0.863154 1.000000 0.022085
0.927199 1.000000 0.021813
0.987698 1.000000 0.021557
1.000000 1.000000 0.021338
1.000000 1.000000 0.021338
0.040013 0.010096 0.093030
0.097517 0.010218 0.092786
0.159027 0.010348 0.092525
0.223915 0.010486 0.092250
0.291551 0.010629 0.091963
0.361306 0.010777 0.091667
0.432550 0.010928 0.091365
0.504654 0.011081 0.091059
0.576988 0.011235 0.090752
0.648923 0.011387 0.090447
0.719830 0.011538 0.090146
0.789079 0.011685 0.089852
0.856040 0.011827 0.089568
0.920085 0.011963 0.089296
0.980584 0.012091 0.089039
1.000000 0.012201 0.088820
1.000000 0.012201 0.088820
0.040398 0.064304 0.092260
0.097902 0.064426 0.092016
0.159412 0.064557 0.091755
0.224300 0.064694 0.091480
0.291936 0.064838 0.091193
0.361691 0.064986 0.090897
0.432935 0.065137 0.090595
0.505039 0.065290 0.090289
0.577373 0.065443 0.089982
0.649308 0.065596 0.089677
0.720215 0.065747 0.089376
0.789464 0.065893 0.089082
0.856425 0.066035 0.088798
0.920470 0.066171 0.088526
0.980969 0.066300 0.088269
1.000000 0.066409 0.088050
1.000000 0.066409 0.088050
0.040810 0.122300 0.091437
0.098313 0.122422 0.091193
0.159824 0.122553 0.090932
0.224712 0.122690 0.090656
0.292348 0.122834 0.090369
0.362103 0.122982 0.090073
0.433347 0.123133 0.089771
0.505451 0.123286 0.089465
0.577785 0.123439 0.089158
0.649720 0.123592 0.088853
0.720627 0.123742 0.088552
0.789876 0.123889 0.088258
0.856837 0.124031 0.087974
0.920882 0.124167 0.087702
0.981381 0.124295 0.087446
1.000000 0.124405 0.087227
1.000000 0.124405 0.087227
0.041244 0.183536 0.090567
0.098748 0.183658 0.090323
0.160259 0.183788 0.090062
0.225147 0.183926 0.089787
0.292783 0.184069 0.089500
0.362538 0.184217 0.089204
0.433782 0.184369 0.088901
0.505886 0.184521 0.088595
0.578220 0.184675 0.088289
0.650155 0.184828 0.087983
0.721062 0.184978 0.087682
0.790310 0.185125 0.087389
0.857272 0.185267 0.087104
0.921317 0.185403 0.086833
0.981816 0.185531 0.086576
1.000000 0.185641 0.086357
1.000000 0.185641 0.086357
0.041698 0.247464 0.089659
0.099202 0.247586 0.089415
0.160713 0.247717 0.089154
0.225601 0.247854 0.088879
0.293237 0.247998 0.088592
0.362992 0.248146 0.088296
0.434236 0.248297 0.087993
0.506340 0.248450 0.087687
0.578674 0.248603 0.087381
0.650609 0.248756 0.087075
0.721516 0.248906 0.086774
0.790764 0.249053 0.086481
0.857726 0.249195 0.086197
0.921771 0.249331 0.085925
0.982270 0.249460 0.085668
1.000000 0.249569 0.085449
1.000000 0.249569 0.085449
0.042168 0.313538 0.088721
0.099671 0.313660 0.088477
0.161182 0.313791 0.088216
0.226070 0.313928 0.087940
0.293706 0.314072 0.087653
0.363461 0.314220 0.087357
0.434705 0.314371 0.087055
0.506809 0.314524 0.086749
0.579143 0.314677 0.086442
0.651078 0.314830 0.086137
0.721985 0.314980 0.085836
0.791234 0.315127 0.085542
0.858195 0.315269 0.085258
0.922240 0.315405 0.084986
0.982739 0.315533 0.084730
1.000000 0.315643 0.084511
1.000000 0.315643 0.084511
0.042648 0.381210 0.087759
0.100152 0.381332 0.087515
0.161663 0.381463 0.087254
0.226551 0.381600 0.086979
0.294187 0.381744 0.086692
0.363942 0.381892 0.086396
0.435186 0.382043 0.086094
0.507289 0.382196 0.085788
0.579623 0.382349 0.085481
0.651559 0.382502 0.085176
0.722465 0.382652 0.084875
0.791714 0.382799 0.084581
0.858676 0.382941 0.084297
0.922721 0.383077 0.084025
0.983220 0.383206 0.083769
1.000000 0.383315 0.083550
1.000000 0.383315 0.083550
0.043136 0.449933 0.086783
0.100640 0.450055 0.086539
0.162151 0.450186 0.086278
0.227039 0.450324 0.086003
0.294675 0.450467 0.085716
0.364430 0.450615 0.085420
0.435674 0.450766 0.085118
0.507777 0.450919 0.084812
0.580112 0.451073 0.084505
0.652047 0.451225 0.084200
0.722953 0.451376 0.083899
0.792202 0.451523 0.083605
0.859164 0.451665 0.083321
0.923209 0.451801 0.083049
0.983708 0.451929 0.082793
1.000000 0.452038 0.082574
1.000000 0.452038 0.082574
0.043628 0.519161 0.085800
0.101132 0.519283 0.085556
0.162642 0.519413 0.085295
0.227530 0.519551 0.085020
0.295166 0.519694 0.084733
0.364921 0.519842 0.084437
0.436165 0.519993 0.084135
0.508269 0.520146 0.083829
0.580603 0.520300 0.083522
0.652538 0.520452 0.083217
0.723445 0.520603 0.082916
0.792694 0.520750 0.082622
0.859655 0.520892 0.082338
0.923700 0.521028 0.082066
0.984199 0.521156 0.081809
1.000000 0.521265 0.081590
1.000000 0.521265 0.081590
0.044119 0.588344 0.084818
0.101623 0.588466 0.084574
0.163134 0.588597 0.084313
0.228022 0.588734 0.084037
0.295658 0.588878 0.083750
0.365413 0.589026 0.083454
0.436656 0.589177 0.083152
0.508760 0.589330 0.082846
0.581094 0.589483 0.082539
0.653030 0.589636 0.082234
0.723936 0.589787 0.081933
0.793185 0.589933 0.081639
0.860147 0.590075 0.081355
0.924192 0.590211 0.081083
0.984690 0.590340 0.080827
1.000000 0.590449 0.080608
1.000000 0.590449 0.080608
0.044606 0.656938 0.083843
0.102110 0.657060 0.083599
0.163621 0.657190 0.083338
0.228509 0.657328 0.083063
0.296145 0.657471 0.082776
0.365900 0.657619 0.082480
0.437144 0.657770 0.082178
0.509247 0.657923 0.081872
0.581581 0.658077 0.081565
0.653517 0.658229 0.081260
0.724423 0.658380 0.080959
0.793672 0.658527 0.080665
0.860634 0.658669 0.080381
0.924679 0.658805 0.080109
0.985178 0.658933 0.079853
1.000000 0.659042 0.079634
1.000000 0.659042 0.079634
0.045085 0.724393 0.082885
0.102589 0.724515 0.082641
0.164100 0.724645 0.082380
0.228988 0.724783 0.082105
0.296624 0.724927 0.081818
0.366379 0.725075 0.081522
0.437623 0.725226 0.081220
0.509726 0.725379 0.080914
0.582061 0.725532 0.080607
0.653996 0.725685 0.080302
0.724902 0.725835 0.080001
0.794151 0.725982 0.079707
0.861113 0.726124 0.079423
0.925158 0.726260 0.079151
0.985657 0.726388 0.078895
1.000000 0.726498 0.078676
1.000000 0.726498 0.078676
0.045552 0.790163 0.081951
0.103056 0.790285 0.081707
0.164567 0.790416 0.081446
0.229455 0.790554 0.081171
0.297091 0.790697 0.080884
0.366846 0.790845 0.080588
0.438090 0.790996 0.080286
0.510193 0.791149 0.079980
0.582528 0.791303 0.079673
0.654463 0.791455 0.079368
0.725369 0.791606 0.079067
0.794618 0.791753 0.078773
0.861580 0.791895 0.078489
0.925625 0.792031 0.078217
0.986124 0.792159 0.077960
1.000000 0.792268 0.077741
1.000000 0.792268 0.077741
0.046003 0.853702 0.081049
0.103507 0.853824 0.080805
0.165018 0.853954 0.080544
0.229906 0.854092 0.080269
0.297542 0.854235 0.079982
0.367297 0.854383 0.079686
0.438541 0.854535 0.079383
0.510645 0.854687 0.079077
0.582979 0.854841 0.078771
0.654914 0.854994 0.078465
0.725821 0.855144 0.078164
0.795069 0.855291 0.077871
0.862031 0.855433 0.077587
0.926076 0.855569 0.077315
0.986575 0.855697 0.077058
1.000000 0.855807 0.076839
1.000000 0.855807 0.076839
0.046435 0.914461 0.080186
0.103939 0.914583 0.079942
0.165449 0.914713 0.079681
0.230337 0.914851 0.079406
0.297974 0.914994 0.079119
0.367728 0.915142 0.078823
0.438972 0.915293 0.078520
0.511076 0.915446 0.078215
0.583410 0.915600 0.077908
0.655345 0.915752 0.077602
0.726252 0.915903 0.077302
0.795501 0.916050 0.077008
0.862462 0.916192 0.076724
0.926507 0.916328 0.076452
0.987006 0.916456 0.076195
1.000000 0.916566 0.075976
1.000000 0.916566 0.075976
0.046843 0.971893 0.079370
0.104346 0.972015 0.079126
0.165857 0.972145 0.078865
0.230745 0.972283 0.078590
0.298381 0.972427 0.078303
0.368136 0.972575 0.078007
0.439380 0.972726 0.077705
0.511484 0.972879 0.077399
0.583818 0.973032 0.077092
0.655753 0.973185 0.076787
0.726660 0.973335 0.076486
0.795909 0.973482 0.076192
0.862870 0.973624 0.075908
0.926915 0.973760 0.075636
0.987414 0.973888 0.075379
1.000000 0.973998 0.075160
1.000000 0.973998 0.075160
0.047165 1.000000 0.078726
0.104669 1.000000 0.078482
0.166179 1.000000 0.078221
0.231067 1.000000 0.077946
0.298703 1.000000 0.077659
0.368458 1.000000 0.077363
0.439702 1.000000 0.077061
0.511806 1.000000 0.076755
0.584140 1.000000 0.076448
0.656075 1.000000 0.076143
0.726982 1.000000 0.075842
0.796231 1.000000 0.075548
0.863192 1.000000 0.075264
0.927237 1.000000 0.074992
0.987736 1.000000 0.074735
1.000000 1.000000 0.074516
1.000000 1.000000 0.074516
0.040053 0.010136 0.149056
0.097557 0.010258 0.148812
0.159068 0.010389 0.148551
0.223956 0.010526 0.148276
0.291592 0.010670 0.147989
0.361347 0.010818 0.147693
0.432591 0.010969 0.147391
0.504694 0.011122 0.147085
0.577029 0.011275 0.146778
0.648964 0.011428 0.146473
0.719870 0.011578 0.146172
0.789119 0.011725 0.145878
0.856081 0.011867 0.145594
0.920126 0.012003 0.145322
0.980625 0.012132 0.145066
1.000000 0.012241 0.144847
1.000000 0.012241 0.144847
0.040438 0.064345 0.148286
