library/luts/warm_film.cube
# CrabbyCut preset LUT — sinh bởi scripts/generate_preset_luts.js
TITLE "Phim ấm"
LUT_3D_SIZE 5
0.039938 0.010021 0.000000
0.291477 0.010555 0.000000
0.576914 0.011160 0.000000
0.855966 0.011752 0.000000
1.000000 0.012126 0.000000
0.041624 0.247390 0.000000
0.293163 0.247923 0.000000
0.578599 0.248529 0.000000
0.857651 0.249121 0.000000
1.000000 0.249495 0.000000
0.043553 0.519086 0.000000
0.295092 0.519620 0.000000
0.580529 0.520225 0.000000
0.859581 0.520817 0.000000
1.000000 0.521191 0.000000
0.045478 0.790089 0.000000
0.297016 0.790623 0.000000
0.582453 0.791228 0.000000
0.861505 0.791820 0.000000
1.000000 0.792194 0.000000
0.047090 1.000000 0.000000
0.298629 1.000000 0.000000
0.584066 1.000000 0.000000
0.863118 1.000000 0.000000
1.000000 1.000000 0.000000
0.040096 0.010178 0.207493
0.291634 0.010712 0.206425
0.577071 0.011318 0.205214
0.856123 0.011910 0.204030
1.000000 0.012283 0.203283
0.041781 0.247547 0.204122
0.293320 0.248081 0.203054
0.578756 0.248686 0.201843
0.857809 0.249278 0.200659
1.000000 0.249652 0.199912
0.043710 0.519243 0.200263
0.295249 0.519777 0.199195
0.580686 0.520382 0.197984
0.859738 0.520974 0.196800
1.000000 0.521348 0.196053
0.045635 0.790246 0.196414
0.297174 0.790780 0.195347
0.582610 0.791385 0.194135
0.861663 0.791977 0.192951
1.000000 0.792351 0.192204
0.047248 1.000000 0.193189
0.298786 1.000000 0.192121
0.584223 1.000000 0.190910
0.863275 1.000000 0.189726
1.000000 1.000000 0.188979
0.040276 0.010358 0.456593
0.291814 0.010892 0.455525
0.577251 0.011498 0.454314
0.856303 0.012090 0.453130
1.000000 0.012463 0.452383
0.041961 0.247727 0.453222
0.293500 0.248261 0.452154
0.578937 0.248866 0.450943
0.857989 0.249458 0.449759
1.000000 0.249832 0.449012
0.043891 0.519423 0.449363
0.295429 0.519957 0.448296
0.580866 0.520563 0.447084
0.859918 0.521155 0.445900
1.000000 0.521528 0.445153
0.045815 0.790426 0.445514
0.297354 0.790960 0.444447
0.582790 0.791566 0.443236
0.861843 0.792158 0.442052
1.000000 0.792531 0.441304
0.047428 1.000000 0.442289
0.298966 1.000000 0.441221
0.584403 1.000000 0.440010
0.863455 1.000000 0.438826
1.000000 1.000000 0.438079
0.040458 0.010541 0.709266
0.291997 0.011075 0.708199
0.577434 0.011680 0.706988
0.856486 0.012272 0.705804
1.000000 0.012646 0.705056
0.042144 0.247910 0.705895
0.293683 0.248443 0.704828
0.579119 0.249049 0.703617
0.858172 0.249641 0.702433
1.000000 0.250015 0.701685
0.044073 0.519606 0.702036
0.295612 0.520140 0.700969
0.581049 0.520745 0.699758
0.860101 0.521337 0.698574
1.000000 0.521711 0.697826
0.045998 0.790609 0.698187
0.297536 0.791143 0.697120
0.582973 0.791748 0.695909
0.862025 0.792340 0.694725
1.000000 0.792714 0.693978
0.047610 1.000000 0.694962
0.299149 1.000000 0.693895
0.584586 1.000000 0.692684
0.863638 1.000000 0.691500
1.000000 1.000000 0.690752
0.040623 0.010706 0.937521
0.292162 0.011240 0.936454
0.577599 0.011845 0.935243
0.856651 0.012437 0.934059
1.000000 0.012811 0.933311
0.042309 0.248075 0.934150
0.293848 0.248608 0.933083
0.579284 0.249214 0.931872
0.858337 0.249806 0.930688
1.000000 0.250180 0.929940
0.044238 0.519771 0.930291
0.295777 0.520305 0.929224
0.581214 0.520910 0.928013
0.860266 0.521502 0.926829
1.000000 0.521876 0.926082
0.046163 0.790774 0.926442
0.297702 0.791308 0.925375
0.583138 0.791913 0.924164
0.862190 0.792505 0.922980
1.000000 0.792879 0.922233
0.047775 1.000000 0.923217
0.299314 1.000000 0.922150
0.584751 1.000000 0.920939
0.863803 1.000000 0.919755
1.000000 1.000000 0.919007
