library/luts/warm_film.cube
# CrabbyCut preset LUT — sinh bởi scripts/generate_preset_luts.js
TITLE "Phim ấm"
LUT_3D_SIZE 9
0.039938 0.010021 0.000000
0.158953 0.010274 0.000000
0.291477 0.010555 0.000000
0.432476 0.010854 0.000000
0.576914 0.011160 0.000000
0.719755 0.011463 0.000000
0.855966 0.011752 0.000000
0.980510 0.012016 0.000000
1.000000 0.012126 0.000000
0.040735 0.122226 0.000000
0.159750 0.122478 0.000000
0.292274 0.122759 0.000000
0.433272 0.123058 0.000000
0.577710 0.123365 0.000000
0.720552 0.123668 0.000000
0.856763 0.123957 0.000000
0.981306 0.124221 0.000000
1.000000 0.124330 0.000000
0.041624 0.247390 0.000000
0.160638 0.247642 0.000000
0.293163 0.247923 0.000000
0.434161 0.248222 0.000000
0.578599 0.248529 0.000000
0.721441 0.248832 0.000000
0.857651 0.249121 0.000000
0.982195 0.249385 0.000000
1.000000 0.249495 0.000000
0.042574 0.381136 0.000000
0.161588 0.381388 0.000000
0.294112 0.381669 0.000000
0.435111 0.381968 0.000000
0.579549 0.382275 0.000000
0.722391 0.382578 0.000000
0.858601 0.382867 0.000000
0.983145 0.383131 0.000000
1.000000 0.383241 0.000000
0.043553 0.519086 0.000000
0.162568 0.519339 0.000000
0.295092 0.519620 0.000000
0.436091 0.519919 0.000000
0.580529 0.520225 0.000000
0.723370 0.520528 0.000000
0.859581 0.520817 0.000000
0.984125 0.521081 0.000000
1.000000 0.521191 0.000000
0.044532 0.656863 0.000000
0.163546 0.657115 0.000000
0.296070 0.657397 0.000000
0.437069 0.657696 0.000000
0.581507 0.658002 0.000000
0.724349 0.658305 0.000000
0.860559 0.658594 0.000000
0.985103 0.658858 0.000000
1.000000 0.658968 0.000000
0.045478 0.790089 0.000000
0.164492 0.790341 0.000000
0.297016 0.790623 0.000000
0.438015 0.790922 0.000000
0.582453 0.791228 0.000000
0.725295 0.791531 0.000000
0.861505 0.791820 0.000000
0.986049 0.792084 0.000000
1.000000 0.792194 0.000000
0.046360 0.914386 0.000000
0.165375 0.914639 0.000000
0.297899 0.914920 0.000000
0.438898 0.915219 0.000000
0.583336 0.915525 0.000000
0.726178 0.915828 0.000000
0.862388 0.916117 0.000000
0.986932 0.916382 0.000000
1.000000 0.916491 0.000000
0.047090 1.000000 0.000000
0.166105 1.000000 0.000000
0.298629 1.000000 0.000000
0.439628 1.000000 0.000000
0.584066 1.000000 0.000000
0.726907 1.000000 0.000000
0.863118 1.000000 0.000000
0.987662 1.000000 0.000000
1.000000 1.000000 0.000000
0.040013 0.010096 0.093030
0.159027 0.010348 0.092525
0.291551 0.010629 0.091963
0.432550 0.010928 0.091365
0.576988 0.011235 0.090752
0.719830 0.011538 0.090146
0.856040 0.011827 0.089568
0.980584 0.012091 0.089039
1.000000 0.012201 0.088820
0.040810 0.122300 0.091437
0.159824 0.122553 0.090932
0.292348 0.122834 0.090369
0.433347 0.123133 0.089771
0.577785 0.123439 0.089158
0.720627 0.123742 0.088552
0.856837 0.124031 0.087974
0.981381 0.124295 0.087446
1.000000 0.124405 0.087227
0.041698 0.247464 0.089659
0.160713 0.247717 0.089154
0.293237 0.247998 0.088592
0.434236 0.248297 0.087993
0.578674 0.248603 0.087381
0.721516 0.248906 0.086774
0.857726 0.249195 0.086197
0.982270 0.249460 0.085668
1.000000 0.249569 0.085449
0.042648 0.381210 0.087759
0.161663 0.381463 0.087254
0.294187 0.381744 0.086692
0.435186 0.382043 0.086094
0.579623 0.382349 0.085481
0.722465 0.382652 0.084875
0.858676 0.382941 0.084297
0.983220 0.383206 0.083769
1.000000 0.383315 0.083550
0.043628 0.519161 0.085800
0.162642 0.519413 0.085295
0.295166 0.519694 0.084733
0.436165 0.519993 0.084135
0.580603 0.520300 0.083522
0.723445 0.520603 0.082916
0.859655 0.520892 0.082338
0.984199 0.521156 0.081809
1.000000 0.521265 0.081590
0.044606 0.656938 0.083843
0.163621 0.657190 0.083338
0.296145 0.657471 0.082776
0.437144 0.657770 0.082178
0.581581 0.658077 0.081565
0.724423 0.658380 0.080959
0.860634 0.658669 0.080381
0.985178 0.658933 0.079853
1.000000 0.659042 0.079634
0.045552 0.790163 0.081951
0.164567 0.790416 0.081446
0.297091 0.790697 0.080884
0.438090 0.790996 0.080286
0.582528 0.791303 0.079673
0.725369 0.791606 0.079067
0.861580 0.791895 0.078489
0.986124 0.792159 0.077960
1.000000 0.792268 0.077741
0.046435 0.914461 0.080186
0.165449 0.914713 0.079681
0.297974 0.914994 0.079119
0.438972 0.915293 0.078520
0.583410 0.915600 0.077908
0.726252 0.915903 0.077302
0.862462 0.916192 0.076724
0.987006 0.916456 0.076195
1.000000 0.916566 0.075976
0.047165 1.000000 0.078726
0.166179 1.000000 0.078221
0.298703 1.000000 0.077659
0.439702 1.000000 0.077061
0.584140 1.000000 0.076448
0.726982 1.000000 0.075842
0.863192 1.000000 0.075264
0.987736 1.000000 0.074735
1.000000 1.000000 0.074516
0.040096 0.010178 0.207493
0.159110 0.010431 0.206988
0.291634 0.010712 0.206425
0.432633 0.011011 0.205827
0.577071 0.011318 0.205214
0.719913 0.011621 0.204608
0.856123 0.011910 0.204030
0.980667 0.012174 0.203502
1.000000 0.012283 0.203283
0.040892 0.122383 0.205899
0.159907 0.122635 0.205394
0.292431 0.122916 0.204832
0.433430 0.123216 0.204234
0.577868 0.123522 0.203621
0.720709 0.123825 0.203015
0.856920 0.124114 0.202437
0.981464 0.124378 0.201908
1.000000 0.124488 0.201689
0.041781 0.247547 0.204122
0.160796 0.247799 0.203617
0.293320 0.248081 0.203054
0.434319 0.248380 0.202456
0.578756 0.248686 0.201843
0.721598 0.248989 0.201237
0.857809 0.249278 0.200659
0.982353 0.249542 0.200131
1.000000 0.249652 0.199912
0.042731 0.381293 0.202222
0.161745 0.381545 0.201717
0.294270 0.381827 0.201155
0.435268 0.382126 0.200556
0.579706 0.382432 0.199944
0.722548 0.382735 0.199338
0.858759 0.383024 0.198760
0.983302 0.383288 0.198231
1.000000 0.383398 0.198012
0.043710 0.519243 0.200263
0.162725 0.519496 0.199758
0.295249 0.519777 0.199195
0.436248 0.520076 0.198597
0.580686 0.520382 0.197984
0.723528 0.520686 0.197378
0.859738 0.520974 0.196800
0.984282 0.521239 0.196272
1.000000 0.521348 0.196053
0.044689 0.657020 0.198306
0.163703 0.657273 0.197801
0.296228 0.657554 0.197239
0.437226 0.657853 0.196640
0.581664 0.658159 0.196028
0.724506 0.658463 0.195422
0.860717 0.658751 0.194844
0.985260 0.659016 0.194315
1.000000 0.659125 0.194096
0.045635 0.790246 0.196414
0.164649 0.790499 0.195909
0.297174 0.790780 0.195347
0.438172 0.791079 0.194748
0.582610 0.791385 0.194135
0.725452 0.791688 0.193529
0.861663 0.791977 0.192951
0.986206 0.792242 0.192423
1.000000 0.792351 0.192204
0.046518 0.914543 0.194649
0.165532 0.914796 0.194144
0.298056 0.915077 0.193581
0.439055 0.915376 0.192983
0.583493 0.915683 0.192370
0.726335 0.915986 0.191764
0.862545 0.916275 0.191186
0.987089 0.916539 0.190658
1.000000 0.916648 0.190439
0.047248 1.000000 0.193189
0.166262 1.000000 0.192684
0.298786 1.000000 0.192121
0.439785 1.000000 0.191523
0.584223 1.000000 0.190910
0.727065 1.000000 0.190304
0.863275 1.000000 0.189726
0.987819 1.000000 0.189198
1.000000 1.000000 0.188979
0.040184 0.010267 0.329847
0.159198 0.010519 0.329342
0.291723 0.010800 0.328779
0.432721 0.011100 0.328181
0.577159 0.011406 0.327568
0.720001 0.011709 0.326962
0.856212 0.011998 0.326384
0.980755 0.012262 0.325856
1.000000 0.012372 0.325637
0.040981 0.122471 0.328253
0.159995 0.122724 0.327748
0.292520 0.123005 0.327186
0.433518 0.123304 0.326587
0.577956 0.123610 0.325975
0.720798 0.123914 0.325369
0.857008 0.124202 0.324791
0.981552 0.124467 0.324262
1.000000 0.124576 0.324043
0.041870 0.247635 0.326475
0.160884 0.247888 0.325970
0.293408 0.248169 0.325408
0.434407 0.248468 0.324810
0.578845 0.248775 0.324197
0.721687 0.249078 0.323591
0.857897 0.249367 0.323013
0.982441 0.249631 0.322485
1.000000 0.249740 0.322266
0.042819 0.381381 0.324576
0.161834 0.381634 0.324071
0.294358 0.381915 0.323509
0.435357 0.382214 0.322910
0.579795 0.382521 0.322297
0.722637 0.382824 0.321691
0.858847 0.383113 0.321113
0.983391 0.383377 0.320585
1.000000 0.383486 0.320366
0.043799 0.519332 0.322617
0.162813 0.519584 0.322112
0.295338 0.519865 0.321549
0.436336 0.520165 0.320951
0.580774 0.520471 0.320338
0.723616 0.520774 0.319732
0.859827 0.521063 0.319154
0.984370 0.521327 0.318626
1.000000 0.521437 0.318407
0.044777 0.657109 0.320660
0.163792 0.657361 0.320155
0.296316 0.657642 0.319593
0.437315 0.657942 0.318994
0.581753 0.658248 0.318381
0.724595 0.658551 0.317775
0.860805 0.658840 0.317197
0.985349 0.659104 0.316669
1.000000 0.659214 0.316450
0.045723 0.790335 0.318768
0.164738 0.790587 0.318263
0.297262 0.790868 0.317700
0.438261 0.791167 0.317102
0.582699 0.791474 0.316489
0.725541 0.791777 0.315883
0.861751 0.792066 0.315305
0.986295 0.792330 0.314777
1.000000 0.792440 0.314558
0.046606 0.914632 0.317002
0.165621 0.914884 0.316497
0.298145 0.915166 0.315935
0.439144 0.915465 0.315337
0.583581 0.915771 0.314724
0.726423 0.916074 0.314118
0.862634 0.916363 0.313540
0.987178 0.916627 0.313012
1.000000 0.916737 0.312793
0.047336 1.000000 0.315543
0.166350 1.000000 0.315038
0.298875 1.000000 0.314475
0.439873 1.000000 0.313877
0.584311 1.000000 0.313264
0.727153 1.000000 0.312658
0.863364 1.000000 0.312080
0.987907 1.000000 0.311552
1.000000 1.000000 0.311333
0.040276 0.010358 0.456593
0.159290 0.010611 0.456088
0.291814 0.010892 0.455525
0.432813 0.011191 0.454927
0.577251 0.011498 0.454314
0.720093 0.011801 0.453708
0.856303 0.012090 0.453130
0.980847 0.012354 0.452602
1.000000 0.012463 0.452383
0.041072 0.122563 0.454999
0.160087 0.122815 0.454494
0.292611 0.123097 0.453932
0.433610 0.123396 0.453334
0.578048 0.123702 0.452721
0.720890 0.124005 0.452115
0.857100 0.124294 0.451537
0.981644 0.124558 0.451008
1.000000 0.124668 0.450789
0.041961 0.247727 0.453222
0.160976 0.247980 0.452717
0.293500 0.248261 0.452154
0.434499 0.248560 0.451556
0.578937 0.248866 0.450943
0.721778 0.249169 0.450337
0.857989 0.249458 0.449759
0.982533 0.249722 0.449231
1.000000 0.249832 0.449012
0.042911 0.381473 0.451322
0.161925 0.381726 0.450817
0.294450 0.382007 0.450255
0.435448 0.382306 0.449657
0.579886 0.382612 0.449044
0.722728 0.382915 0.448438
0.858939 0.383204 0.447860
0.983482 0.383468 0.447331
1.000000 0.383578 0.447112
0.043891 0.519423 0.449363
0.162905 0.519676 0.448858
0.295429 0.519957 0.448296
0.436428 0.520256 0.447697
0.580866 0.520563 0.447084
0.723708 0.520866 0.446478
0.859918 0.521155 0.445900
0.984462 0.521419 0.445372
1.000000 0.521528 0.445153
0.044869 0.657200 0.447406
0.163883 0.657453 0.446901
0.296408 0.657734 0.446339
0.437406 0.658033 0.445741
0.581844 0.658340 0.445128
0.724686 0.658643 0.444522
0.860897 0.658932 0.443944
0.985440 0.659196 0.443415
1.000000 0.659305 0.443196
0.045815 0.790426 0.445514
0.164830 0.790679 0.445009
0.297354 0.790960 0.444447
0.438353 0.791259 0.443848
0.582790 0.791566 0.443236
0.725632 0.791869 0.442629
0.861843 0.792158 0.442052
0.986387 0.792422 0.441523
1.000000 0.792531 0.441304
0.046698 0.914724 0.443749
0.165712 0.914976 0.443244
0.298236 0.915257 0.442681
0.439235 0.915556 0.442083
0.583673 0.915863 0.441470
0.726515 0.916166 0.440864
0.862725 0.916455 0.440286
0.987269 0.916719 0.439758
1.000000 0.916828 0.439539
0.047428 1.000000 0.442289
0.166442 1.000000 0.441784
0.298966 1.000000 0.441221
0.439965 1.000000 0.440623
0.584403 1.000000 0.440010
0.727245 1.000000 0.439404
0.863455 1.000000 0.438826
0.987999 1.000000 0.438298
1.000000 1.000000 0.438079
0.040368 0.010451 0.584232
0.159382 0.010703 0.583727
0.291907 0.010984 0.583165
0.432905 0.011284 0.582567
0.577343 0.011590 0.581954
0.720185 0.011893 0.581348
0.856396 0.012182 0.580770
0.980939 0.012446 0.580241
1.000000 0.012556 0.580022
0.041165 0.122655 0.582639
0.160179 0.122908 0.582134
0.292703 0.123189 0.581571
0.433702 0.123488 0.580973
0.578140 0.123794 0.580360
0.720982 0.124097 0.579754
0.857192 0.124386 0.579176
0.981736 0.124651 0.578648
1.000000 0.124760 0.578429
0.042054 0.247819 0.580861
0.161068 0.248072 0.580356
0.293592 0.248353 0.579794
0.434591 0.248652 0.579196
0.579029 0.248958 0.578583
0.721871 0.249262 0.577977
0.858081 0.249551 0.577399
0.982625 0.249815 0.576870
1.000000 0.249924 0.576651
0.043003 0.381565 0.578962
0.162018 0.381818 0.578457
0.294542 0.382099 0.577894
0.435541 0.382398 0.577296
0.579979 0.382705 0.576683
0.722820 0.383008 0.576077
0.859031 0.383297 0.575499
0.983575 0.383561 0.574971
1.000000 0.383670 0.574752
0.043983 0.519516 0.577002
0.162997 0.519768 0.576497
0.295522 0.520049 0.575935
0.436520 0.520348 0.575337
0.580958 0.520655 0.574724
0.723800 0.520958 0.574118
0.860011 0.521247 0.573540
0.984554 0.521511 0.573012
1.000000 0.521621 0.572792
0.044961 0.657293 0.575046
0.163976 0.657545 0.574541
0.296500 0.657826 0.573978
0.437499 0.658125 0.573380
0.581937 0.658432 0.572767
0.724778 0.658735 0.572161
0.860989 0.659024 0.571583
0.985533 0.659288 0.571055
1.000000 0.659398 0.570836
0.045907 0.790519 0.573153
0.164922 0.790771 0.572648
0.297446 0.791052 0.572086
0.438445 0.791351 0.571488
0.582883 0.791658 0.570875
0.725725 0.791961 0.570269
0.861935 0.792250 0.569691
0.986479 0.792514 0.569163
1.000000 0.792624 0.568944
0.046790 0.914816 0.571388
0.165804 0.915068 0.570883
0.298329 0.915349 0.570321
0.439327 0.915649 0.569723
0.583765 0.915955 0.569110
0.726607 0.916258 0.568504
0.862818 0.916547 0.567926
0.987361 0.916811 0.567397
1.000000 0.916921 0.567178
0.047520 1.000000 0.569928
0.166534 1.000000 0.569423
0.299059 1.000000 0.568861
0.440057 1.000000 0.568263
0.584495 1.000000 0.567650
0.727337 1.000000 0.567044
0.863548 1.000000 0.566466
0.988091 1.000000 0.565937
1.000000 1.000000 0.565718
0.040458 0.010541 0.709266
0.159473 0.010794 0.708761
0.291997 0.011075 0.708199
0.432996 0.011374 0.707601
0.577434 0.011680 0.706988
0.720276 0.011983 0.706382
0.856486 0.012272 0.705804
0.981030 0.012537 0.705275
1.000000 0.012646 0.705056
0.041255 0.122746 0.707673
0.160270 0.122998 0.707168
0.292794 0.123279 0.706605
0.433793 0.123578 0.706007
0.578230 0.123885 0.705394
0.721072 0.124188 0.704788
0.857283 0.124477 0.704210
0.981827 0.124741 0.703682
1.000000 0.124851 0.703463
0.042144 0.247910 0.705895
0.161158 0.248162 0.705390
0.293683 0.248443 0.704828
0.434681 0.248742 0.704229
0.579119 0.249049 0.703617
0.721961 0.249352 0.703011
0.858172 0.249641 0.702433
0.982715 0.249905 0.701904
1.000000 0.250015 0.701685
0.043094 0.381656 0.703995
0.162108 0.381908 0.703491
0.294632 0.382189 0.702928
0.435631 0.382489 0.702330
0.580069 0.382795 0.701717
0.722911 0.383098 0.701111
0.859121 0.383387 0.700533
0.983665 0.383651 0.700005
1.000000 0.383761 0.699786
0.044073 0.519606 0.702036
0.163088 0.519859 0.701531
0.295612 0.520140 0.700969
0.436611 0.520439 0.700371
0.581049 0.520745 0.699758
0.723890 0.521048 0.699152
0.860101 0.521337 0.698574
0.984645 0.521602 0.698045
1.000000 0.521711 0.697826
0.045052 0.657383 0.700079
0.164066 0.657636 0.699575
0.296590 0.657917 0.699012
0.437589 0.658216 0.698414
0.582027 0.658522 0.697801
0.724869 0.658825 0.697195
0.861079 0.659114 0.696617
0.985623 0.659378 0.696089
1.000000 0.659488 0.695870
0.045998 0.790609 0.698187
0.165012 0.790862 0.697682
0.297536 0.791143 0.697120
0.438535 0.791442 0.696522
0.582973 0.791748 0.695909
0.725815 0.792051 0.695303
0.862025 0.792340 0.694725
0.986569 0.792604 0.694197
1.000000 0.792714 0.693978
0.046880 0.914906 0.696422
0.165895 0.915159 0.695917
0.298419 0.915440 0.695355
0.439418 0.915739 0.694756
0.583856 0.916045 0.694144
0.726698 0.916348 0.693538
0.862908 0.916637 0.692960
0.987452 0.916902 0.692431
1.000000 0.917011 0.692212
0.047610 1.000000 0.694962
0.166625 1.000000 0.694457
0.299149 1.000000 0.693895
0.440148 1.000000 0.693297
0.584586 1.000000 0.692684
0.727428 1.000000 0.692078
0.863638 1.000000 0.691500
0.988182 1.000000 0.690971
1.000000 1.000000 0.690752
0.040544 0.010627 0.828196
0.159559 0.010880 0.827691
0.292083 0.011161 0.827128
0.433082 0.011460 0.826530
0.577520 0.011766 0.825917
0.720362 0.012069 0.825311
0.856572 0.012358 0.824733
0.981116 0.012623 0.824205
1.000000 0.012732 0.823986
0.041341 0.122832 0.826602
0.160356 0.123084 0.826097
0.292880 0.123365 0.825535
0.433879 0.123664 0.824936
0.578316 0.123971 0.824324
0.721158 0.124274 0.823718
0.857369 0.124563 0.823140
0.981913 0.124827 0.822611
1.000000 0.124937 0.822392
0.042230 0.247996 0.824824
0.161244 0.248248 0.824319
0.293769 0.248529 0.823757
0.434767 0.248828 0.823159
0.579205 0.249135 0.822546
0.722047 0.249438 0.821940
0.858258 0.249727 0.821362
0.982801 0.249991 0.820834
1.000000 0.250101 0.820615
0.043180 0.381742 0.822925
0.162194 0.381994 0.822420
0.294718 0.382275 0.821858
0.435717 0.382575 0.821259
0.580155 0.382881 0.820646
0.722997 0.383184 0.820040
0.859207 0.383473 0.819462
0.983751 0.383737 0.818934
1.000000 0.383847 0.818715
0.044159 0.519692 0.820966
0.163174 0.519945 0.820461
0.295698 0.520226 0.819898
0.436697 0.520525 0.819300
0.581135 0.520831 0.818687
0.723976 0.521134 0.818081
0.860187 0.521423 0.817503
0.984731 0.521688 0.816975
1.000000 0.521797 0.816756
0.045138 0.657469 0.819009
0.164152 0.657722 0.818504
0.296676 0.658003 0.817942
0.437675 0.658302 0.817343
0.582113 0.658608 0.816730
0.724955 0.658911 0.816124
0.861165 0.659200 0.815546
0.985709 0.659464 0.815018
1.000000 0.659574 0.814799
0.046084 0.790695 0.817117
0.165098 0.790947 0.816612
0.297622 0.791229 0.816049
0.438621 0.791528 0.815451
0.583059 0.791834 0.814838
0.725901 0.792137 0.814232
0.862111 0.792426 0.813654
0.986655 0.792690 0.813126
1.000000 0.792800 0.812907
0.046966 0.914992 0.815351
0.165981 0.915245 0.814846
0.298505 0.915526 0.814284
0.439504 0.915825 0.813686
0.583942 0.916131 0.813073
0.726784 0.916434 0.812467
0.862994 0.916723 0.811889
0.987538 0.916988 0.811361
1.000000 0.917097 0.811142
0.047696 1.000000 0.813892
0.166711 1.000000 0.813387
0.299235 1.000000 0.812824
0.440234 1.000000 0.812226
0.584672 1.000000 0.811613
0.727514 1.000000 0.811007
0.863724 1.000000 0.810429
0.988268 1.000000 0.809901
1.000000 1.000000 0.809682
0.040623 0.010706 0.937521
0.159638 0.010959 0.937016
0.292162 0.011240 0.936454
0.433161 0.011539 0.935856
0.577599 0.011845 0.935243
0.720441 0.012148 0.934637
0.856651 0.012437 0.934059
0.981195 0.012702 0.933531
1.000000 0.012811 0.933311
0.041420 0.122911 0.935928
0.160435 0.123163 0.935423
0.292959 0.123444 0.934860
0.433958 0.123743 0.934262
0.578396 0.124050 0.933649
0.721237 0.124353 0.933043
0.857448 0.124642 0.932465
0.981992 0.124906 0.931937
1.000000 0.125016 0.931718
0.042309 0.248075 0.934150
0.161323 0.248327 0.933645
0.293848 0.248608 0.933083
0.434846 0.248908 0.932485
0.579284 0.249214 0.931872
0.722126 0.249517 0.931266
0.858337 0.249806 0.930688
0.982880 0.250070 0.930159
1.000000 0.250180 0.929940
0.043259 0.381821 0.932251
0.162273 0.382073 0.931746
0.294797 0.382354 0.931183
0.435796 0.382654 0.930585
0.580234 0.382960 0.929972
0.723076 0.383263 0.929366
0.859286 0.383552 0.928788
0.983830 0.383816 0.928260
1.000000 0.383926 0.928041
0.044238 0.519771 0.930291
0.163253 0.520024 0.929786
0.295777 0.520305 0.929224
0.436776 0.520604 0.928626
0.581214 0.520910 0.928013
0.724056 0.521213 0.927407
0.860266 0.521502 0.926829
0.984810 0.521767 0.926301
1.000000 0.521876 0.926082
0.045217 0.657548 0.928335
0.164231 0.657801 0.927830
0.296755 0.658082 0.927267
0.437754 0.658381 0.926669
0.582192 0.658687 0.926056
0.725034 0.658990 0.925450
0.861244 0.659279 0.924872
0.985788 0.659544 0.924344
1.000000 0.659653 0.924125
0.046163 0.790774 0.926442
0.165177 0.791027 0.925938
0.297702 0.791308 0.925375
0.438700 0.791607 0.924777
0.583138 0.791913 0.924164
0.725980 0.792216 0.923558
0.862190 0.792505 0.922980
0.986734 0.792769 0.922452
1.000000 0.792879 0.922233
0.047045 0.915071 0.924677
0.166060 0.915324 0.924172
0.298584 0.915605 0.923610
0.439583 0.915904 0.923012
0.584021 0.916210 0.922399
0.726863 0.916513 0.921793
0.863073 0.916802 0.921215
0.987617 0.917067 0.920686
1.000000 0.917176 0.920467
0.047775 1.000000 0.923217
0.166790 1.000000 0.922712
0.299314 1.000000 0.922150
0.440313 1.000000 0.921552
0.584751 1.000000 0.920939
0.727593 1.000000 0.920333
0.863803 1.000000 0.919755
0.988347 1.000000 0.919227
1.000000 1.000000 0.919007
